P3
64 64
255
231 253 136 85 186 201 24 183 182 81 24 14 55 38 207 208 71 166 8 214 198 235 44 203 221 25 162 98 123 29 98 183 192 23 254 17 80 248 74 39 147 251 6 251 71 32 110 217 28 100 191 166 47 121 43 179 154 212 254 62 128 40 69 24 171 193 233 44 67 163 209 24 222 2 179 90 59 108 238 202 223 47 30 43 62 52 110 230 143 7 128 2 9 100 76 154 247 155 215 25 142 199 53 30 6 207 0 69 180 144 88 164 175 65 168 210 250 251 235 87 73 149 168 61 14 23 249 178 127 19 7 201 130 165 125 24 36 146 193 112 11 64 145 140 42 19 76 16 195 203 101 151 27 211 50 188 64 128 96 234 98 5 129 240 205 196 99 130 140 75 181 40 103 149 124 189 9 160 182 18 110 125 7 95 137 78 177 146 134 177 65 32 
39 8 75 32 136 176 78 21 109 172 61 39 181 117 159 92 239 60 218 210 158 165 88 106 143 228 124 121 110 103 200 5 109 200 91 20 65 206 196 254 83 23 45 200 88 29 116 255 103 11 146 36 248 110 12 28 27 103 160 72 165 68 32 6 240 0 67 53 16 73 50 114 23 57 183 13 41 209 222 41 147 157 75 147 52 140 217 47 250 239 231 153 173 97 103 151 227 2 200 8 183 63 118 58 230 71 192 241 232 83 77 75 196 3 66 82 6 209 149 50 229 249 115 132 77 255 138 244 158 111 255 59 53 18 4 184 23 243 204 32 111 223 219 103 87 140 79 119 175 254 30 195 238 38 161 60 5 55 209 51 188 212 24 73 218 244 248 239 99 66 210 185 220 160 253 103 131 146 128 148 130 177 61 13 126 41 32 64 161 155 146 135 
6 168 129 94 212 203 134 59 74 233 209 246 118 100 225 217 30 177 213 41 44 38 128 232 95 199 218 53 248 111 163 17 234 76 42 195 116 197 83 68 107 135 96 204 193 57 22 21 27 110 17 148 74 74 90 202 127 111 238 234 229 14 227 31 254 179 125 26 36 119 215 52 224 163 134 165 104 103 40 162 86 126 142 251 148 48 27 75 16 243 182 30 151 185 84 149 158 103 125 189 95 147 223 204 67 199 217 177 196 250 134 106 3 238 248 23 118 105 209 96 24 32 88 255 147 12 196 2 178 134 7 103 18 76 142 6 28 46 119 14 108 184 158 40 185 199 95 160 105 25 234 149 15 253 203 139 99 147 182 86 107 121 80 137 247 194 184 195 197 21 63 93 72 78 58 254 50 17 151 163 135 81 69 243 168 33 125 18 47 6 185 194 
233 228 215 131 30 177 6 230 63 221 120 233 189 216 18 33 167 161 144 144 104 23 214 86 2 217 37 57 139 75 192 133 9 158 168 113 30 245 178 94 44 254 211 241 216 232 117 56 33 163 225 138 237 161 216 72 26 79 23 130 242 75 127 145 22 204 99 215 74 160 157 15 115 82 106 158 96 192 38 69 49 34 170 232 41 121 253 7 63 95 12 173 208 63 166 130 123 19 139 241 167 218 49 156 220 106 27 228 194 183 182 173 146 1 70 112 36 78 215 159 50 7 35 139 107 137 251 119 254 65 227 125 201 252 68 195 142 66 56 1 226 72 231 26 88 184 63 236 138 65 108 215 34 238 178 154 54 236 36 21 76 61 244 32 27 58 224 41 176 79 25 176 126 91 51 190 80 84 23 146 231 94 2 136 33 227 192 202 119 107 81 87 
159 249 223 153 98 136 98 99 123 81 116 128 118 32 44 219 250 0 228 18 38 41 129 84 143 241 28 96 76 36 131 170 175 210 255 64 37 219 236 243 155 45 46 245 53 227 201 57 203 215 248 43 144 152 78 13 66 180 113 204 199 122 230 164 57 122 75 211 124 167 137 90 236 228 60 81 197 218 145 208 125 252 141 254 0 61 230 142 31 133 77 195 32 164 90 18 224 36 74 52 109 31 51 252 211 71 172 177 72 18 75 240 101 136 7 119 233 138 210 151 14 32 107 104 221 243 103 32 112 238 99 209 175 228 100 91 244 148 148 5 136 2 156 149 19 104 241 255 12 249 34 62 196 84 55 168 204 130 176 254 255 183 164 133 60 92 59 63 115 162 75 12 5 230 243 92 230 230 64 16 243 171 108 146 121 218 66 19 38 57 204 99 
153 85 138 229 164 34 61 116 255 33 22 178 232 200 166 128 223 79 191 233 83 191 105 192 249 29 11 27 21 24 196 155 140 129 111 231 236 154 200 11 158 142 218 93 34 184 54 122 62 100 43 187 111 111 187 14 69 55 183 242 113 57 36 216 18 146 144 116 194 11 160 69 111 208 86 246 88 119 250 6 21 105 40 196 185 67 78 173 189 146 194 178 151 119 4 64 123 98 172 75 255 52 25 37 84 38 183 33 16 179 56 47 30 173 36 43 183 195 104 159 5 37 154 2 98 72 199 20 109 113 16 223 21 88 252 197 30 50 189 191 176 219 231 141 193 182 174 245 253 187 46 83 84 57 133 222 23 255 5 44 220 16 176 118 127 137 203 6 25 253 234 59 221 200 197 139 78 234 227 93 93 62 52 81 32 62 192 115 63 85 242 95 
109 87 243 143 136 25 132 60 210 170 223 228 140 231 134 235 81 5 89 17 254 101 92 107 132 106 121 245 206 151 12 76 167 80 59 152 252 30 163 164 127 66 20 20 33 167 26 182 155 231 128 245 35 25 161 70 83 77 161 71 53 160 224 212 24 171 201 7 210 204 41 206 197 19 121 36 63 90 175 143 192 192 29 74 207 178 103 144 40 86 115 84 251 39 175 43 255 137 7 142 175 43 174 134 15 94 158 48 45 152 218 252 84 202 17 118 121 110 38 121 23 208 179 162 149 110 204 141 164 89 112 23 0 105 100 247 68 57 110 190 84 12 211 25 114 192 85 91 102 155 250 251 10 201 210 24 123 133 210 38 228 131 201 209 23 65 210 46 196 176 19 143 184 213 78 240 179 44 192 226 201 171 118 21 98 57 45 143 208 209 246 87 
124 204 5 219 203 16 179 210 236 157 2 176 216 102 188 46 79 28 90 187 76 181 204 93 185 58 115 123 235 39 152 125 157 239 219 109 68 16 168 126 228 186 64 20 71 214 170 46 172 91 108 238 220 93 202 75 148 218 200 28 139 217 175 253 59 195 94 180 213 63 9 133 214 107 206 203 119 112 50 120 172 145 201 146 148 38 191 46 248 228 249 198 134 127 165 10 192 142 113 236 18 111 139 230 13 114 64 231 55 133 87 159 28 219 187 214 177 216 112 166 34 97 37 18 46 152 18 74 106 78 99 162 245 3 23 34 98 21 181 208 70 117 107 4 246 164 230 61 248 115 249 3 20 119 82 253 240 174 148 151 129 21 88 174 72 54 0 214 181 156 126 252 95 91 47 142 83 26 176 64 164 102 153 86 21 122 89 234 113 103 180 71 
154 0 74 247 186 111 4 70 205 40 221 240 46 115 81 210 251 117 242 149 37 162 108 144 70 98 18 131 95 110 215 60 98 247 235 188 36 28 82 239 241 6 11 94 86 48 77 28 238 129 136 17 102 226 87 134 31 225 169 68 130 55 188 104 52 99 25 180 141 122 245 202 21 158 12 224 199 170 124 33 183 68 142 166 194 209 162 185 235 221 62 246 20 17 89 146 184 125 61 222 78 169 245 41 33 98 42 181 175 15 156 97 105 121 213 229 101 132 249 189 207 64 254 222 198 109 29 127 138 251 212 86 192 233 187 194 131 47 111 43 60 191 106 192 243 45 107 205 186 37 73 19 182 193 5 105 8 70 161 94 84 56 128 77 159 148 73 102 106 102 52 210 51 88 110 127 3 31 57 42 64 184 91 64 219 156 42 239 118 112 179 248 
83 129 6 28 72 127 98 134 54 235 234 207 6 168 15 64 4 204 216 144 21 177 19 133 98 67 43 29 196 144 143 113 212 226 147 84 205 169 32 31 63 97 64 235 172 5 75 195 150 230 117 203 149 31 60 134 44 214 108 125 190 111 76 130 251 94 89 172 58 15 202 191 169 29 135 155 103 23 203 97 156 205 125 72 152 66 64 99 202 88 250 248 24 97 93 27 199 31 64 97 74 253 171 223 19 144 95 90 212 132 68 134 174 127 27 27 43 34 0 110 249 172 206 138 235 94 218 160 122 85 107 106 94 82 89 208 197 29 159 141 212 29 192 198 181 248 151 241 138 63 247 190 139 199 141 167 36 57 75 113 5 101 179 138 174 195 203 106 214 232 162 161 197 57 199 46 232 180 129 152 191 233 175 154 13 108 31 199 179 89 119 160 
5 125 230 252 255 214 59 163 56 13 22 240 85 248 169 137 28 206 130 185 16 232 220 42 220 179 178 37 233 251 243 152 59 202 39 241 82 100 200 101 121 131 198 200 137 96 41 55 8 35 71 28 114 119 228 24 57 224 232 76 102 57 222 90 167 208 183 164 181 130 74 6 234 176 209 165 207 5 253 156 153 243 224 106 185 179 143 169 188 17 89 86 13 225 48 58 17 147 210 249 47 59 208 233 193 185 150 230 156 217 245 98 126 51 146 2 164 38 35 62 164 248 91 44 200 133 226 228 113 81 179 72 215 100 131 106 111 150 154 140 65 11 20 103 28 34 39 241 82 164 75 163 31 91 119 24 225 237 36 201 202 35 225 88 101 203 105 28 207 208 110 41 0 119 161 71 203 246 198 180 17 9 93 210 77 167 61 58 19 104 215 123 
168 103 117 130 241 153 251 30 242 91 89 236 70 189 158 14 5 59 49 2 31 173 67 20 254 75 111 107 201 75 6 58 192 40 122 70 135 156 169 146 36 120 59 72 217 224 81 102 15 10 32 237 104 29 61 13 74 199 60 104 84 159 198 245 127 58 141 86 216 52 36 111 159 221 234 179 46 171 29 132 120 180 209 243 251 15 42 200 158 214 142 106 218 81 224 148 192 141 117 114 69 42 85 25 62 50 67 21 0 85 88 74 51 137 100 181 93 232 86 185 107 239 6 132 99 2 244 232 78 12 7 242 64 216 5 29 248 247 36 165 14 67 187 206 128 200 194 228 198 0 49 11 184 34 53 250 34 122 59 34 154 1 15 90 82 24 48 14 176 51 197 129 226 175 3 172 108 162 87 136 7 171 246 93 183 26 177 78 172 226 61 19 
135 254 229 17 44 202 152 199 216 102 82 201 50 206 95 197 225 97 174 69 70 118 106 113 55 88 82 11 174 100 59 155 110 33 114 51 247 3 33 48 128 178 34 229 46 103 145 214 154 21 177 91 83 2 87 150 166 18 44 6 201 244 203 33 182 244 42 62 37 1 66 40 199 143 195 162 48 3 131 231 219 142 239 89 135 241 81 172 240 178 201 211 169 26 153 41 183 233 44 61 0 194 16 122 171 236 212 121 247 45 17 255 98 210 77 76 175 169 45 227 81 112 244 68 121 42 107 167 215 253 218 18 85 183 15 203 132 24 80 48 144 28 64 51 55 214 195 79 210 25 87 26 96 237 32 246 56 157 141 57 123 115 190 219 163 147 94 196 86 8 41 35 24 113 75 4 202 200 222 133 182 161 162 96 139 139 66 186 9 216 163 18 
199 231 213 13 224 181 204 106 243 60 254 116 93 2 33 178 207 142 232 251 74 79 184 42 0 40 145 240 232 218 157 206 76 59 55 180 16 108 118 243 249 138 26 63 185 183 26 50 220 172 21 198 121 180 163 253 208 248 38 63 61 232 9 125 187 98 192 133 210 21 59 87 104 253 73 248 137 225 117 88 105 181 186 134 160 160 121 179 2 159 159 210 85 87 40 80 245 39 91 5 169 54 180 83 8 148 230 221 196 110 141 193 105 92 125 62 21 191 221 210 17 214 143 227 233 13 112 178 62 76 251 46 251 72 11 126 247 11 3 20 89 75 189 78 50 146 68 231 120 192 23 205 141 105 104 118 215 197 186 90 58 8 146 68 240 34 203 139 99 185 199 78 30 147 4 216 246 172 195 133 52 147 184 0 121 131 154 19 247 185 81 58 
225 44 88 7 76 28 231 159 30 77 187 3 177 29 165 19 65 20 18 228 185 223 244 113 56 242 173 254 179 175 206 204 84 68 63 211 209 231 0 14 247 180 106 160 3 114 53 175 69 114 180 120 122 104 156 186 81 136 237 6 85 107 12 211 136 187 98 122 54 46 26 102 242 86 126 239 0 128 189 118 246 143 147 128 116 247 75 248 22 140 188 50 14 217 101 57 42 167 210 128 145 144 133 76 96 174 106 82 163 179 104 195 165 187 170 134 42 159 169 59 80 191 106 9 239 192 96 221 148 48 17 190 110 4 151 15 115 196 241 192 14 224 120 183 197 115 73 131 208 230 185 156 165 207 246 168 184 120 201 139 42 236 83 210 57 186 13 158 189 102 251 109 227 150 89 247 111 236 244 112 218 28 222 91 152 73 214 86 174 56 150 190 
113 157 184 79 156 96 93 42 47 210 141 63 54 45 6 89 44 91 60 154 230 152 56 230 34 216 242 54 236 107 93 61 111 127 105 213 59 154 236 219 21 175 202 255 72 26 110 244 223 219 176 88 132 49 227 190 93 161 193 238 139 29 217 47 164 98 232 205 229 4 23 9 102 159 177 162 16 57 205 43 218 100 135 27 93 208 94 188 199 89 153 25 180 253 136 129 29 7 207 217 144 160 209 228 110 109 135 129 40 70 150 96 102 137 171 239 96 126 228 136 152 59 110 6 30 209 167 52 215 95 140 91 10 112 248 206 27 72 156 122 43 136 150 184 69 22 143 10 114 144 140 202 244 125 108 133 161 165 25 0 15 171 83 206 187 14 93 237 197 93 45 154 212 231 130 110 62 167 105 136 106 118 237 165 205 46 199 104 146 137 219 77 
120 156 93 2 224 251 128 101 226 40 198 248 149 114 2 194 188 72 127 132 124 220 130 193 255 0 214 215 82 220 202 254 248 75 158 174 169 165 28 114 210 20 218 253 136 136 166 135 208 52 231 18 90 212 188 187 157 113 99 66 30 103 182 46 207 202 164 16 219 212 221 15 66 237 191 101 201 139 216 182 230 238 1 104 21 155 234 241 227 182 24 248 10 20 92 103 238 85 98 49 34 207 13 172 22 78 124 56 229 115 47 95 99 131 116 67 238 133 87 6 31 17 182 52 196 234 244 213 91 45 190 199 103 53 92 109 220 158 193 78 31 212 46 211 60 164 224 165 81 100 75 233 181 181 45 192 213 75 216 169 206 39 66 157 242 42 126 55 124 3 78 146 203 195 239 247 139 2 222 115 56 142 20 162 60 48 144 128 40 5 169 23 
87 64 250 45 249 173 41 240 65 103 5 103 37 53 54 210 194 132 38 231 29 95 194 126 14 253 125 159 67 177 44 131 196 118 43 184 180 15 37 248 202 34 37 101 151 85 107 51 236 16 248 53 40 14 26 88 223 43 79 160 12 176 151 245 11 254 100 204 146 141 14 78 86 35 157 43 122 127 14 71 107 19 72 43 110 145 224 183 60 184 87 109 153 106 116 133 250 76 193 185 211 101 203 145 252 226 129 127 5 237 255 235 85 145 145 154 246 18 183 16 229 44 154 1 193 253 155 125 106 78 234 18 195 152 218 104 13 216 104 241 179 119 146 128 49 120 141 84 6 208 19 212 215 70 223 252 132 5 231 142 236 193 18 81 187 193 55 193 192 10 189 212 219 2 94 97 73 70 102 196 61 49 202 53 236 163 220 81 38 39 244 243 
109 99 181 254 55 182 15 9 88 253 78 168 73 147 142 81 158 95 9 165 64 149 190 96 168 169 9 127 233 36 151 104 115 170 50 254 138 163 151 65 88 235 211 206 92 30 14 243 35 25 157 146 148 3 145 40 98 10 175 196 97 57 111 10 174 104 222 233 242 31 149 31 106 34 229 195 135 177 34 192 120 212 178 82 201 232 38 28 229 9 145 221 105 132 15 60 175 227 194 59 97 112 54 182 37 39 34 208 65 36 212 105 250 224 72 93 196 166 112 201 243 204 200 225 142 57 221 120 128 214 35 86 54 17 30 66 117 249 126 50 162 239 165 50 214 156 108 99 101 254 211 100 145 83 95 236 254 219 64 205 140 97 1 246 210 238 205 229 214 26 110 165 178 83 20 140 40 91 231 192 6 180 226 35 168 231 175 38 100 100 181 224 
16 62 238 159 112 174 183 194 137 174 236 54 136 3 171 197 11 164 60 92 132 243 47 65 135 1 223 10 131 172 237 193 118 147 152 4 116 119 69 204 149 52 205 201 44 133 22 200 28 11 228 240 58 38 95 122 202 206 42 81 185 198 22 136 212 44 49 157 112 86 87 10 144 125 222 221 71 70 152 220 244 225 53 175 2 147 144 155 244 160 68 166 79 68 145 112 63 74 125 103 251 167 164 186 9 135 215 121 133 247 84 6 193 58 25 75 127 105 162 80 245 74 216 160 155 61 197 82 63 94 32 233 71 220 157 245 247 87 73 234 48 146 124 46 250 169 192 253 165 222 36 32 148 18 75 108 17 212 130 96 15 128 176 209 72 202 84 213 109 31 5 116 207 112 22 50 136 61 240 14 215 176 98 72 184 163 243 193 13 15 54 112 
228 239 63 94 123 96 252 170 98 129 168 210 148 67 106 252 151 7 203 139 217 67 61 96 234 113 146 84 44 208 234 29 136 99 239 51 195 51 190 251 245 93 17 46 148 19 60 250 124 46 133 242 141 31 165 200 54 180 156 179 238 98 182 92 57 45 64 7 178 130 185 174 81 98 242 58 116 10 76 241 225 119 236 81 18 174 255 146 160 121 189 226 130 129 54 103 126 186 39 145 160 27 47 17 32 186 223 201 162 254 208 41 112 123 135 18 66 127 101 52 206 77 189 60 159 167 13 67 212 233 234 240 212 169 0 61 136 139 251 202 65 163 156 194 74 223 205 177 27 171 249 242 43 30 76 224 247 153 111 146 163 159 100 8 248 152 161 38 203 193 213 158 63 156 91 96 61 178 164 100 103 142 157 50 193 184 232 66 78 86 1 25 
117 114 142 79 171 57 8 122 47 78 58 71 89 120 136 188 177 16 93 236 221 169 57 212 217 136 192 22 46 111 19 216 68 240 37 187 205 243 215 78 108 68 119 84 12 120 139 196 4 35 43 113 51 18 191 107 28 95 72 69 191 225 48 19 70 107 90 30 251 158 44 187 199 60 111 27 17 214 227 140 175 122 241 255 218 67 125 176 184 26 110 185 129 200 79 234 174 201 175 8 151 206 116 55 173 253 180 234 189 248 173 222 120 248 43 244 93 229 205 21 53 237 198 210 18 177 16 53 116 189 106 183 46 229 249 116 255 147 23 191 109 25 80 22 191 87 161 123 170 107 42 80 94 70 186 67 48 64 66 205 176 32 182 17 64 8 211 251 34 140 199 53 186 46 128 183 7 69 204 185 67 108 73 45 251 88 100 173 176 11 34 159 
153 231 108 74 227 136 209 210 107 173 234 212 130 32 181 66 186 22 138 45 135 36 106 177 28 106 123 36 135 244 126 113 235 153 181 111 6 22 97 43 155 238 57 47 228 27 69 213 124 154 140 61 62 37 128 126 19 119 144 148 233 37 54 220 137 189 227 86 112 198 59 10 176 146 198 140 83 174 133 214 68 195 144 32 99 254 182 86 242 168 145 22 101 46 249 51 251 25 229 250 186 144 83 10 162 185 163 17 2 194 100 32 69 191 221 82 162 71 184 173 77 47 237 155 212 103 55 20 86 208 158 168 164 71 188 159 185 6 252 186 104 9 13 182 248 101 110 71 165 86 177 179 7 58 41 220 161 35 196 119 34 129 167 90 10 249 152 156 250 93 165 133 138 44 147 55 139 179 127 241 125 251 114 155 196 149 96 1 95 128 12 223 
192 16 206 219 214 245 2 162 212 22 198 134 72 68 102 43 228 109 83 125 219 125 95 1 73 58 148 42 193 127 120 42 183 8 193 158 26 160 29 243 250 11 226 7 130 43 203 111 9 107 30 15 99 234 168 15 78 58 125 215 202 124 179 17 108 137 34 243 68 17 23 138 98 236 147 26 197 223 92 14 73 129 226 199 55 116 98 34 48 23 45 199 126 221 110 174 175 207 212 16 70 252 32 143 144 58 162 177 255 55 21 124 254 141 46 31 185 1 252 143 146 187 174 193 149 0 253 32 164 44 76 37 104 155 107 2 122 18 246 190 146 194 128 86 18 110 197 193 56 162 109 222 12 39 145 164 37 0 181 60 230 110 159 175 240 221 100 251 142 89 147 207 224 238 150 203 194 47 228 32 152 94 67 217 19 1 246 253 212 75 150 155 
59 2 151 71 95 156 140 3 54 79 152 112 241 0 110 149 97 19 49 130 156 111 167 248 235 52 88 6 152 101 89 122 94 42 130 188 144 56 63 75 208 47 235 10 15 246 9 232 45 185 217 146 164 224 165 38 112 64 12 52 255 18 180 63 150 48 178 53 55 81 172 246 46 158 182 99 130 211 141 194 149 1 255 188 164 84 75 93 167 7 215 133 114 133 7 73 16 211 16 30 167 229 238 196 68 223 100 63 152 167 16 227 217 183 86 251 100 208 184 152 94 248 146 135 199 12 251 111 108 141 194 168 253 22 185 42 134 139 241 107 142 190 152 241 85 154 250 125 243 153 81 27 124 243 34 11 35 200 239 230 99 218 93 2 128 132 1 81 201 220 120 207 14 44 136 98 172 47 53 43 153 234 87 41 206 174 26 93 124 143 168 62 
21 21 11 63 25 179 225 197 30 190 143 113 69 78 129 19 135 190 50 122 97 46 181 134 176 172 130 14 11 146 186 154 51 210 66 15 138 77 113 222 188 153 13 157 217 214 168 18 0 141 158 16 254 253 121 81 108 39 92 217 41 197 158 195 90 235 101 182 255 127 126 205 170 219 216 56 114 207 130 171 66 110 1 221 155 134 45 15 153 216 204 24 216 1 179 54 89 212 43 30 172 223 123 35 255 108 106 11 196 71 7 186 167 193 223 165 109 218 71 47 190 219 147 151 64 216 118 191 33 177 50 57 164 89 114 176 56 150 23 113 26 107 81 86 145 171 15 103 117 202 35 168 209 202 152 46 151 105 167 82 12 168 0 204 184 60 183 203 54 115 135 197 137 235 219 155 149 145 84 74 186 84 156 100 34 102 239 245 16 210 97 70 
71 191 120 87 63 155 247 91 125 178 117 56 62 117 204 84 23 112 191 20 209 110 241 240 208 255 108 159 13 246 136 22 126 231 128 222 3 5 78 14 82 17 156 28 122 178 189 221 136 74 91 89 239 38 117 119 80 1 150 181 50 160 23 221 196 211 0 73 214 228 217 145 15 167 206 169 3 143 23 85 44 106 210 238 127 88 80 82 247 184 88 186 242 184 100 107 118 112 10 23 86 40 26 72 181 49 252 101 63 99 223 57 152 25 239 154 129 240 154 126 149 216 218 205 52 194 128 184 177 225 178 45 74 37 139 38 236 8 218 156 147 26 77 151 92 254 166 104 213 80 229 213 108 86 197 122 181 88 66 79 215 26 25 121 59 15 245 196 234 81 105 36 81 88 208 94 106 170 9 60 184 122 106 49 79 177 227 211 227 84 96 179 
63 136 126 158 40 240 213 104 1 147 141 44 21 4 70 217 12 165 133 107 8 117 251 168 175 175 25 150 84 154 61 83 89 38 2 50 108 206 113 48 165 198 73 236 208 185 52 57 103 149 234 157 38 120 231 232 30 69 217 98 225 53 223 145 108 142 13 33 206 64 205 50 207 45 195 210 214 145 245 79 231 179 28 234 192 136 105 120 22 133 102 81 11 42 202 56 250 15 26 135 70 75 211 172 140 57 149 228 48 216 145 197 92 242 143 30 179 207 187 219 67 81 13 30 2 93 232 101 71 81 92 175 100 92 180 158 157 15 54 21 214 239 196 110 207 156 62 194 114 10 49 231 147 206 222 166 165 187 150 40 85 245 51 191 8 50 105 99 138 252 57 210 101 124 27 69 134 85 39 81 249 120 0 0 13 138 3 204 119 96 86 231 
143 89 43 102 198 80 199 46 144 194 224 153 153 39 145 60 118 54 120 255 26 250 196 19 132 35 253 50 134 79 25 215 54 66 104 37 134 6 20 63 33 12 80 97 219 86 198 160 110 214 113 119 146 120 135 43 54 57 149 17 57 172 224 239 156 71 89 98 144 199 109 218 51 37 241 139 163 6 255 62 225 54 113 155 227 27 68 2 75 136 32 238 77 87 47 59 124 90 8 113 211 9 109 162 46 80 31 68 247 120 44 181 88 230 2 14 37 28 197 23 176 103 140 176 91 59 37 30 56 133 172 241 160 243 79 38 178 96 153 121 250 101 26 90 91 29 155 165 140 135 240 26 219 171 71 229 133 235 25 214 59 21 198 209 39 1 119 100 117 109 104 248 56 107 137 17 147 141 196 125 159 81 187 236 230 229 120 175 26 178 45 42 
241 196 63 210 11 190 254 49 106 253 125 39 72 180 140 125 227 255 224 100 30 170 124 156 47 70 238 208 175 218 123 184 86 170 99 241 237 177 60 55 4 159 231 55 42 86 244 172 55 137 123 222 55 83 30 254 21 124 220 228 40 89 225 41 100 243 99 176 218 206 181 198 72 214 69 108 161 253 133 208 97 186 138 21 95 156 105 96 86 3 41 236 119 22 30 102 29 241 205 209 211 43 124 230 139 232 188 122 74 73 142 172 251 164 188 44 13 60 185 109 241 216 185 38 82 232 194 245 205 7 242 143 205 5 10 59 242 152 107 5 195 184 42 52 124 75 229 109 133 238 100 37 237 253 184 255 210 253 65 64 127 71 20 40 37 3 3 117 175 89 83 64 20 131 207 131 240 105 13 150 164 117 65 75 6 46 198 65 90 214 90 29 
164 204 68 154 148 10 163 71 62 242 47 219 3 29 40 240 169 120 228 197 31 31 142 132 109 5 164 35 75 180 170 71 81 225 111 59 123 80 1 137 246 215 245 74 50 126 3 198 137 47 2 194 166 225 77 173 27 247 221 12 13 200 116 146 201 103 60 237 123 164 164 246 88 67 6 235 152 80 88 88 130 255 106 111 186 183 188 244 230 89 152 204 176 90 33 20 165 79 24 59 113 130 213 125 172 142 172 37 96 94 13 74 85 86 204 178 162 94 152 5 186 9 191 76 212 89 92 104 197 123 192 98 99 236 98 139 108 5 162 229 99 236 169 194 142 170 120 4 89 87 196 223 111 80 113 1 114 20 22 121 246 208 239 69 40 38 176 189 172 208 72 229 103 101 174 235 171 139 61 41 88 49 114 6 12 242 116 28 114 204 42 115 
202 193 130 156 252 121 138 103 124 174 201 174 171 89 1 202 169 138 222 80 191 149 3 97 187 143 86 91 35 87 237 211 241 11 171 4 153 194 61 231 41 228 232 38 211 19 76 93 123 41 219 75 179 139 140 4 134 35 99 172 240 56 250 14 93 2 75 177 113 148 232 228 44 17 106 81 146 198 230 155 0 116 255 194 20 111 36 125 176 80 45 60 73 242 211 98 174 2 17 31 94 148 188 234 144 145 156 107 199 60 0 197 184 94 198 151 231 143 49 31 149 102 22 189 133 156 198 163 226 11 46 103 55 144 215 196 145 49 136 10 113 113 112 64 188 202 206 177 23 178 32 247 86 2 182 178 163 156 243 66 39 193 149 153 201 249 26 72 208 81 77 124 35 228 45 4 170 51 123 35 98 195 145 20 168 145 150 32 37 181 134 16 
29 132 52 185 91 21 192 83 152 146 227 230 60 109 243 60 8 245 208 7 242 20 103 197 158 222 157 21 44 194 142 160 147 40 92 80 30 141 177 223 81 35 237 182 184 105 56 237 126 166 44 132 57 181 255 111 172 134 215 154 243 193 1 99 105 77 209 104 246 250 177 138 108 168 92 170 231 35 144 254 19 225 29 127 169 169 77 69 155 138 28 18 74 253 119 234 153 227 91 163 255 64 252 223 85 131 230 246 52 203 47 20 157 198 120 224 22 160 158 152 118 107 62 246 187 49 26 168 29 63 120 221 201 30 241 3 76 52 203 169 154 26 178 73 151 110 168 180 7 196 29 62 34 240 244 226 216 151 179 85 38 172 118 190 169 221 188 1 212 160 44 217 46 188 47 179 182 226 224 155 130 93 194 62 12 249 184 85 35 108 122 92 
57 45 142 158 74 43 166 128 95 144 237 198 33 192 160 30 238 250 78 75 216 5 3 52 145 21 119 158 233 5 122 204 156 201 216 208 173 36 98 64 247 126 141 154 15 245 6 71 237 203 45 20 35 101 122 249 158 181 223 149 208 99 241 0 88 10 242 32 249 127 35 58 63 84 16 179 174 171 103 18 51 231 104 131 220 197 245 184 200 70 120 93 236 2 130 81 23 82 119 83 236 82 235 228 82 231 26 168 199 209 107 30 150 28 224 47 222 244 149 6 241 118 203 145 110 36 187 201 46 205 217 88 94 117 93 79 79 78 70 183 235 216 143 104 136 63 214 177 177 231 207 247 16 251 152 46 20 181 9 207 14 165 188 120 63 111 148 94 89 65 108 165 129 1 72 92 7 91 23 227 114 3 35 168 252 46 225 137 163 89 215 53 
117 108 171 231 8 85 61 126 194 143 63 247 181 141 244 221 126 143 151 201 180 138 129 93 119 243 30 116 112 168 129 100 184 160 82 207 23 13 148 100 60 32 39 168 31 11 187 62 37 135 227 158 67 156 151 194 210 166 35 235 224 141 192 231 212 201 74 39 80 195 10 26 208 220 223 148 180 94 187 5 118 241 201 236 29 86 172 212 19 202 251 237 232 73 131 76 14 100 224 7 224 128 195 200 220 185 240 200 92 88 121 196 248 200 120 132 205 159 19 20 117 221 140 87 205 76 198 196 83 228 58 155 77 131 4 205 81 125 10 35 98 58 218 18 162 249 181 124 146 170 255 237 126 255 13 59 21 49 127 215 48 104 126 217 112 83 91 167 18 97 31 5 14 237 75 166 53 252 84 127 73 67 103 92 20 138 208 196 120 21 248 69 
121 44 195 51 196 42 19 235 228 183 25 37 104 220 125 81 9 82 60 62 164 42 118 28 244 96 177 74 94 129 184 141 235 229 187 50 208 68 101 82 169 128 246 32 39 62 44 34 121 219 222 51 182 25 140 151 168 190 242 239 57 35 189 179 254 249 7 16 72 236 177 240 152 14 102 0 200 253 242 198 160 249 210 205 82 0 17 187 40 142 158 32 207 187 184 30 228 76 68 230 66 81 174 106 0 87 212 59 163 166 99 168 129 55 57 154 144 101 215 84 103 116 69 167 16 247 84 161 132 112 234 88 42 140 190 1 226 178 165 114 111 82 118 75 26 178 205 149 247 79 34 123 136 231 157 57 221 41 112 100 40 66 2 238 93 229 215 43 69 49 216 87 104 19 227 244 10 214 212 99 5 137 134 55 186 180 72 8 229 207 141 23 
167 66 125 253 54 141 211 17 5 146 225 215 221 154 72 247 5 17 215 101 85 167 104 196 157 44 43 201 254 189 39 103 75 9 211 205 47 181 233 113 169 188 113 109 243 83 108 26 147 135 217 173 189 156 48 236 80 205 195 204 226 26 171 98 218 222 240 244 153 143 4 225 165 22 137 217 11 103 11 200 89 220 6 12 18 238 243 65 175 95 255 171 111 207 197 82 62 179 4 100 85 144 60 143 3 78 216 0 8 163 192 251 188 74 95 91 166 241 20 114 126 174 37 255 110 231 118 22 213 58 28 103 217 36 242 23 140 67 49 41 214 130 66 142 210 13 160 238 15 255 133 44 212 219 205 129 176 192 218 111 36 35 235 234 151 74 24 219 11 12 70 116 110 92 188 80 70 240 31 14 153 172 77 130 112 3 167 136 140 9 225 192 
88 50 143 207 74 185 130 124 43 231 234 247 69 97 241 104 235 168 125 105 100 32 224 92 123 138 91 243 252 157 26 179 102 26 48 122 86 203 203 227 123 194 116 241 19 14 64 201 143 26 140 143 93 244 236 128 228 67 39 90 91 157 2 167 109 237 59 246 178 72 189 132 12 198 207 15 91 38 193 100 191 217 23 182 54 169 35 74 34 26 209 99 11 156 14 247 129 130 10 5 109 104 243 246 32 1 149 220 141 94 201 117 71 35 147 162 18 58 54 195 199 181 249 32 178 6 87 78 147 75 153 89 172 161 189 109 31 214 230 121 73 253 44 16 67 72 222 74 165 207 201 46 164 171 84 209 38 38 128 16 222 33 108 255 93 222 60 97 25 224 193 161 154 2 237 160 180 111 228 136 142 148 9 225 220 152 148 43 134 196 162 244 
202 5 18 101 196 240 62 81 9 230 55 133 166 3 31 119 237 84 170 89 250 201 169 48 59 184 80 216 221 116 218 120 64 248 241 198 26 218 57 204 216 208 63 116 26 72 21 2 111 37 183 72 191 106 236 134 38 171 218 30 102 107 51 126 123 148 45 117 210 104 106 6 31 195 22 241 43 56 81 108 253 153 122 129 48 248 41 110 190 204 204 133 116 107 230 43 210 165 177 114 92 54 31 75 244 85 158 94 223 147 199 137 49 24 244 166 107 231 241 162 255 167 0 64 214 41 70 179 50 100 138 124 236 62 156 37 12 154 115 39 165 182 156 177 15 110 53 189 96 4 128 182 93 124 20 201 64 73 50 159 42 97 89 147 68 146 30 137 148 48 238 25 60 219 199 251 34 157 180 236 211 161 56 134 135 64 141 181 112 245 240 99 
83 18 223 64 106 198 249 147 126 183 31 135 202 77 150 69 157 103 56 245 37 177 159 48 105 144 81 178 163 51 204 154 139 26 130 220 137 202 200 226 12 128 224 221 142 250 228 69 166 182 134 159 168 110 175 239 58 76 216 126 30 254 232 41 233 67 187 121 60 46 163 128 114 141 174 219 49 98 150 8 12 140 161 247 60 148 178 186 251 52 198 125 66 212 80 28 44 133 24 244 243 201 66 55 68 208 85 238 156 228 86 146 191 52 202 92 97 85 5 79 155 126 49 32 54 104 98 62 119 235 89 167 121 200 218 180 40 6 131 5 77 243 136 135 34 171 169 40 24 14 164 75 91 79 150 70 53 37 102 162 134 69 142 167 164 253 141 110 25 11 182 101 133 47 109 129 171 75 56 29 97 32 89 242 194 113 114 69 17 139 135 36 
185 152 126 0 174 86 171 235 212 213 53 99 117 53 174 110 62 194 188 176 166 251 178 132 56 106 186 99 217 193 144 188 117 254 44 235 105 248 28 120 188 32 7 154 32 254 119 249 243 141 92 30 163 113 9 38 16 233 132 172 168 240 22 69 124 156 121 90 253 222 5 15 120 139 223 60 93 197 35 132 182 89 188 123 246 103 0 171 33 206 74 184 101 215 222 185 136 230 103 83 9 58 131 251 157 159 226 108 99 143 148 42 181 209 170 105 73 114 90 93 181 205 147 253 127 138 86 138 197 73 85 165 252 13 137 1 114 124 226 19 25 117 76 203 203 113 195 250 232 169 231 210 31 131 2 195 196 47 71 100 213 71 144 149 250 129 22 118 170 243 113 78 191 177 39 100 139 206 218 94 100 148 146 70 231 32 225 105 231 4 188 146 
251 54 72 169 51 82 224 18 26 255 91 174 104 122 170 159 114 60 120 52 219 243 191 9 20 3 0 111 142 172 205 191 194 163 145 112 129 95 68 147 243 36 196 212 238 13 169 227 49 134 121 45 247 0 214 230 149 40 253 228 27 141 132 50 199 183 117 169 126 145 155 19 210 136 126 39 177 56 177 200 239 43 33 16 80 142 122 133 127 72 18 49 56 220 245 136 193 199 28 88 250 179 34 123 23 203 188 123 230 57 45 255 169 80 168 141 168 193 12 211 224 22 38 49 60 212 18 233 142 87 156 194 231 142 44 34 17 216 133 185 115 201 254 28 19 250 2 185 34 164 82 189 21 7 239 168 50 39 96 167 229 46 175 47 152 233 17 102 90 27 59 75 72 62 159 199 162 35 199 101 196 200 214 179 162 243 10 110 28 77 163 127 
197 29 102 21 229 194 93 229 105 189 190 16 17 37 192 101 153 181 162 184 243 130 139 140 174 48 78 99 174 184 94 217 229 238 150 74 186 232 203 237 82 165 230 12 118 9 102 210 67 110 82 226 223 26 123 179 43 182 23 2 139 236 123 56 18 27 198 124 152 148 255 42 98 230 105 21 137 188 227 104 29 229 202 42 73 199 43 196 228 205 98 145 203 25 178 176 42 72 2 215 49 235 237 160 109 203 186 68 183 123 210 77 187 213 168 104 82 71 70 222 74 189 43 206 190 202 19 138 126 164 204 81 43 63 81 160 112 125 214 96 67 251 228 91 194 91 174 147 74 248 89 65 125 223 141 179 219 126 89 90 186 104 198 231 168 118 57 37 24 9 240 193 15 152 219 116 203 120 115 146 122 89 45 64 47 53 233 64 174 7 169 251 
137 148 183 39 86 159 85 163 227 237 64 113 7 204 82 67 157 60 34 246 171 69 247 110 160 190 248 113 151 47 38 195 136 90 253 199 221 192 185 124 221 211 229 171 255 209 29 105 48 164 126 161 29 134 200 212 106 187 89 251 215 186 88 220 146 49 68 41 5 49 133 80 162 252 156 149 85 171 17 18 34 235 85 131 240 229 184 73 254 146 158 93 154 33 232 124 80 68 184 147 207 48 87 239 102 150 119 33 255 104 189 83 116 65 166 203 74 79 81 46 171 186 69 237 255 70 30 79 218 186 87 234 20 43 68 21 130 159 124 89 145 240 98 244 184 17 224 189 13 127 58 3 64 250 45 75 49 145 139 59 11 77 83 62 165 151 153 79 99 59 228 183 49 192 211 168 38 186 255 46 179 45 60 80 106 229 185 196 224 166 154 104 
110 146 61 10 103 242 72 50 127 244 166 103 71 208 178 132 66 18 126 54 228 111 29 151 137 254 238 126 202 189 46 148 24 85 138 4 88 153 2 4 21 111 119 122 42 156 224 56 218 251 120 105 211 205 53 218 231 152 206 58 111 40 74 42 56 187 236 160 13 55 8 122 94 239 221 241 131 143 151 101 130 175 131 65 140 154 137 175 46 179 79 89 159 104 9 211 131 224 35 188 198 114 33 116 204 123 228 212 26 228 86 132 236 88 71 49 180 116 255 14 236 107 171 3 61 24 182 59 86 23 0 157 213 76 11 160 1 35 36 191 98 126 76 225 133 245 138 235 83 31 165 129 70 67 29 141 101 203 121 53 192 179 193 191 107 79 121 201 126 219 85 165 19 3 135 225 114 159 42 108 167 149 133 73 188 29 24 104 38 100 63 47 
127 133 224 58 228 167 188 58 231 31 183 223 253 200 128 13 254 252 127 199 29 179 26 9 124 73 73 103 48 220 219 177 40 190 156 231 34 60 141 11 42 57 70 91 173 242 159 167 200 69 102 42 102 241 179 225 11 4 245 134 128 82 53 234 49 172 69 154 236 156 231 215 175 34 202 214 131 139 49 38 204 195 246 195 160 68 46 178 142 43 103 93 192 62 50 191 102 33 22 4 83 181 5 247 101 238 131 9 215 251 41 247 106 65 228 212 151 188 201 170 242 114 41 51 137 149 236 64 243 228 33 216 211 246 103 218 30 209 203 246 250 228 140 66 54 178 252 131 190 204 155 192 148 224 1 85 192 234 255 1 68 94 171 26 235 4 184 219 228 141 240 108 0 233 223 175 196 227 102 80 207 198 146 132 191 61 84 186 247 74 197 43 
182 251 117 124 198 149 228 160 27 16 130 119 119 227 47 158 147 227 8 149 142 154 157 221 254 183 133 133 223 165 136 213 207 233 245 248 234 81 153 90 136 196 236 95 85 219 90 66 244 147 232 91 243 186 204 244 239 248 33 216 130 173 27 34 198 106 161 216 85 12 84 47 138 22 208 204 80 46 103 116 145 246 93 140 229 68 57 91 9 254 123 162 195 91 195 104 110 167 118 93 69 103 132 158 42 191 173 87 55 76 93 59 161 3 177 163 58 192 17 15 206 215 164 148 99 189 27 236 207 132 15 238 109 10 78 162 20 182 22 167 202 148 32 111 54 160 10 114 141 57 148 27 104 49 25 183 230 142 155 87 125 161 240 146 114 140 241 185 88 216 100 230 87 94 70 157 96 178 176 233 148 224 169 26 33 177 204 157 236 29 78 232 
56 254 111 214 44 81 185 117 211 253 213 76 61 97 106 80 87 70 125 183 121 233 132 119 148 251 123 198 203 113 182 141 105 196 65 103 190 173 109 239 39 15 237 16 255 132 205 238 192 189 249 122 102 198 29 115 24 20 226 138 248 213 22 137 67 108 76 75 10 88 101 78 23 152 207 56 111 237 188 103 92 218 66 217 80 101 92 22 19 213 122 246 180 42 77 49 13 195 255 107 22 207 216 197 79 106 253 21 32 93 96 197 147 37 1 22 183 180 91 219 135 233 208 82 80 203 185 12 149 48 188 192 152 75 60 9 237 90 235 3 252 132 194 144 130 149 201 41 163 135 55 63 68 217 117 2 128 12 103 116 34 48 60 206 125 126 41 131 140 249 49 38 188 148 6 26 97 239 226 141 159 109 165 220 247 169 186 126 91 63 246 154 
143 91 136 111 199 120 168 210 160 157 240 108 71 241 224 221 69 203 113 38 134 239 86 84 127 71 224 183 158 224 55 55 154 24 12 213 114 42 90 131 103 99 52 33 142 10 131 153 200 225 234 245 188 249 34 39 206 242 151 194 229 174 252 205 91 169 203 48 206 253 215 79 6 79 19 9 213 37 45 250 171 181 83 67 161 92 134 212 252 194 227 44 208 0 219 191 189 205 96 253 92 110 155 11 82 40 232 175 79 0 13 156 195 232 117 131 141 117 165 86 106 67 88 104 185 169 184 244 21 194 65 46 80 132 76 219 150 223 104 53 32 134 220 49 99 35 183 130 71 30 187 133 143 64 147 186 221 46 241 152 136 185 249 151 183 14 164 45 25 40 45 118 253 251 78 184 100 70 214 230 125 66 246 206 71 228 73 147 117 47 163 95 
87 105 35 147 8 31 247 10 218 45 37 220 175 100 215 236 69 137 43 111 193 179 31 62 229 125 221 32 37 2 97 186 234 123 0 139 95 124 254 89 15 106 59 211 168 51 147 93 81 69 57 226 28 31 77 202 127 17 170 149 17 223 219 226 129 145 26 219 26 231 13 198 212 101 24 2 219 81 67 46 101 32 24 150 76 149 82 199 59 57 234 26 231 1 149 147 66 4 28 224 44 228 102 215 151 26 185 11 25 253 252 151 157 48 54 28 16 142 185 114 162 160 128 222 49 239 195 55 24 107 61 155 49 91 142 222 24 233 10 108 25 72 98 56 100 111 112 199 115 152 207 165 242 193 92 97 129 249 254 154 121 182 94 77 5 20 65 131 43 48 146 96 172 9 244 66 141 250 195 42 156 220 203 107 174 32 170 29 87 135 172 85 
8 35 93 76 228 115 58 225 24 187 93 34 173 125 173 151 249 103 215 51 63 121 156 182 139 160 200 181 65 107 157 129 132 199 219 61 134 133 96 96 104 199 208 1 62 193 21 117 95 117 213 144 102 198 213 83 101 50 96 166 99 84 191 43 12 134 172 64 53 87 139 238 171 37 250 28 148 87 254 237 204 245 110 122 252 226 134 162 220 70 236 92 218 253 136 105 56 142 203 219 13 77 217 27 65 208 158 158 167 233 251 143 171 119 173 101 57 54 81 159 215 79 240 103 178 86 24 228 239 25 22 236 156 241 194 149 251 238 37 106 224 50 154 18 246 212 168 12 160 91 13 133 197 224 162 130 73 141 183 139 173 203 11 106 45 115 232 7 124 61 146 51 182 16 0 69 128 216 95 7 221 160 251 146 106 90 29 166 229 222 235 187 
85 255 25 205 3 169 131 39 125 105 34 3 186 56 179 160 241 26 252 127 45 81 46 2 128 211 220 172 138 167 99 236 52 138 155 16 219 99 129 112 249 1 206 40 5 118 23 228 130 44 210 54 177 89 213 2 134 88 116 63 30 84 166 131 81 170 162 210 244 253 85 131 165 185 243 42 235 128 150 246 175 39 72 105 86 201 245 9 37 21 208 75 241 179 35 186 183 45 235 21 214 154 211 102 68 86 111 242 61 154 253 129 76 166 54 11 221 85 99 97 49 113 201 76 34 20 53 99 212 186 15 176 244 253 44 128 118 10 101 239 119 185 67 218 143 215 72 251 217 56 232 195 145 101 159 12 83 94 219 107 29 25 8 123 214 24 98 130 116 196 206 105 159 180 11 104 116 51 150 250 8 123 93 135 33 105 99 28 110 39 68 57 
0 109 85 189 231 240 111 117 107 11 67 40 93 16 116 92 74 115 34 222 75 90 16 5 154 71 18 144 179 41 133 234 126 127 199 58 3 124 166 76 70 246 150 113 155 87 88 45 193 209 103 211 136 181 84 82 7 214 89 211 153 189 114 141 157 10 152 54 155 128 71 113 109 67 244 234 130 230 57 132 205 6 76 198 205 129 121 222 133 22 223 99 7 174 15 6 204 212 176 42 205 93 57 175 118 152 212 150 180 204 231 220 54 125 94 8 174 77 210 3 212 242 195 252 111 169 54 124 246 166 185 72 68 156 239 129 194 92 153 196 208 25 163 147 13 22 87 22 174 71 216 243 79 188 206 94 196 77 196 249 225 190 244 49 204 155 57 211 26 92 56 207 46 211 66 240 237 39 165 64 5 190 204 128 105 24 102 1 90 90 221 123 
179 222 247 113 56 32 22 12 231 70 252 34 249 23 42 235 153 35 80 127 3 88 109 59 218 47 75 153 64 197 244 143 245 91 184 192 213 5 60 218 155 254 42 175 205 194 122 76 195 67 36 119 41 93 124 168 89 205 91 252 39 147 132 7 222 9 19 56 20 239 14 251 99 194 100 215 167 129 171 130 127 99 13 181 186 80 185 199 243 244 4 1 25 203 84 190 189 151 43 54 157 24 216 47 46 244 161 141 126 239 200 175 207 126 83 3 210 107 46 59 62 110 18 154 252 242 213 24 62 57 91 148 142 251 118 151 225 207 79 233 162 68 136 90 132 10 132 116 249 207 100 140 74 187 191 126 248 71 177 184 109 161 142 235 147 79 94 214 2 240 61 108 138 161 22 100 30 24 114 75 202 161 144 95 241 8 23 136 214 187 36 43 
50 148 35 102 166 74 15 225 69 236 10 125 60 240 129 250 62 30 127 117 181 205 214 61 136 139 13 103 241 149 95 68 164 79 112 61 149 121 51 247 135 213 86 66 39 10 136 195 129 8 201 20 147 134 30 167 224 73 159 21 73 203 111 111 42 225 154 169 165 66 27 124 55 13 164 95 134 72 247 134 73 195 130 187 222 122 47 253 171 19 25 77 30 67 239 251 197 76 199 130 1 243 98 233 42 192 32 222 212 77 246 16 167 107 223 55 186 235 129 24 51 31 64 199 156 54 212 85 197 35 82 77 222 157 247 50 71 216 244 93 181 132 218 109 84 123 203 252 169 45 208 6 215 70 176 184 247 35 84 143 102 81 42 93 56 168 87 24 210 130 64 37 51 209 229 235 38 100 181 9 135 82 10 117 184 94 173 233 100 175 126 138 
151 55 83 188 118 219 0 188 116 142 212 120 147 29 71 10 50 185 171 185 117 76 72 67 17 54 155 198 153 118 76 205 69 181 36 146 114 126 105 17 168 116 210 13 150 18 239 116 210 93 13 30 179 246 231 141 237 203 66 224 39 231 105 8 213 219 231 198 228 24 244 84 192 146 97 237 120 42 154 211 126 149 67 7 33 4 228 32 109 75 121 192 151 78 109 216 189 242 117 204 120 55 10 31 218 133 59 174 142 131 105 102 99 209 244 212 233 110 79 189 27 167 16 18 180 223 19 40 3 215 94 56 132 24 155 235 120 175 247 35 141 240 117 138 178 248 163 18 17 160 102 21 56 104 235 232 192 233 29 26 81 217 124 70 255 100 222 152 71 108 96 117 205 78 82 12 194 24 99 224 41 80 210 207 88 124 155 241 238 150 197 238 
187 84 246 226 111 166 66 62 161 185 211 119 111 238 13 50 245 48 240 123 6 207 196 211 228 100 49 127 11 233 140 97 11 38 39 9 150 122 197 109 53 112 117 29 220 47 248 53 28 168 244 228 12 222 174 174 61 17 13 150 22 77 119 248 123 79 152 50 56 15 201 171 12 170 251 242 103 102 69 32 17 63 200 85 32 40 92 4 1 177 243 154 182 210 247 118 184 46 116 5 156 230 72 95 66 37 27 232 1 64 213 166 53 142 68 130 226 170 93 236 150 160 190 175 169 39 206 7 91 204 190 138 37 125 157 197 30 146 164 125 49 169 206 243 99 7 243 71 3 172 172 42 233 219 156 240 112 124 174 238 251 191 160 149 202 22 129 149 198 186 213 7 76 51 64 194 131 0 118 251 58 17 137 212 154 186 234 68 183 224 206 216 
54 165 92 134 175 18 48 113 90 94 248 83 171 118 135 45 211 184 239 74 224 220 126 74 177 210 28 87 165 45 96 65 103 40 250 189 49 18 174 9 229 23 196 219 213 241 61 95 105 65 86 212 66 117 233 108 98 227 129 223 169 229 214 140 160 43 185 124 141 66 132 43 206 117 68 80 31 133 87 98 203 195 250 68 78 185 204 0 212 208 115 56 160 27 246 228 207 128 218 198 131 110 15 222 47 165 12 153 170 59 235 124 107 57 195 225 39 234 48 134 82 121 138 82 93 246 65 113 143 211 51 249 126 158 206 9 28 226 156 31 246 127 45 32 191 235 106 205 0 64 118 241 176 19 163 228 129 85 43 230 215 247 130 255 101 155 196 144 252 135 215 113 157 226 116 104 5 134 113 1 158 58 188 203 224 158 92 156 173 207 227 90 
206 180 161 123 10 175 206 236 244 134 25 60 57 74 179 204 252 114 185 201 1 114 132 154 15 65 38 191 112 38 78 41 159 9 113 204 106 192 181 109 162 188 218 206 16 130 229 66 163 194 0 231 200 31 4 123 153 203 167 61 105 192 210 200 107 90 185 169 119 108 9 110 220 65 176 76 168 208 163 189 183 16 159 57 56 29 88 19 38 228 13 236 117 57 144 16 190 213 163 130 39 224 110 157 185 146 126 156 130 59 103 61 47 80 89 232 175 169 112 165 1 183 168 196 87 210 202 217 148 213 116 99 76 130 202 255 213 42 56 171 80 110 141 5 143 82 93 133 203 46 103 126 232 200 211 96 13 202 172 237 171 150 163 31 61 101 143 56 72 110 211 85 18 18 194 229 251 224 72 51 143 64 195 240 240 134 5 173 112 115 188 166 
91 131 65 51 118 25 177 206 64 41 126 41 58 147 14 236 6 150 169 243 81 46 170 40 153 159 18 40 167 116 193 234 164 176 208 106 38 77 146 39 26 243 68 163 150 160 186 72 8 150 104 190 37 149 138 7 235 229 17 100 5 153 38 240 206 178 143 254 161 251 241 16 128 121 161 166 250 103 68 53 122 231 222 47 91 227 220 127 145 212 126 61 142 160 120 245 67 90 179 51 54 28 12 183 63 62 64 110 11 133 71 90 203 25 148 33 198 120 246 134 207 152 52 240 200 137 147 241 167 25 59 132 103 185 59 44 93 242 234 197 4 172 95 253 44 157 240 43 27 87 45 165 176 39 243 184 251 17 77 105 157 240 97 18 84 88 245 241 232 206 30 123 68 88 104 110 221 168 76 31 207 26 66 68 36 126 195 0 83 146 216 228 
59 207 25 50 14 76 62 114 194 209 155 184 87 188 7 142 131 240 175 204 49 76 230 160 67 111 65 140 250 252 251 110 237 185 76 132 243 93 117 237 238 119 192 224 243 67 163 68 234 59 71 2 168 39 84 155 135 72 123 213 114 61 65 50 153 60 160 141 4 111 134 52 36 216 174 231 155 109 253 91 104 87 169 233 90 187 78 33 49 243 91 237 130 28 20 104 151 69 33 138 74 185 86 170 177 147 187 96 207 128 101 170 43 243 141 66 77 94 208 116 253 249 215 77 22 183 251 84 3 10 157 160 205 32 120 226 249 121 53 90 229 16 167 13 56 229 235 237 224 32 189 88 226 118 30 128 180 116 195 140 235 118 221 108 90 208 85 3 165 172 254 236 246 12 251 111 127 238 222 173 242 46 207 226 79 2 240 52 63 92 87 9 
111 120 61 61 146 229 19 209 65 71 234 41 50 188 174 152 70 111 196 149 160 205 254 217 161 141 71 14 19 22 180 12 149 142 235 92 123 29 202 8 166 5 80 161 48 163 121 227 20 66 119 122 95 192 30 16 35 67 0 29 239 251 242 166 223 60 133 10 26 5 240 148 157 87 158 77 188 132 202 167 167 20 223 18 175 196 67 170 122 34 253 113 46 127 126 55 13 45 37 65 79 164 101 162 247 25 153 103 49 236 189 168 35 168 79 72 8 241 199 234 108 139 177 172 250 181 29 232 81 69 244 201 17 133 166 210 176 223 249 231 70 152 216 86 146 78 138 123 222 85 83 60 227 232 180 123 76 70 172 71 154 130 200 167 211 140 92 129 97 186 78 121 144 142 212 160 31 5 77 94 77 78 50 46 224 148 140 108 79 74 184 81 
224 172 110 151 190 50 223 65 234 173 5 216 13 229 252 238 50 235 77 92 105 63 123 84 204 19 143 3 226 230 30 204 239 166 198 107 144 130 146 114 28 119 209 105 174 117 33 245 203 58 72 72 22 127 183 51 89 216 146 88 117 246 129 145 170 215 1 93 50 210 49 47 34 60 211 2 103 73 66 74 133 4 238 124 108 17 233 11 67 58 113 63 0 189 98 35 82 54 97 99 9 4 148 156 123 131 191 176 63 225 111 53 166 28 233 102 218 149 89 202 214 148 169 185 55 51 110 185 53 191 31 64 106 210 216 12 184 207 138 3 27 131 40 9 67 6 53 39 107 156 170 133 76 32 155 123 218 62 106 162 144 68 8 245 144 224 1 194 3 208 183 221 145 34 84 151 214 204 88 118 21 210 232 229 28 77 63 24 76 2 92 41 
187 215 135 164 234 66 101 33 250 24 157 93 246 229 166 179 9 187 110 43 88 74 195 104 39 222 253 31 96 137 110 56 179 70 89 69 86 58 55 20 73 245 175 197 53 210 74 146 108 213 6 6 242 84 162 235 183 173 248 246 251 16 201 13 134 185 157 187 157 180 142 43 219 77 118 67 236 102 64 240 173 111 187 94 230 144 212 183 21 120 106 76 33 100 146 185 35 123 139 100 37 109 230 26 159 171 203 185 128 216 50 6 102 111 169 181 63 22 33 149 68 162 27 12 116 149 37 71 232 25 194 193 61 31 253 143 137 136 178 6 70 42 219 245 17 231 187 58 41 203 1 6 199 135 188 205 135 33 194 186 236 80 243 41 18 20 55 5 147 172 98 255 98 183 101 223 77 17 135 193 0 166 62 9 119 146 175 241 28 66 237 86 
