P3
128 128
255
116 116 116 107 107 107 10 10 10 153 153 153 205 205 205 236 236 236 229 229 229 210 210 210 123 123 123 57 57 57 199 199 199 160 160 160 146 146 146 170 170 170 9 9 9 212 212 212 232 232 232 183 183 183 44 44 44 72 72 72 139 139 139 89 89 89 68 68 68 98 98 98 241 241 241 102 102 102 245 245 245 218 218 218 199 199 199 100 100 100 179 179 179 57 57 57 176 176 176 88 88 88 46 46 46 51 51 51 59 59 59 129 129 129 200 200 200 199 199 199 90 90 90 133 133 133 212 212 212 47 47 47 145 145 145 215 215 215 251 251 251 52 52 52 202 202 202 30 30 30 201 201 201 225 225 225 160 160 160 197 197 197 14 14 14 67 67 67 104 104 104 65 65 65 122 122 122 121 121 121 115 115 115 237 237 237 23 23 23 247 247 247 69 69 69 84 84 84 104 104 104 138 138 138 88 88 88 169 169 169 255 255 255 64 64 64 231 231 231 97 97 97 67 67 67 148 148 148 99 99 99 10 10 10 145 145 145 77 77 77 44 44 44 75 75 75 36 36 36 29 29 29 195 195 195 111 111 111 21 21 21 225 225 225 41 41 41 154 154 154 12 12 12 21 21 21 161 161 161 115 115 115 28 28 28 212 212 212 216 216 216 131 131 131 202 202 202 165 165 165 172 172 172 23 23 23 2 2 2 118 118 118 227 227 227 78 78 78 117 117 117 148 148 148 191 191 191 225 225 225 21 21 21 92 92 92 163 163 163 55 55 55 70 70 70 74 74 74 36 36 36 197 197 197 30 30 30 180 180 180 45 45 45 212 212 212 198 198 198 188 188 188 224 224 224 75 75 75 28 28 28 8 8 8 
140 140 140 12 12 12 145 145 145 79 79 79 64 64 64 182 182 182 62 62 62 204 204 204 16 16 16 203 203 203 182 182 182 191 191 191 250 250 250 206 206 206 205 205 205 213 213 213 36 36 36 16 16 16 76 76 76 51 51 51 133 133 133 86 86 86 212 212 212 198 198 198 251 251 251 100 100 100 77 77 77 104 104 104 201 201 201 19 19 19 203 203 203 142 142 142 133 133 133 171 171 171 173 173 173 107 107 107 57 57 57 160 160 160 105 105 105 161 161 161 159 159 159 254 254 254 181 181 181 178 178 178 248 248 248 9 9 9 125 125 125 146 146 146 124 124 124 247 247 247 219 219 219 210 210 210 166 166 166 30 30 30 5 5 5 12 12 12 46 46 46 105 105 105 160 160 160 2 2 2 77 77 77 106 106 106 186 186 186 17 17 17 217 217 217 4 4 4 250 250 250 138 138 138 103 103 103 111 111 111 169 169 169 143 143 143 133 133 133 221 221 221 251 251 251 249 249 249 228 228 228 151 151 151 39 39 39 187 187 187 79 79 79 164 164 164 74 74 74 133 133 133 19 19 19 170 170 170 162 162 162 29 29 29 234 234 234 185 185 185 229 229 229 128 128 128 179 179 179 213 213 213 193 193 193 93 93 93 126 126 126 205 205 205 42 42 42 249 249 249 128 128 128 37 37 37 111 111 111 37 37 37 80 80 80 27 27 27 47 47 47 86 86 86 170 170 170 121 121 121 133 133 133 199 199 199 93 93 93 240 240 240 122 122 122 104 104 104 235 235 235 92 92 92 45 45 45 252 252 252 64 64 64 164 164 164 156 156 156 255 255 255 98 98 98 203 203 203 246 246 246 26 26 26 
197 197 197 21 21 21 82 82 82 160 160 160 218 218 218 96 96 96 91 91 91 165 165 165 215 215 215 125 125 125 236 236 236 94 94 94 25 25 25 82 82 82 140 140 140 150 150 150 133 133 133 88 88 88 183 183 183 15 15 15 200 200 200 91 91 91 190 190 190 138 138 138 229 229 229 234 234 234 36 36 36 178 178 178 16 16 16 151 151 151 49 49 49 136 136 136 92 92 92 0 0 0 126 126 126 197 197 197 30 30 30 69 69 69 156 156 156 249 249 249 105 105 105 119 119 119 195 195 195 65 65 65 41 41 41 106 106 106 14 14 14 142 142 142 210 210 210 210 210 210 227 227 227 81 81 81 159 159 159 63 63 63 244 244 244 199 199 199 57 57 57 68 68 68 217 217 217 59 59 59 85 85 85 41 41 41 165 165 165 221 221 221 64 64 64 118 118 118 189 189 189 188 188 188 55 55 55 69 69 69 246 246 246 222 222 222 155 155 155 209 209 209 231 231 231 15 15 15 25 25 25 114 114 114 137 137 137 138 138 138 188 188 188 190 190 190 9 9 9 102 102 102 194 194 194 157 157 157 254 254 254 183 183 183 65 65 65 142 142 142 163 163 163 94 94 94 79 79 79 189 189 189 109 109 109 44 44 44 118 118 118 3 3 3 199 199 199 80 80 80 124 124 124 204 204 204 222 222 222 102 102 102 120 120 120 226 226 226 56 56 56 132 132 132 61 61 61 245 245 245 88 88 88 159 159 159 154 154 154 20 20 20 140 140 140 125 125 125 30 30 30 155 155 155 169 169 169 14 14 14 170 170 170 229 229 229 247 247 247 193 193 193 28 28 28 247 247 247 151 151 151 29 29 29 
107 107 107 154 154 154 211 211 211 110 110 110 195 195 195 30 30 30 236 236 236 235 235 235 198 198 198 255 255 255 73 73 73 221 221 221 0 0 0 50 50 50 17 17 17 219 219 219 117 117 117 50 50 50 37 37 37 223 223 223 230 230 230 173 173 173 110 110 110 61 61 61 57 57 57 244 244 244 72 72 72 216 216 216 248 248 248 220 220 220 246 246 246 157 157 157 113 113 113 18 18 18 136 136 136 235 235 235 219 219 219 94 94 94 145 145 145 52 52 52 85 85 85 145 145 145 24 24 24 2 2 2 95 95 95 108 108 108 240 240 240 166 166 166 252 252 252 229 229 229 124 124 124 52 52 52 111 111 111 46 46 46 71 71 71 20 20 20 246 246 246 73 73 73 129 129 129 245 245 245 27 27 27 180 180 180 27 27 27 213 213 213 191 191 191 146 146 146 128 128 128 161 161 161 167 167 167 248 248 248 179 179 179 104 104 104 232 232 232 4 4 4 32 32 32 55 55 55 53 53 53 143 143 143 214 214 214 23 23 23 20 20 20 67 67 67 55 55 55 138 138 138 125 125 125 84 84 84 81 81 81 62 62 62 219 219 219 89 89 89 229 229 229 150 150 150 209 209 209 7 7 7 196 196 196 19 19 19 100 100 100 43 43 43 218 218 218 8 8 8 32 32 32 128 128 128 138 138 138 1 1 1 211 211 211 220 220 220 81 81 81 230 230 230 160 160 160 243 243 243 28 28 28 55 55 55 148 148 148 185 185 185 7 7 7 92 92 92 94 94 94 63 63 63 243 243 243 218 218 218 109 109 109 128 128 128 119 119 119 4 4 4 19 19 19 187 187 187 142 142 142 102 102 102 
65 65 65 12 12 12 26 26 26 80 80 80 246 246 246 187 187 187 181 181 181 221 221 221 244 244 244 251 251 251 109 109 109 16 16 16 158 158 158 7 7 7 215 215 215 11 11 11 223 223 223 236 236 236 142 142 142 112 112 112 94 94 94 71 71 71 29 29 29 34 34 34 16 16 16 173 173 173 181 181 181 175 175 175 118 118 118 136 136 136 52 52 52 243 243 243 236 236 236 22 22 22 141 141 141 77 77 77 227 227 227 132 132 132 61 61 61 74 74 74 175 175 175 107 107 107 52 52 52 125 125 125 251 251 251 237 237 237 17 17 17 236 236 236 130 130 130 6 6 6 255 255 255 222 222 222 61 61 61 191 191 191 233 233 233 111 111 111 228 228 228 181 181 181 73 73 73 97 97 97 96 96 96 227 227 227 121 121 121 198 198 198 83 83 83 226 226 226 108 108 108 53 53 53 57 57 57 169 169 169 64 64 64 229 229 229 156 156 156 83 83 83 185 185 185 236 236 236 162 162 162 232 232 232 180 180 180 0 0 0 167 167 167 43 43 43 105 105 105 225 225 225 197 197 197 10 10 10 52 52 52 215 215 215 122 122 122 137 137 137 162 162 162 157 157 157 198 198 198 48 48 48 92 92 92 82 82 82 110 110 110 78 78 78 87 87 87 70 70 70 109 109 109 124 124 124 149 149 149 13 13 13 245 245 245 124 124 124 55 55 55 215 215 215 60 60 60 227 227 227 117 117 117 29 29 29 209 209 209 169 169 169 191 191 191 153 153 153 190 190 190 184 184 184 120 120 120 190 190 190 192 192 192 117 117 117 104 104 104 19 19 19 1 1 1 130 130 130 226 226 226 127 127 127 
41 41 41 210 210 210 54 54 54 46 46 46 127 127 127 166 166 166 248 248 248 110 110 110 80 80 80 255 255 255 9 9 9 141 141 141 74 74 74 97 97 97 74 74 74 57 57 57 238 238 238 169 169 169 243 243 243 137 137 137 234 234 234 18 18 18 210 210 210 250 250 250 236 236 236 224 224 224 251 251 251 240 240 240 150 150 150 253 253 253 89 89 89 221 221 221 13 13 13 200 200 200 81 81 81 159 159 159 19 19 19 142 142 142 166 166 166 12 12 12 73 73 73 78 78 78 93 93 93 199 199 199 43 43 43 24 24 24 24 24 24 17 17 17 252 252 252 179 179 179 55 55 55 168 168 168 255 255 255 5 5 5 184 184 184 28 28 28 54 54 54 185 185 185 173 173 173 82 82 82 158 158 158 42 42 42 131 131 131 243 243 243 212 212 212 99 99 99 3 3 3 140 140 140 14 14 14 253 253 253 134 134 134 80 80 80 22 22 22 106 106 106 82 82 82 82 82 82 104 104 104 235 235 235 22 22 22 80 80 80 247 247 247 118 118 118 117 117 117 64 64 64 39 39 39 122 122 122 87 87 87 148 148 148 114 114 114 214 214 214 2 2 2 203 203 203 194 194 194 73 73 73 60 60 60 18 18 18 37 37 37 19 19 19 142 142 142 124 124 124 5 5 5 3 3 3 118 118 118 86 86 86 232 232 232 65 65 65 75 75 75 143 143 143 103 103 103 162 162 162 207 207 207 2 2 2 47 47 47 228 228 228 47 47 47 95 95 95 251 251 251 226 226 226 13 13 13 174 174 174 120 120 120 70 70 70 28 28 28 10 10 10 252 252 252 188 188 188 173 173 173 130 130 130 
128 128 128 174 174 174 25 25 25 176 176 176 20 20 20 109 109 109 253 253 253 171 171 171 89 89 89 242 242 242 237 237 237 19 19 19 15 15 15 133 133 133 110 110 110 26 26 26 86 86 86 125 125 125 74 74 74 65 65 65 237 237 237 34 34 34 3 3 3 76 76 76 76 76 76 34 34 34 78 78 78 61 61 61 134 134 134 46 46 46 212 212 212 231 231 231 122 122 122 12 12 12 223 223 223 154 154 154 253 253 253 230 230 230 228 228 228 210 210 210 145 145 145 96 96 96 244 244 244 125 125 125 215 215 215 167 167 167 33 33 33 93 93 93 131 131 131 133 133 133 122 122 122 210 210 210 188 188 188 128 128 128 255 255 255 97 97 97 37 37 37 77 77 77 21 21 21 120 120 120 16 16 16 246 246 246 73 73 73 201 201 201 150 150 150 61 61 61 137 137 137 177 177 177 68 68 68 195 195 195 241 241 241 174 174 174 104 104 104 88 88 88 140 140 140 54 54 54 168 168 168 118 118 118 35 35 35 27 27 27 246 246 246 144 144 144 221 221 221 168 168 168 143 143 143 95 95 95 237 237 237 121 121 121 72 72 72 23 23 23 168 168 168 196 196 196 12 12 12 124 124 124 63 63 63 179 179 179 139 139 139 189 189 189 187 187 187 181 181 181 162 162 162 9 9 9 74 74 74 161 161 161 75 75 75 76 76 76 31 31 31 51 51 51 130 130 130 32 32 32 165 165 165 3 3 3 28 28 28 88 88 88 209 209 209 68 68 68 152 152 152 205 205 205 227 227 227 165 165 165 53 53 53 13 13 13 68 68 68 18 18 18 13 13 13 157 157 157 51 51 51 129 129 129 
44 44 44 117 117 117 39 39 39 80 80 80 199 199 199 104 104 104 222 222 222 65 65 65 114 114 114 255 255 255 177 177 177 159 159 159 89 89 89 115 115 115 242 242 242 118 118 118 63 63 63 28 28 28 18 18 18 134 134 134 48 48 48 173 173 173 187 187 187 46 46 46 0 0 0 191 191 191 127 127 127 234 234 234 245 245 245 13 13 13 248 248 248 244 244 244 247 247 247 23 23 23 32 32 32 76 76 76 8 8 8 204 204 204 105 105 105 242 242 242 229 229 229 2 2 2 173 173 173 106 106 106 238 238 238 179 179 179 1 1 1 191 191 191 46 46 46 140 140 140 246 246 246 65 65 65 56 56 56 51 51 51 76 76 76 43 43 43 171 171 171 232 232 232 249 249 249 38 38 38 10 10 10 105 105 105 70 70 70 243 243 243 201 201 201 69 69 69 247 247 247 138 138 138 3 3 3 25 25 25 250 250 250 124 124 124 106 106 106 154 154 154 74 74 74 186 186 186 66 66 66 73 73 73 39 39 39 38 38 38 83 83 83 166 166 166 213 213 213 208 208 208 46 46 46 242 242 242 134 134 134 190 190 190 190 190 190 100 100 100 65 65 65 129 129 129 184 184 184 134 134 134 177 177 177 134 134 134 57 57 57 46 46 46 156 156 156 219 219 219 145 145 145 38 38 38 47 47 47 92 92 92 177 177 177 248 248 248 147 147 147 7 7 7 20 20 20 144 144 144 47 47 47 45 45 45 1 1 1 136 136 136 163 163 163 181 181 181 221 221 221 43 43 43 58 58 58 153 153 153 30 30 30 224 224 224 110 110 110 74 74 74 0 0 0 35 35 35 1 1 1 128 128 128 
163 163 163 106 106 106 115 115 115 42 42 42 235 235 235 82 82 82 54 54 54 174 174 174 180 180 180 33 33 33 169 169 169 145 145 145 96 96 96 197 197 197 218 218 218 42 42 42 152 152 152 101 101 101 192 192 192 185 185 185 76 76 76 72 72 72 149 149 149 143 143 143 221 221 221 230 230 230 227 227 227 235 235 235 182 182 182 185 185 185 149 149 149 160 160 160 152 152 152 209 209 209 66 66 66 161 161 161 130 130 130 169 169 169 207 207 207 189 189 189 130 130 130 1 1 1 184 184 184 204 204 204 232 232 232 111 111 111 140 140 140 166 166 166 226 226 226 135 135 135 91 91 91 217 217 217 93 93 93 113 113 113 202 202 202 241 241 241 41 41 41 143 143 143 125 125 125 215 215 215 133 133 133 5 5 5 31 31 31 249 249 249 86 86 86 214 214 214 133 133 133 168 168 168 144 144 144 71 71 71 116 116 116 31 31 31 117 117 117 3 3 3 30 30 30 252 252 252 250 250 250 183 183 183 117 117 117 108 108 108 166 166 166 90 90 90 63 63 63 93 93 93 168 168 168 16 16 16 49 49 49 126 126 126 32 32 32 211 211 211 238 238 238 116 116 116 131 131 131 231 231 231 177 177 177 137 137 137 210 210 210 114 114 114 44 44 44 170 170 170 6 6 6 19 19 19 209 209 209 42 42 42 59 59 59 205 205 205 132 132 132 240 240 240 153 153 153 109 109 109 105 105 105 194 194 194 161 161 161 253 253 253 175 175 175 187 187 187 163 163 163 117 117 117 77 77 77 203 203 203 93 93 93 238 238 238 106 106 106 48 48 48 156 156 156 86 86 86 111 111 111 72 72 72 
69 69 69 41 41 41 115 115 115 156 156 156 65 65 65 193 193 193 241 241 241 2 2 2 147 147 147 99 99 99 56 56 56 213 213 213 202 202 202 224 224 224 115 115 115 154 154 154 170 170 170 49 49 49 84 84 84 158 158 158 149 149 149 199 199 199 207 207 207 190 190 190 65 65 65 111 111 111 112 112 112 20 20 20 218 218 218 188 188 188 71 71 71 41 41 41 243 243 243 171 171 171 26 26 26 134 134 134 197 197 197 139 139 139 146 146 146 13 13 13 136 136 136 181 181 181 108 108 108 218 218 218 225 225 225 18 18 18 56 56 56 161 161 161 254 254 254 57 57 57 136 136 136 141 141 141 199 199 199 102 102 102 167 167 167 97 97 97 31 31 31 156 156 156 223 223 223 78 78 78 68 68 68 42 42 42 46 46 46 29 29 29 207 207 207 215 215 215 77 77 77 90 90 90 216 216 216 180 180 180 80 80 80 93 93 93 164 164 164 131 131 131 67 67 67 219 219 219 31 31 31 45 45 45 13 13 13 225 225 225 58 58 58 251 251 251 10 10 10 246 246 246 248 248 248 64 64 64 207 207 207 185 185 185 138 138 138 215 215 215 25 25 25 155 155 155 64 64 64 63 63 63 155 155 155 241 241 241 160 160 160 237 237 237 77 77 77 171 171 171 43 43 43 38 38 38 12 12 12 40 40 40 203 203 203 236 236 236 194 194 194 252 252 252 146 146 146 107 107 107 225 225 225 164 164 164 159 159 159 40 40 40 171 171 171 76 76 76 182 182 182 254 254 254 231 231 231 27 27 27 75 75 75 252 252 252 73 73 73 216 216 216 114 114 114 199 199 199 161 161 161 120 120 120 
228 228 228 96 96 96 12 12 12 210 210 210 55 55 55 122 122 122 52 52 52 68 68 68 96 96 96 139 139 139 33 33 33 148 148 148 110 110 110 235 235 235 175 175 175 100 100 100 191 191 191 65 65 65 209 209 209 243 243 243 65 65 65 183 183 183 189 189 189 106 106 106 163 163 163 116 116 116 220 220 220 31 31 31 247 247 247 163 163 163 107 107 107 155 155 155 138 138 138 41 41 41 115 115 115 251 251 251 60 60 60 120 120 120 20 20 20 41 41 41 155 155 155 87 87 87 165 165 165 39 39 39 127 127 127 80 80 80 163 163 163 181 181 181 137 137 137 220 220 220 182 182 182 61 61 61 247 247 247 218 218 218 234 234 234 55 55 55 213 213 213 236 236 236 247 247 247 238 238 238 0 0 0 36 36 36 5 5 5 32 32 32 110 110 110 217 217 217 11 11 11 242 242 242 93 93 93 149 149 149 5 5 5 220 220 220 7 7 7 24 24 24 105 105 105 69 69 69 96 96 96 125 125 125 155 155 155 225 225 225 68 68 68 100 100 100 241 241 241 239 239 239 147 147 147 31 31 31 124 124 124 46 46 46 160 160 160 14 14 14 240 240 240 107 107 107 239 239 239 48 48 48 20 20 20 240 240 240 32 32 32 55 55 55 146 146 146 132 132 132 227 227 227 242 242 242 63 63 63 117 117 117 237 237 237 8 8 8 57 57 57 14 14 14 192 192 192 47 47 47 186 186 186 138 138 138 138 138 138 232 232 232 157 157 157 6 6 6 15 15 15 122 122 122 123 123 123 2 2 2 179 179 179 74 74 74 154 154 154 126 126 126 83 83 83 172 172 172 11 11 11 8 8 8 
44 44 44 80 80 80 81 81 81 225 225 225 77 77 77 138 138 138 63 63 63 247 247 247 169 169 169 100 100 100 114 114 114 133 133 133 30 30 30 252 252 252 95 95 95 228 228 228 72 72 72 86 86 86 138 138 138 58 58 58 167 167 167 132 132 132 215 215 215 166 166 166 13 13 13 42 42 42 45 45 45 14 14 14 28 28 28 75 75 75 151 151 151 227 227 227 202 202 202 235 235 235 73 73 73 137 137 137 198 198 198 62 62 62 195 195 195 164 164 164 212 212 212 101 101 101 121 121 121 11 11 11 59 59 59 97 97 97 24 24 24 153 153 153 208 208 208 58 58 58 206 206 206 255 255 255 130 130 130 189 189 189 120 120 120 227 227 227 211 211 211 1 1 1 227 227 227 104 104 104 32 32 32 254 254 254 80 80 80 254 254 254 86 86 86 143 143 143 234 234 234 80 80 80 59 59 59 15 15 15 2 2 2 96 96 96 252 252 252 100 100 100 37 37 37 44 44 44 16 16 16 67 67 67 139 139 139 166 166 166 253 253 253 0 0 0 86 86 86 89 89 89 44 44 44 65 65 65 134 134 134 159 159 159 62 62 62 170 170 170 128 128 128 71 71 71 249 249 249 212 212 212 136 136 136 239 239 239 108 108 108 188 188 188 26 26 26 239 239 239 10 10 10 152 152 152 224 224 224 31 31 31 109 109 109 45 45 45 98 98 98 154 154 154 88 88 88 147 147 147 124 124 124 14 14 14 83 83 83 53 53 53 33 33 33 222 222 222 255 255 255 147 147 147 87 87 87 51 51 51 21 21 21 231 231 231 224 224 224 86 86 86 32 32 32 135 135 135 179 179 179 30 30 30 
191 191 191 152 152 152 128 128 128 190 190 190 111 111 111 76 76 76 30 30 30 42 42 42 6 6 6 66 66 66 163 163 163 145 145 145 247 247 247 26 26 26 231 231 231 90 90 90 209 209 209 39 39 39 202 202 202 192 192 192 161 161 161 168 168 168 194 194 194 79 79 79 138 138 138 82 82 82 193 193 193 15 15 15 65 65 65 221 221 221 28 28 28 2 2 2 170 170 170 102 102 102 189 189 189 239 239 239 104 104 104 66 66 66 4 4 4 218 218 218 154 154 154 219 219 219 70 70 70 254 254 254 229 229 229 76 76 76 187 187 187 140 140 140 18 18 18 29 29 29 61 61 61 185 185 185 194 194 194 150 150 150 44 44 44 196 196 196 131 131 131 28 28 28 204 204 204 240 240 240 134 134 134 45 45 45 244 244 244 48 48 48 195 195 195 88 88 88 145 145 145 230 230 230 178 178 178 88 88 88 122 122 122 142 142 142 230 230 230 202 202 202 197 197 197 217 217 217 76 76 76 10 10 10 248 248 248 34 34 34 64 64 64 134 134 134 168 168 168 187 187 187 227 227 227 87 87 87 87 87 87 78 78 78 191 191 191 103 103 103 207 207 207 117 117 117 102 102 102 84 84 84 169 169 169 192 192 192 128 128 128 95 95 95 242 242 242 175 175 175 61 61 61 20 20 20 93 93 93 109 109 109 42 42 42 59 59 59 237 237 237 187 187 187 0 0 0 240 240 240 151 151 151 35 35 35 1 1 1 215 215 215 39 39 39 91 91 91 252 252 252 172 172 172 46 46 46 26 26 26 63 63 63 54 54 54 190 190 190 62 62 62 52 52 52 86 86 86 253 253 253 178 178 178 
136 136 136 169 169 169 11 11 11 157 157 157 236 236 236 117 117 117 202 202 202 114 114 114 232 232 232 152 152 152 163 163 163 151 151 151 81 81 81 111 111 111 14 14 14 171 171 171 32 32 32 104 104 104 90 90 90 131 131 131 64 64 64 56 56 56 201 201 201 255 255 255 75 75 75 211 211 211 153 153 153 117 117 117 43 43 43 55 55 55 117 117 117 80 80 80 36 36 36 39 39 39 172 172 172 102 102 102 108 108 108 240 240 240 205 205 205 179 179 179 14 14 14 116 116 116 165 165 165 190 190 190 55 55 55 122 122 122 110 110 110 209 209 209 240 240 240 191 191 191 73 73 73 19 19 19 197 197 197 51 51 51 233 233 233 181 181 181 126 126 126 28 28 28 83 83 83 119 119 119 96 96 96 180 180 180 48 48 48 130 130 130 94 94 94 237 237 237 38 38 38 66 66 66 126 126 126 160 160 160 146 146 146 70 70 70 119 119 119 9 9 9 231 231 231 12 12 12 234 234 234 171 171 171 226 226 226 223 223 223 129 129 129 130 130 130 123 123 123 198 198 198 229 229 229 148 148 148 58 58 58 249 249 249 186 186 186 234 234 234 178 178 178 244 244 244 213 213 213 73 73 73 236 236 236 76 76 76 1 1 1 211 211 211 204 204 204 195 195 195 13 13 13 250 250 250 237 237 237 167 167 167 36 36 36 4 4 4 178 178 178 137 137 137 54 54 54 87 87 87 36 36 36 107 107 107 162 162 162 71 71 71 83 83 83 194 194 194 223 223 223 19 19 19 37 37 37 53 53 53 102 102 102 214 214 214 241 241 241 31 31 31 219 219 219 83 83 83 19 19 19 60 60 60 
147 147 147 145 145 145 127 127 127 128 128 128 126 126 126 114 114 114 212 212 212 179 179 179 105 105 105 252 252 252 114 114 114 161 161 161 153 153 153 139 139 139 96 96 96 203 203 203 147 147 147 156 156 156 100 100 100 39 39 39 166 166 166 149 149 149 34 34 34 194 194 194 181 181 181 255 255 255 58 58 58 238 238 238 17 17 17 17 17 17 132 132 132 154 154 154 90 90 90 233 233 233 186 186 186 207 207 207 255 255 255 193 193 193 190 190 190 45 45 45 203 203 203 39 39 39 136 136 136 9 9 9 16 16 16 153 153 153 0 0 0 237 237 237 65 65 65 186 186 186 6 6 6 249 249 249 181 181 181 152 152 152 20 20 20 9 9 9 156 156 156 121 121 121 73 73 73 107 107 107 94 94 94 135 135 135 250 250 250 236 236 236 226 226 226 247 247 247 251 251 251 113 113 113 123 123 123 57 57 57 137 137 137 238 238 238 194 194 194 52 52 52 225 225 225 82 82 82 222 222 222 189 189 189 236 236 236 115 115 115 111 111 111 18 18 18 180 180 180 22 22 22 250 250 250 125 125 125 129 129 129 46 46 46 236 236 236 223 223 223 138 138 138 26 26 26 214 214 214 212 212 212 198 198 198 45 45 45 197 197 197 84 84 84 222 222 222 115 115 115 106 106 106 179 179 179 209 209 209 108 108 108 42 42 42 202 202 202 103 103 103 130 130 130 55 55 55 185 185 185 25 25 25 30 30 30 54 54 54 39 39 39 83 83 83 208 208 208 20 20 20 240 240 240 255 255 255 115 115 115 209 209 209 185 185 185 158 158 158 213 213 213 42 42 42 67 67 67 182 182 182 6 6 6 
252 252 252 133 133 133 106 106 106 66 66 66 52 52 52 212 212 212 146 146 146 252 252 252 190 190 190 59 59 59 94 94 94 82 82 82 73 73 73 17 17 17 194 194 194 116 116 116 149 149 149 238 238 238 201 201 201 164 164 164 4 4 4 37 37 37 90 90 90 172 172 172 35 35 35 139 139 139 56 56 56 106 106 106 131 131 131 108 108 108 39 39 39 234 234 234 232 232 232 233 233 233 61 61 61 65 65 65 198 198 198 48 48 48 58 58 58 109 109 109 173 173 173 53 53 53 190 190 190 210 210 210 25 25 25 219 219 219 184 184 184 31 31 31 193 193 193 104 104 104 54 54 54 47 47 47 201 201 201 3 3 3 216 216 216 240 240 240 82 82 82 16 16 16 5 5 5 64 64 64 166 166 166 87 87 87 5 5 5 186 186 186 205 205 205 102 102 102 88 88 88 114 114 114 149 149 149 194 194 194 98 98 98 120 120 120 184 184 184 252 252 252 88 88 88 15 15 15 100 100 100 210 210 210 88 88 88 83 83 83 255 255 255 151 151 151 93 93 93 138 138 138 60 60 60 122 122 122 254 254 254 18 18 18 228 228 228 16 16 16 0 0 0 32 32 32 128 128 128 6 6 6 255 255 255 238 238 238 53 53 53 150 150 150 106 106 106 23 23 23 253 253 253 29 29 29 236 236 236 107 107 107 109 109 109 107 107 107 220 220 220 149 149 149 61 61 61 177 177 177 129 129 129 0 0 0 145 145 145 29 29 29 164 164 164 27 27 27 122 122 122 70 70 70 238 238 238 11 11 11 76 76 76 249 249 249 189 189 189 162 162 162 151 151 151 253 253 253 65 65 65 115 115 115 
12 12 12 119 119 119 77 77 77 0 0 0 167 167 167 188 188 188 117 117 117 239 239 239 230 230 230 82 82 82 110 110 110 183 183 183 22 22 22 79 79 79 0 0 0 240 240 240 165 165 165 76 76 76 170 170 170 56 56 56 73 73 73 153 153 153 231 231 231 153 153 153 79 79 79 32 32 32 102 102 102 211 211 211 61 61 61 26 26 26 8 8 8 178 178 178 39 39 39 250 250 250 223 223 223 232 232 232 175 175 175 115 115 115 5 5 5 254 254 254 238 238 238 175 175 175 56 56 56 182 182 182 170 170 170 126 126 126 75 75 75 205 205 205 169 169 169 230 230 230 222 222 222 112 112 112 194 194 194 135 135 135 216 216 216 126 126 126 50 50 50 110 110 110 176 176 176 242 242 242 191 191 191 171 171 171 139 139 139 136 136 136 83 83 83 101 101 101 240 240 240 47 47 47 173 173 173 105 105 105 248 248 248 84 84 84 213 213 213 72 72 72 99 99 99 16 16 16 122 122 122 159 159 159 250 250 250 167 167 167 92 92 92 9 9 9 100 100 100 162 162 162 150 150 150 140 140 140 75 75 75 9 9 9 56 56 56 179 179 179 81 81 81 5 5 5 184 184 184 178 178 178 211 211 211 93 93 93 222 222 222 186 186 186 32 32 32 76 76 76 29 29 29 149 149 149 115 115 115 251 251 251 207 207 207 86 86 86 162 162 162 234 234 234 242 242 242 0 0 0 41 41 41 92 92 92 34 34 34 234 234 234 31 31 31 39 39 39 17 17 17 152 152 152 5 5 5 109 109 109 188 188 188 26 26 26 73 73 73 75 75 75 111 111 111 73 73 73 37 37 37 98 98 98 
218 218 218 44 44 44 254 254 254 191 191 191 235 235 235 111 111 111 151 151 151 109 109 109 14 14 14 82 82 82 92 92 92 60 60 60 40 40 40 10 10 10 41 41 41 193 193 193 198 198 198 147 147 147 210 210 210 50 50 50 172 172 172 133 133 133 94 94 94 154 154 154 250 250 250 6 6 6 0 0 0 40 40 40 78 78 78 2 2 2 103 103 103 178 178 178 254 254 254 205 205 205 59 59 59 247 247 247 222 222 222 195 195 195 173 173 173 237 237 237 6 6 6 54 54 54 175 175 175 29 29 29 144 144 144 60 60 60 93 93 93 254 254 254 44 44 44 138 138 138 246 246 246 127 127 127 37 37 37 229 229 229 32 32 32 31 31 31 177 177 177 152 152 152 120 120 120 172 172 172 65 65 65 243 243 243 75 75 75 2 2 2 186 186 186 17 17 17 41 41 41 190 190 190 69 69 69 16 16 16 121 121 121 211 211 211 179 179 179 17 17 17 147 147 147 136 136 136 167 167 167 30 30 30 30 30 30 58 58 58 150 150 150 39 39 39 70 70 70 66 66 66 162 162 162 10 10 10 169 169 169 176 176 176 181 181 181 139 139 139 76 76 76 114 114 114 56 56 56 173 173 173 240 240 240 57 57 57 60 60 60 176 176 176 226 226 226 159 159 159 74 74 74 225 225 225 127 127 127 78 78 78 65 65 65 152 152 152 91 91 91 132 132 132 152 152 152 49 49 49 79 79 79 214 214 214 150 150 150 68 68 68 139 139 139 128 128 128 151 151 151 134 134 134 128 128 128 184 184 184 85 85 85 162 162 162 56 56 56 21 21 21 128 128 128 212 212 212 36 36 36 47 47 47 
112 112 112 65 65 65 141 141 141 127 127 127 158 158 158 197 197 197 196 196 196 229 229 229 181 181 181 47 47 47 174 174 174 6 6 6 218 218 218 119 119 119 2 2 2 45 45 45 34 34 34 139 139 139 167 167 167 241 241 241 200 200 200 154 154 154 146 146 146 82 82 82 190 190 190 1 1 1 138 138 138 249 249 249 204 204 204 38 38 38 53 53 53 163 163 163 127 127 127 23 23 23 70 70 70 53 53 53 176 176 176 144 144 144 78 78 78 137 137 137 242 242 242 83 83 83 184 184 184 217 217 217 220 220 220 116 116 116 93 93 93 193 193 193 37 37 37 177 177 177 183 183 183 177 177 177 221 221 221 205 205 205 50 50 50 223 223 223 167 167 167 119 119 119 134 134 134 63 63 63 86 86 86 202 202 202 188 188 188 234 234 234 227 227 227 6 6 6 39 39 39 227 227 227 252 252 252 65 65 65 114 114 114 10 10 10 99 99 99 31 31 31 56 56 56 32 32 32 237 237 237 29 29 29 237 237 237 133 133 133 143 143 143 154 154 154 235 235 235 85 85 85 99 99 99 120 120 120 70 70 70 140 140 140 56 56 56 32 32 32 23 23 23 168 168 168 105 105 105 115 115 115 226 226 226 206 206 206 202 202 202 36 36 36 213 213 213 158 158 158 206 206 206 135 135 135 202 202 202 68 68 68 226 226 226 240 240 240 246 246 246 163 163 163 211 211 211 214 214 214 55 55 55 163 163 163 67 67 67 118 118 118 237 237 237 27 27 27 238 238 238 58 58 58 20 20 20 10 10 10 96 96 96 98 98 98 108 108 108 52 52 52 204 204 204 100 100 100 145 145 145 35 35 35 
76 76 76 197 197 197 61 61 61 34 34 34 4 4 4 172 172 172 37 37 37 21 21 21 82 82 82 196 196 196 186 186 186 131 131 131 163 163 163 201 201 201 150 150 150 32 32 32 239 239 239 191 191 191 165 165 165 165 165 165 84 84 84 149 149 149 38 38 38 166 166 166 62 62 62 102 102 102 93 93 93 201 201 201 158 158 158 64 64 64 154 154 154 89 89 89 130 130 130 54 54 54 182 182 182 93 93 93 7 7 7 23 23 23 46 46 46 246 246 246 107 107 107 74 74 74 64 64 64 38 38 38 43 43 43 94 94 94 220 220 220 44 44 44 231 231 231 198 198 198 3 3 3 181 181 181 191 191 191 240 240 240 156 156 156 120 120 120 244 244 244 2 2 2 95 95 95 113 113 113 16 16 16 198 198 198 214 214 214 82 82 82 245 245 245 117 117 117 220 220 220 118 118 118 137 137 137 222 222 222 204 204 204 87 87 87 19 19 19 248 248 248 207 207 207 167 167 167 69 69 69 128 128 128 178 178 178 7 7 7 156 156 156 58 58 58 151 151 151 50 50 50 17 17 17 79 79 79 70 70 70 218 218 218 147 147 147 192 192 192 248 248 248 171 171 171 46 46 46 218 218 218 219 219 219 165 165 165 9 9 9 138 138 138 172 172 172 84 84 84 42 42 42 118 118 118 8 8 8 23 23 23 23 23 23 216 216 216 45 45 45 144 144 144 7 7 7 104 104 104 175 175 175 222 222 222 239 239 239 172 172 172 196 196 196 191 191 191 132 132 132 114 114 114 143 143 143 251 251 251 4 4 4 88 88 88 246 246 246 132 132 132 176 176 176 158 158 158 235 235 235 80 80 80 
46 46 46 38 38 38 61 61 61 137 137 137 187 187 187 129 129 129 160 160 160 220 220 220 8 8 8 97 97 97 238 238 238 194 194 194 236 236 236 237 237 237 19 19 19 120 120 120 242 242 242 135 135 135 90 90 90 179 179 179 111 111 111 62 62 62 9 9 9 110 110 110 44 44 44 4 4 4 71 71 71 57 57 57 5 5 5 148 148 148 52 52 52 5 5 5 51 51 51 153 153 153 203 203 203 234 234 234 234 234 234 95 95 95 247 247 247 30 30 30 142 142 142 151 151 151 29 29 29 86 86 86 30 30 30 87 87 87 132 132 132 0 0 0 102 102 102 57 57 57 11 11 11 151 151 151 127 127 127 63 63 63 129 129 129 155 155 155 89 89 89 212 212 212 147 147 147 150 150 150 214 214 214 214 214 214 42 42 42 241 241 241 96 96 96 61 61 61 109 109 109 226 226 226 100 100 100 251 251 251 34 34 34 18 18 18 233 233 233 39 39 39 123 123 123 209 209 209 170 170 170 158 158 158 216 216 216 59 59 59 90 90 90 91 91 91 84 84 84 67 67 67 83 83 83 54 54 54 237 237 237 245 245 245 119 119 119 185 185 185 133 133 133 197 197 197 191 191 191 80 80 80 225 225 225 82 82 82 188 188 188 94 94 94 53 53 53 69 69 69 227 227 227 92 92 92 61 61 61 205 205 205 221 221 221 110 110 110 25 25 25 236 236 236 7 7 7 165 165 165 26 26 26 31 31 31 234 234 234 181 181 181 78 78 78 119 119 119 151 151 151 236 236 236 4 4 4 123 123 123 163 163 163 231 231 231 201 201 201 81 81 81 186 186 186 33 33 33 154 154 154 77 77 77 
218 218 218 218 218 218 66 66 66 184 184 184 108 108 108 41 41 41 195 195 195 127 127 127 4 4 4 10 10 10 165 165 165 175 175 175 116 116 116 88 88 88 219 219 219 179 179 179 183 183 183 25 25 25 24 24 24 157 157 157 132 132 132 149 149 149 61 61 61 179 179 179 255 255 255 85 85 85 175 175 175 143 143 143 76 76 76 126 126 126 176 176 176 138 138 138 63 63 63 64 64 64 114 114 114 210 210 210 83 83 83 241 241 241 151 151 151 144 144 144 114 114 114 229 229 229 11 11 11 57 57 57 16 16 16 72 72 72 165 165 165 248 248 248 51 51 51 70 70 70 174 174 174 100 100 100 139 139 139 144 144 144 199 199 199 7 7 7 63 63 63 204 204 204 208 208 208 226 226 226 139 139 139 233 233 233 132 132 132 205 205 205 103 103 103 169 169 169 218 218 218 115 115 115 87 87 87 128 128 128 70 70 70 148 148 148 30 30 30 96 96 96 0 0 0 198 198 198 154 154 154 20 20 20 171 171 171 232 232 232 61 61 61 198 198 198 221 221 221 12 12 12 182 182 182 170 170 170 29 29 29 62 62 62 91 91 91 4 4 4 30 30 30 3 3 3 90 90 90 59 59 59 149 149 149 251 251 251 242 242 242 15 15 15 213 213 213 1 1 1 67 67 67 5 5 5 168 168 168 144 144 144 152 152 152 133 133 133 94 94 94 54 54 54 120 120 120 180 180 180 16 16 16 160 160 160 64 64 64 181 181 181 170 170 170 170 170 170 93 93 93 125 125 125 141 141 141 191 191 191 66 66 66 47 47 47 136 136 136 144 144 144 40 40 40 250 250 250 205 205 205 69 69 69 
73 73 73 174 174 174 244 244 244 216 216 216 152 152 152 159 159 159 124 124 124 31 31 31 247 247 247 101 101 101 168 168 168 172 172 172 158 158 158 166 166 166 204 204 204 119 119 119 205 205 205 17 17 17 205 205 205 33 33 33 182 182 182 172 172 172 176 176 176 133 133 133 19 19 19 65 65 65 47 47 47 110 110 110 233 233 233 70 70 70 99 99 99 10 10 10 80 80 80 1 1 1 182 182 182 145 145 145 46 46 46 228 228 228 55 55 55 142 142 142 71 71 71 210 210 210 242 242 242 111 111 111 109 109 109 14 14 14 98 98 98 105 105 105 32 32 32 161 161 161 54 54 54 38 38 38 152 152 152 12 12 12 135 135 135 192 192 192 196 196 196 7 7 7 75 75 75 216 216 216 112 112 112 219 219 219 158 158 158 1 1 1 36 36 36 42 42 42 43 43 43 199 199 199 143 143 143 1 1 1 93 93 93 53 53 53 212 212 212 193 193 193 49 49 49 151 151 151 60 60 60 218 218 218 234 234 234 177 177 177 73 73 73 161 161 161 154 154 154 31 31 31 83 83 83 15 15 15 130 130 130 8 8 8 185 185 185 175 175 175 185 185 185 143 143 143 195 195 195 99 99 99 54 54 54 125 125 125 134 134 134 226 226 226 89 89 89 132 132 132 9 9 9 88 88 88 61 61 61 228 228 228 240 240 240 164 164 164 77 77 77 41 41 41 251 251 251 104 104 104 109 109 109 107 107 107 248 248 248 19 19 19 183 183 183 193 193 193 7 7 7 226 226 226 229 229 229 106 106 106 65 65 65 151 151 151 73 73 73 50 50 50 70 70 70 245 245 245 127 127 127 133 133 133 
247 247 247 157 157 157 141 141 141 241 241 241 98 98 98 15 15 15 147 147 147 187 187 187 75 75 75 92 92 92 188 188 188 4 4 4 80 80 80 100 100 100 55 55 55 212 212 212 101 101 101 14 14 14 212 212 212 86 86 86 60 60 60 58 58 58 0 0 0 2 2 2 171 171 171 112 112 112 125 125 125 124 124 124 42 42 42 108 108 108 238 238 238 170 170 170 110 110 110 168 168 168 32 32 32 51 51 51 128 128 128 144 144 144 125 125 125 216 216 216 231 231 231 76 76 76 157 157 157 94 94 94 228 228 228 142 142 142 217 217 217 104 104 104 103 103 103 84 84 84 163 163 163 84 84 84 25 25 25 99 99 99 82 82 82 156 156 156 215 215 215 91 91 91 183 183 183 134 134 134 199 199 199 137 137 137 255 255 255 129 129 129 68 68 68 15 15 15 101 101 101 104 104 104 6 6 6 140 140 140 91 91 91 29 29 29 72 72 72 35 35 35 33 33 33 128 128 128 71 71 71 159 159 159 183 183 183 51 51 51 5 5 5 220 220 220 170 170 170 64 64 64 103 103 103 167 167 167 146 146 146 206 206 206 174 174 174 7 7 7 137 137 137 143 143 143 127 127 127 182 182 182 173 173 173 199 199 199 51 51 51 89 89 89 61 61 61 60 60 60 89 89 89 94 94 94 70 70 70 139 139 139 113 113 113 71 71 71 81 81 81 192 192 192 18 18 18 189 189 189 99 99 99 98 98 98 191 191 191 39 39 39 71 71 71 255 255 255 68 68 68 120 120 120 99 99 99 183 183 183 246 246 246 48 48 48 252 252 252 194 194 194 122 122 122 57 57 57 226 226 226 55 55 55 
90 90 90 252 252 252 134 134 134 10 10 10 122 122 122 178 178 178 142 142 142 200 200 200 250 250 250 38 38 38 241 241 241 25 25 25 207 207 207 66 66 66 65 65 65 152 152 152 204 204 204 115 115 115 215 215 215 193 193 193 91 91 91 161 161 161 62 62 62 107 107 107 199 199 199 108 108 108 38 38 38 198 198 198 142 142 142 219 219 219 89 89 89 79 79 79 43 43 43 132 132 132 245 245 245 141 141 141 251 251 251 92 92 92 119 119 119 181 181 181 255 255 255 105 105 105 38 38 38 119 119 119 115 115 115 210 210 210 161 161 161 190 190 190 238 238 238 207 207 207 108 108 108 75 75 75 154 154 154 74 74 74 172 172 172 119 119 119 107 107 107 203 203 203 123 123 123 124 124 124 115 115 115 170 170 170 47 47 47 188 188 188 202 202 202 210 210 210 109 109 109 81 81 81 114 114 114 87 87 87 59 59 59 108 108 108 240 240 240 9 9 9 198 198 198 130 130 130 4 4 4 150 150 150 165 165 165 137 137 137 247 247 247 167 167 167 201 201 201 227 227 227 99 99 99 229 229 229 19 19 19 30 30 30 212 212 212 225 225 225 181 181 181 129 129 129 186 186 186 72 72 72 167 167 167 28 28 28 7 7 7 46 46 46 108 108 108 28 28 28 141 141 141 37 37 37 181 181 181 78 78 78 147 147 147 28 28 28 15 15 15 145 145 145 167 167 167 82 82 82 131 131 131 145 145 145 242 242 242 72 72 72 163 163 163 47 47 47 42 42 42 77 77 77 67 67 67 167 167 167 65 65 65 129 129 129 149 149 149 49 49 49 8 8 8 84 84 84 235 235 235 238 238 238 
61 61 61 124 124 124 70 70 70 109 109 109 185 185 185 32 32 32 69 69 69 60 60 60 174 174 174 77 77 77 20 20 20 111 111 111 202 202 202 222 222 222 178 178 178 133 133 133 37 37 37 142 142 142 26 26 26 89 89 89 54 54 54 65 65 65 229 229 229 13 13 13 157 157 157 228 228 228 9 9 9 110 110 110 29 29 29 80 80 80 188 188 188 249 249 249 24 24 24 225 225 225 178 178 178 118 118 118 5 5 5 240 240 240 48 48 48 138 138 138 67 67 67 5 5 5 80 80 80 84 84 84 240 240 240 36 36 36 23 23 23 25 25 25 172 172 172 33 33 33 208 208 208 70 70 70 227 227 227 230 230 230 107 107 107 125 125 125 106 106 106 232 232 232 140 140 140 247 247 247 112 112 112 206 206 206 27 27 27 127 127 127 64 64 64 247 247 247 90 90 90 74 74 74 153 153 153 180 180 180 206 206 206 161 161 161 141 141 141 79 79 79 55 55 55 251 251 251 0 0 0 149 149 149 169 169 169 129 129 129 239 239 239 160 160 160 251 251 251 193 193 193 43 43 43 161 161 161 135 135 135 180 180 180 182 182 182 190 190 190 57 57 57 119 119 119 235 235 235 157 157 157 12 12 12 201 201 201 146 146 146 48 48 48 86 86 86 75 75 75 175 175 175 186 186 186 242 242 242 28 28 28 106 106 106 248 248 248 211 211 211 211 211 211 56 56 56 24 24 24 7 7 7 202 202 202 195 195 195 68 68 68 52 52 52 86 86 86 110 110 110 35 35 35 135 135 135 192 192 192 155 155 155 124 124 124 147 147 147 152 152 152 151 151 151 18 18 18 42 42 42 182 182 182 
107 107 107 4 4 4 124 124 124 170 170 170 80 80 80 108 108 108 43 43 43 228 228 228 158 158 158 183 183 183 22 22 22 97 97 97 175 175 175 225 225 225 171 171 171 179 179 179 232 232 232 35 35 35 143 143 143 170 170 170 73 73 73 83 83 83 187 187 187 98 98 98 35 35 35 34 34 34 226 226 226 72 72 72 160 160 160 154 154 154 181 181 181 94 94 94 60 60 60 194 194 194 123 123 123 61 61 61 238 238 238 104 104 104 124 124 124 195 195 195 76 76 76 5 5 5 114 114 114 170 170 170 5 5 5 178 178 178 113 113 113 55 55 55 44 44 44 55 55 55 97 97 97 227 227 227 242 242 242 151 151 151 166 166 166 58 58 58 121 121 121 9 9 9 125 125 125 128 128 128 255 255 255 84 84 84 6 6 6 113 113 113 88 88 88 69 69 69 100 100 100 129 129 129 22 22 22 13 13 13 6 6 6 127 127 127 178 178 178 222 222 222 93 93 93 92 92 92 219 219 219 216 216 216 225 225 225 233 233 233 242 242 242 119 119 119 111 111 111 13 13 13 17 17 17 110 110 110 30 30 30 85 85 85 255 255 255 136 136 136 114 114 114 10 10 10 254 254 254 74 74 74 70 70 70 80 80 80 239 239 239 207 207 207 220 220 220 179 179 179 243 243 243 14 14 14 204 204 204 183 183 183 46 46 46 253 253 253 163 163 163 240 240 240 82 82 82 132 132 132 146 146 146 68 68 68 5 5 5 50 50 50 71 71 71 1 1 1 82 82 82 242 242 242 215 215 215 67 67 67 55 55 55 124 124 124 179 179 179 254 254 254 29 29 29 62 62 62 58 58 58 97 97 97 
243 243 243 55 55 55 82 82 82 98 98 98 184 184 184 8 8 8 80 80 80 15 15 15 219 219 219 177 177 177 239 239 239 85 85 85 169 169 169 83 83 83 23 23 23 140 140 140 104 104 104 209 209 209 232 232 232 172 172 172 84 84 84 238 238 238 207 207 207 102 102 102 140 140 140 243 243 243 9 9 9 166 166 166 164 164 164 80 80 80 247 247 247 103 103 103 87 87 87 78 78 78 189 189 189 145 145 145 247 247 247 124 124 124 37 37 37 184 184 184 200 200 200 225 225 225 190 190 190 134 134 134 143 143 143 215 215 215 109 109 109 152 152 152 247 247 247 172 172 172 103 103 103 7 7 7 227 227 227 22 22 22 15 15 15 80 80 80 158 158 158 139 139 139 211 211 211 188 188 188 122 122 122 138 138 138 3 3 3 144 144 144 182 182 182 38 38 38 202 202 202 202 202 202 24 24 24 138 138 138 53 53 53 106 106 106 160 160 160 152 152 152 167 167 167 29 29 29 127 127 127 6 6 6 53 53 53 130 130 130 255 255 255 75 75 75 94 94 94 203 203 203 130 130 130 138 138 138 89 89 89 124 124 124 227 227 227 145 145 145 118 118 118 154 154 154 222 222 222 171 171 171 179 179 179 37 37 37 133 133 133 180 180 180 7 7 7 94 94 94 21 21 21 32 32 32 32 32 32 231 231 231 115 115 115 25 25 25 12 12 12 8 8 8 104 104 104 244 244 244 178 178 178 224 224 224 3 3 3 86 86 86 137 137 137 76 76 76 112 112 112 26 26 26 135 135 135 122 122 122 170 170 170 62 62 62 70 70 70 73 73 73 30 30 30 29 29 29 195 195 195 198 198 198 
223 223 223 130 130 130 242 242 242 142 142 142 124 124 124 42 42 42 132 132 132 251 251 251 50 50 50 28 28 28 16 16 16 177 177 177 62 62 62 73 73 73 93 93 93 57 57 57 28 28 28 146 146 146 172 172 172 39 39 39 152 152 152 76 76 76 120 120 120 153 153 153 199 199 199 223 223 223 30 30 30 238 238 238 37 37 37 92 92 92 33 33 33 185 185 185 181 181 181 127 127 127 233 233 233 220 220 220 46 46 46 212 212 212 125 125 125 84 84 84 215 215 215 208 208 208 69 69 69 117 117 117 119 119 119 187 187 187 179 179 179 180 180 180 158 158 158 76 76 76 39 39 39 192 192 192 34 34 34 155 155 155 130 130 130 146 146 146 87 87 87 110 110 110 236 236 236 179 179 179 104 104 104 34 34 34 186 186 186 24 24 24 224 224 224 145 145 145 154 154 154 255 255 255 176 176 176 48 48 48 53 53 53 114 114 114 144 144 144 86 86 86 136 136 136 18 18 18 225 225 225 103 103 103 21 21 21 86 86 86 190 190 190 110 110 110 117 117 117 140 140 140 85 85 85 251 251 251 10 10 10 235 235 235 151 151 151 192 192 192 12 12 12 252 252 252 228 228 228 207 207 207 166 166 166 1 1 1 155 155 155 160 160 160 78 78 78 252 252 252 43 43 43 217 217 217 191 191 191 69 69 69 41 41 41 43 43 43 1 1 1 237 237 237 49 49 49 130 130 130 145 145 145 148 148 148 32 32 32 173 173 173 221 221 221 228 228 228 17 17 17 30 30 30 4 4 4 203 203 203 20 20 20 24 24 24 164 164 164 17 17 17 157 157 157 204 204 204 115 115 115 181 181 181 
189 189 189 195 195 195 78 78 78 100 100 100 97 97 97 213 213 213 80 80 80 39 39 39 211 211 211 222 222 222 241 241 241 83 83 83 222 222 222 190 190 190 131 131 131 131 131 131 27 27 27 250 250 250 96 96 96 5 5 5 199 199 199 137 137 137 117 117 117 106 106 106 82 82 82 246 246 246 152 152 152 139 139 139 255 255 255 112 112 112 240 240 240 50 50 50 112 112 112 211 211 211 140 140 140 156 156 156 38 38 38 203 203 203 254 254 254 57 57 57 158 158 158 188 188 188 220 220 220 198 198 198 86 86 86 124 124 124 236 236 236 165 165 165 29 29 29 94 94 94 44 44 44 35 35 35 176 176 176 94 94 94 0 0 0 133 133 133 226 226 226 30 30 30 187 187 187 251 251 251 104 104 104 89 89 89 23 23 23 229 229 229 214 214 214 156 156 156 104 104 104 43 43 43 51 51 51 238 238 238 206 206 206 235 235 235 72 72 72 203 203 203 102 102 102 173 173 173 134 134 134 42 42 42 93 93 93 115 115 115 211 211 211 218 218 218 13 13 13 25 25 25 29 29 29 54 54 54 58 58 58 103 103 103 211 211 211 175 175 175 79 79 79 105 105 105 156 156 156 250 250 250 169 169 169 22 22 22 207 207 207 131 131 131 118 118 118 26 26 26 52 52 52 73 73 73 137 137 137 6 6 6 130 130 130 224 224 224 13 13 13 95 95 95 65 65 65 24 24 24 122 122 122 41 41 41 101 101 101 175 175 175 211 211 211 103 103 103 232 232 232 77 77 77 15 15 15 228 228 228 233 233 233 180 180 180 196 196 196 62 62 62 125 125 125 206 206 206 246 246 246 247 247 247 
136 136 136 84 84 84 89 89 89 17 17 17 126 126 126 202 202 202 169 169 169 27 27 27 22 22 22 184 184 184 157 157 157 153 153 153 92 92 92 214 214 214 244 244 244 84 84 84 166 166 166 117 117 117 42 42 42 45 45 45 193 193 193 221 221 221 126 126 126 97 97 97 219 219 219 126 126 126 68 68 68 228 228 228 236 236 236 126 126 126 217 217 217 189 189 189 244 244 244 213 213 213 231 231 231 209 209 209 253 253 253 18 18 18 234 234 234 194 194 194 175 175 175 88 88 88 125 125 125 234 234 234 146 146 146 70 70 70 20 20 20 241 241 241 162 162 162 154 154 154 183 183 183 179 179 179 103 103 103 23 23 23 236 236 236 39 39 39 166 166 166 54 54 54 53 53 53 71 71 71 17 17 17 210 210 210 122 122 122 211 211 211 87 87 87 228 228 228 22 22 22 134 134 134 91 91 91 186 186 186 51 51 51 148 148 148 106 106 106 103 103 103 69 69 69 33 33 33 79 79 79 86 86 86 201 201 201 105 105 105 196 196 196 232 232 232 1 1 1 57 57 57 213 213 213 78 78 78 202 202 202 24 24 24 124 124 124 150 150 150 238 238 238 36 36 36 194 194 194 179 179 179 20 20 20 190 190 190 107 107 107 70 70 70 26 26 26 224 224 224 97 97 97 85 85 85 237 237 237 141 141 141 175 175 175 169 169 169 83 83 83 230 230 230 168 168 168 159 159 159 129 129 129 88 88 88 223 223 223 224 224 224 167 167 167 47 47 47 217 217 217 223 223 223 11 11 11 162 162 162 198 198 198 105 105 105 32 32 32 83 83 83 48 48 48 216 216 216 238 238 238 128 128 128 
26 26 26 11 11 11 70 70 70 98 98 98 139 139 139 92 92 92 43 43 43 177 177 177 222 222 222 229 229 229 201 201 201 105 105 105 33 33 33 104 104 104 26 26 26 60 60 60 199 199 199 243 243 243 123 123 123 25 25 25 230 230 230 62 62 62 253 253 253 61 61 61 94 94 94 85 85 85 178 178 178 224 224 224 86 86 86 218 218 218 174 174 174 81 81 81 151 151 151 195 195 195 49 49 49 12 12 12 52 52 52 145 145 145 87 87 87 134 134 134 137 137 137 185 185 185 37 37 37 156 156 156 10 10 10 49 49 49 34 34 34 220 220 220 47 47 47 103 103 103 79 79 79 20 20 20 98 98 98 69 69 69 4 4 4 231 231 231 243 243 243 101 101 101 77 77 77 54 54 54 188 188 188 223 223 223 53 53 53 237 237 237 231 231 231 127 127 127 172 172 172 214 214 214 54 54 54 113 113 113 30 30 30 184 184 184 132 132 132 89 89 89 49 49 49 88 88 88 48 48 48 63 63 63 80 80 80 74 74 74 195 195 195 26 26 26 184 184 184 152 152 152 202 202 202 2 2 2 34 34 34 140 140 140 152 152 152 137 137 137 63 63 63 238 238 238 172 172 172 51 51 51 23 23 23 92 92 92 31 31 31 216 216 216 248 248 248 47 47 47 147 147 147 212 212 212 41 41 41 186 186 186 19 19 19 94 94 94 77 77 77 114 114 114 34 34 34 70 70 70 58 58 58 171 171 171 216 216 216 119 119 119 152 152 152 161 161 161 88 88 88 176 176 176 205 205 205 115 115 115 238 238 238 76 76 76 38 38 38 10 10 10 138 138 138 115 115 115 39 39 39 1 1 1 
74 74 74 175 175 175 106 106 106 252 252 252 45 45 45 207 207 207 12 12 12 26 26 26 145 145 145 187 187 187 12 12 12 151 151 151 195 195 195 130 130 130 20 20 20 39 39 39 82 82 82 129 129 129 63 63 63 127 127 127 1 1 1 44 44 44 201 201 201 231 231 231 196 196 196 13 13 13 228 228 228 136 136 136 77 77 77 88 88 88 233 233 233 222 222 222 242 242 242 94 94 94 186 186 186 240 240 240 111 111 111 132 132 132 233 233 233 48 48 48 44 44 44 189 189 189 252 252 252 73 73 73 191 191 191 17 17 17 184 184 184 196 196 196 87 87 87 61 61 61 69 69 69 32 32 32 232 232 232 252 252 252 59 59 59 82 82 82 201 201 201 60 60 60 44 44 44 152 152 152 191 191 191 9 9 9 157 157 157 37 37 37 37 37 37 72 72 72 32 32 32 229 229 229 104 104 104 194 194 194 207 207 207 11 11 11 163 163 163 76 76 76 56 56 56 180 180 180 24 24 24 188 188 188 68 68 68 242 242 242 184 184 184 156 156 156 240 240 240 72 72 72 69 69 69 215 215 215 2 2 2 84 84 84 61 61 61 34 34 34 108 108 108 130 130 130 180 180 180 217 217 217 212 212 212 96 96 96 61 61 61 140 140 140 169 169 169 114 114 114 88 88 88 147 147 147 198 198 198 147 147 147 163 163 163 164 164 164 135 135 135 72 72 72 210 210 210 215 215 215 162 162 162 198 198 198 118 118 118 254 254 254 63 63 63 119 119 119 29 29 29 39 39 39 239 239 239 231 231 231 235 235 235 25 25 25 68 68 68 207 207 207 79 79 79 104 104 104 75 75 75 59 59 59 
174 174 174 148 148 148 99 99 99 151 151 151 91 91 91 117 117 117 50 50 50 252 252 252 51 51 51 60 60 60 244 244 244 169 169 169 3 3 3 207 207 207 33 33 33 229 229 229 203 203 203 21 21 21 231 231 231 150 150 150 208 208 208 31 31 31 232 232 232 177 177 177 98 98 98 2 2 2 133 133 133 12 12 12 201 201 201 77 77 77 88 88 88 39 39 39 23 23 23 199 199 199 112 112 112 235 235 235 44 44 44 77 77 77 111 111 111 99 99 99 181 181 181 97 97 97 69 69 69 119 119 119 89 89 89 9 9 9 216 216 216 46 46 46 157 157 157 128 128 128 203 203 203 79 79 79 86 86 86 211 211 211 29 29 29 55 55 55 176 176 176 41 41 41 212 212 212 221 221 221 251 251 251 90 90 90 189 189 189 245 245 245 86 86 86 100 100 100 26 26 26 181 181 181 45 45 45 255 255 255 247 247 247 108 108 108 241 241 241 214 214 214 25 25 25 225 225 225 145 145 145 242 242 242 127 127 127 221 221 221 88 88 88 218 218 218 33 33 33 182 182 182 11 11 11 214 214 214 26 26 26 148 148 148 217 217 217 15 15 15 161 161 161 130 130 130 11 11 11 246 246 246 111 111 111 36 36 36 62 62 62 145 145 145 197 197 197 116 116 116 138 138 138 203 203 203 144 144 144 113 113 113 162 162 162 56 56 56 171 171 171 107 107 107 205 205 205 183 183 183 4 4 4 85 85 85 95 95 95 122 122 122 107 107 107 19 19 19 87 87 87 224 224 224 68 68 68 109 109 109 230 230 230 192 192 192 135 135 135 104 104 104 255 255 255 187 187 187 16 16 16 98 98 98 
120 120 120 69 69 69 246 246 246 144 144 144 123 123 123 56 56 56 236 236 236 105 105 105 36 36 36 105 105 105 28 28 28 221 221 221 94 94 94 144 144 144 150 150 150 45 45 45 96 96 96 28 28 28 125 125 125 199 199 199 110 110 110 65 65 65 222 222 222 158 158 158 230 230 230 171 171 171 119 119 119 68 68 68 107 107 107 162 162 162 244 244 244 67 67 67 224 224 224 44 44 44 143 143 143 43 43 43 154 154 154 27 27 27 136 136 136 153 153 153 141 141 141 10 10 10 26 26 26 212 212 212 191 191 191 96 96 96 23 23 23 113 113 113 131 131 131 153 153 153 37 37 37 252 252 252 222 222 222 192 192 192 247 247 247 180 180 180 182 182 182 252 252 252 3 3 3 254 254 254 214 214 214 217 217 217 4 4 4 103 103 103 8 8 8 244 244 244 192 192 192 43 43 43 90 90 90 133 133 133 208 208 208 38 38 38 103 103 103 208 208 208 77 77 77 173 173 173 10 10 10 120 120 120 109 109 109 203 203 203 36 36 36 207 207 207 212 212 212 240 240 240 0 0 0 1 1 1 112 112 112 230 230 230 93 93 93 15 15 15 129 129 129 144 144 144 147 147 147 136 136 136 113 113 113 132 132 132 135 135 135 136 136 136 34 34 34 23 23 23 231 231 231 233 233 233 151 151 151 181 181 181 105 105 105 185 185 185 208 208 208 191 191 191 105 105 105 172 172 172 110 110 110 93 93 93 212 212 212 93 93 93 189 189 189 3 3 3 151 151 151 199 199 199 2 2 2 190 190 190 82 82 82 38 38 38 151 151 151 12 12 12 167 167 167 248 248 248 111 111 111 175 175 175 
235 235 235 185 185 185 91 91 91 35 35 35 71 71 71 88 88 88 215 215 215 226 226 226 255 255 255 109 109 109 107 107 107 38 38 38 92 92 92 208 208 208 218 218 218 112 112 112 234 234 234 250 250 250 45 45 45 162 162 162 185 185 185 178 178 178 228 228 228 96 96 96 238 238 238 220 220 220 58 58 58 44 44 44 169 169 169 25 25 25 230 230 230 32 32 32 28 28 28 88 88 88 160 160 160 2 2 2 250 250 250 217 217 217 185 185 185 95 95 95 185 185 185 102 102 102 11 11 11 119 119 119 42 42 42 174 174 174 2 2 2 122 122 122 87 87 87 124 124 124 87 87 87 222 222 222 169 169 169 6 6 6 154 154 154 158 158 158 135 135 135 45 45 45 35 35 35 238 238 238 121 121 121 140 140 140 136 136 136 188 188 188 82 82 82 175 175 175 148 148 148 45 45 45 178 178 178 56 56 56 198 198 198 25 25 25 247 247 247 3 3 3 174 174 174 199 199 199 13 13 13 234 234 234 247 247 247 170 170 170 146 146 146 67 67 67 29 29 29 66 66 66 241 241 241 36 36 36 10 10 10 215 215 215 217 217 217 214 214 214 47 47 47 158 158 158 207 207 207 3 3 3 66 66 66 54 54 54 70 70 70 215 215 215 238 238 238 87 87 87 21 21 21 102 102 102 25 25 25 129 129 129 112 112 112 66 66 66 217 217 217 207 207 207 230 230 230 41 41 41 143 143 143 177 177 177 198 198 198 130 130 130 17 17 17 212 212 212 221 221 221 199 199 199 85 85 85 21 21 21 78 78 78 81 81 81 81 81 81 100 100 100 224 224 224 97 97 97 222 222 222 245 245 245 
103 103 103 114 114 114 80 80 80 167 167 167 253 253 253 112 112 112 247 247 247 119 119 119 246 246 246 179 179 179 5 5 5 252 252 252 197 197 197 208 208 208 171 171 171 69 69 69 176 176 176 91 91 91 129 129 129 169 169 169 244 244 244 40 40 40 72 72 72 203 203 203 243 243 243 43 43 43 34 34 34 76 76 76 181 181 181 243 243 243 40 40 40 101 101 101 63 63 63 190 190 190 210 210 210 13 13 13 77 77 77 220 220 220 226 226 226 238 238 238 113 113 113 251 251 251 240 240 240 121 121 121 182 182 182 60 60 60 42 42 42 236 236 236 104 104 104 132 132 132 168 168 168 243 243 243 238 238 238 175 175 175 209 209 209 147 147 147 163 163 163 63 63 63 202 202 202 145 145 145 72 72 72 7 7 7 72 72 72 134 134 134 12 12 12 19 19 19 197 197 197 246 246 246 142 142 142 194 194 194 24 24 24 176 176 176 225 225 225 48 48 48 188 188 188 55 55 55 115 115 115 132 132 132 110 110 110 118 118 118 101 101 101 4 4 4 41 41 41 192 192 192 41 41 41 63 63 63 140 140 140 107 107 107 160 160 160 107 107 107 75 75 75 209 209 209 163 163 163 120 120 120 46 46 46 215 215 215 116 116 116 204 204 204 86 86 86 154 154 154 132 132 132 113 113 113 43 43 43 210 210 210 252 252 252 205 205 205 94 94 94 212 212 212 154 154 154 234 234 234 144 144 144 71 71 71 83 83 83 51 51 51 14 14 14 23 23 23 106 106 106 94 94 94 37 37 37 27 27 27 53 53 53 134 134 134 79 79 79 102 102 102 13 13 13 132 132 132 200 200 200 178 178 178 
114 114 114 61 61 61 128 128 128 245 245 245 196 196 196 140 140 140 21 21 21 123 123 123 254 254 254 70 70 70 0 0 0 247 247 247 245 245 245 13 13 13 173 173 173 235 235 235 191 191 191 192 192 192 16 16 16 0 0 0 154 154 154 161 161 161 99 99 99 137 137 137 77 77 77 27 27 27 230 230 230 62 62 62 112 112 112 81 81 81 86 86 86 146 146 146 157 157 157 206 206 206 71 71 71 118 118 118 71 71 71 205 205 205 214 214 214 22 22 22 133 133 133 94 94 94 239 239 239 236 236 236 210 210 210 87 87 87 167 167 167 165 165 165 89 89 89 195 195 195 156 156 156 178 178 178 231 231 231 212 212 212 229 229 229 246 246 246 94 94 94 187 187 187 174 174 174 117 117 117 134 134 134 134 134 134 244 244 244 218 218 218 5 5 5 38 38 38 26 26 26 57 57 57 151 151 151 67 67 67 219 219 219 251 251 251 151 151 151 150 150 150 112 112 112 122 122 122 128 128 128 98 98 98 83 83 83 210 210 210 111 111 111 64 64 64 103 103 103 89 89 89 181 181 181 187 187 187 102 102 102 138 138 138 185 185 185 46 46 46 99 99 99 30 30 30 102 102 102 205 205 205 131 131 131 186 186 186 221 221 221 26 26 26 119 119 119 192 192 192 115 115 115 28 28 28 212 212 212 17 17 17 146 146 146 14 14 14 198 198 198 89 89 89 38 38 38 235 235 235 141 141 141 209 209 209 3 3 3 106 106 106 56 56 56 103 103 103 106 106 106 22 22 22 100 100 100 132 132 132 17 17 17 43 43 43 184 184 184 24 24 24 48 48 48 196 196 196 120 120 120 145 145 145 
193 193 193 23 23 23 87 87 87 227 227 227 248 248 248 185 185 185 200 200 200 190 190 190 192 192 192 142 142 142 44 44 44 205 205 205 244 244 244 175 175 175 240 240 240 156 156 156 104 104 104 65 65 65 95 95 95 15 15 15 172 172 172 35 35 35 183 183 183 90 90 90 180 180 180 153 153 153 2 2 2 190 190 190 238 238 238 244 244 244 93 93 93 174 174 174 51 51 51 142 142 142 10 10 10 80 80 80 63 63 63 233 233 233 67 67 67 68 68 68 142 142 142 228 228 228 129 129 129 126 126 126 165 165 165 208 208 208 91 91 91 70 70 70 28 28 28 209 209 209 97 97 97 137 137 137 168 168 168 142 142 142 126 126 126 119 119 119 229 229 229 133 133 133 241 241 241 255 255 255 157 157 157 72 72 72 146 146 146 136 136 136 52 52 52 150 150 150 63 63 63 181 181 181 237 237 237 107 107 107 137 137 137 145 145 145 102 102 102 111 111 111 229 229 229 186 186 186 97 97 97 195 195 195 54 54 54 26 26 26 75 75 75 62 62 62 67 67 67 222 222 222 99 99 99 188 188 188 102 102 102 177 177 177 213 213 213 160 160 160 57 57 57 121 121 121 203 203 203 151 151 151 124 124 124 143 143 143 172 172 172 219 219 219 60 60 60 85 85 85 198 198 198 144 144 144 176 176 176 244 244 244 85 85 85 154 154 154 112 112 112 41 41 41 58 58 58 255 255 255 95 95 95 160 160 160 46 46 46 2 2 2 61 61 61 158 158 158 43 43 43 65 65 65 234 234 234 72 72 72 225 225 225 252 252 252 165 165 165 206 206 206 108 108 108 231 231 231 94 94 94 237 237 237 
178 178 178 85 85 85 8 8 8 86 86 86 197 197 197 128 128 128 239 239 239 139 139 139 91 91 91 147 147 147 62 62 62 36 36 36 13 13 13 128 128 128 124 124 124 35 35 35 1 1 1 204 204 204 17 17 17 39 39 39 63 63 63 185 185 185 14 14 14 146 146 146 98 98 98 96 96 96 214 214 214 45 45 45 113 113 113 35 35 35 181 181 181 51 51 51 201 201 201 237 237 237 74 74 74 129 129 129 28 28 28 250 250 250 229 229 229 255 255 255 172 172 172 148 148 148 241 241 241 234 234 234 89 89 89 148 148 148 123 123 123 18 18 18 145 145 145 15 15 15 177 177 177 230 230 230 175 175 175 205 205 205 211 211 211 134 134 134 110 110 110 193 193 193 208 208 208 17 17 17 254 254 254 191 191 191 110 110 110 38 38 38 247 247 247 161 161 161 63 63 63 95 95 95 88 88 88 147 147 147 72 72 72 171 171 171 20 20 20 227 227 227 24 24 24 93 93 93 189 189 189 1 1 1 35 35 35 133 133 133 110 110 110 244 244 244 96 96 96 1 1 1 167 167 167 59 59 59 28 28 28 17 17 17 26 26 26 254 254 254 66 66 66 71 71 71 217 217 217 147 147 147 120 120 120 188 188 188 130 130 130 148 148 148 237 237 237 249 249 249 184 184 184 183 183 183 208 208 208 117 117 117 171 171 171 69 69 69 181 181 181 62 62 62 72 72 72 79 79 79 229 229 229 110 110 110 151 151 151 165 165 165 232 232 232 85 85 85 120 120 120 179 179 179 245 245 245 143 143 143 96 96 96 221 221 221 184 184 184 130 130 130 51 51 51 226 226 226 48 48 48 20 20 20 
128 128 128 242 242 242 47 47 47 108 108 108 116 116 116 111 111 111 22 22 22 163 163 163 181 181 181 153 153 153 51 51 51 235 235 235 103 103 103 181 181 181 49 49 49 33 33 33 9 9 9 178 178 178 135 135 135 250 250 250 104 104 104 183 183 183 5 5 5 80 80 80 160 160 160 132 132 132 155 155 155 21 21 21 136 136 136 167 167 167 16 16 16 234 234 234 69 69 69 222 222 222 194 194 194 28 28 28 73 73 73 74 74 74 124 124 124 54 54 54 101 101 101 225 225 225 4 4 4 206 206 206 240 240 240 232 232 232 240 240 240 124 124 124 96 96 96 119 119 119 112 112 112 76 76 76 73 73 73 86 86 86 46 46 46 211 211 211 94 94 94 115 115 115 49 49 49 190 190 190 53 53 53 53 53 53 119 119 119 90 90 90 4 4 4 37 37 37 158 158 158 95 95 95 204 204 204 112 112 112 201 201 201 11 11 11 234 234 234 233 233 233 245 245 245 182 182 182 44 44 44 7 7 7 170 170 170 56 56 56 213 213 213 218 218 218 210 210 210 248 248 248 223 223 223 196 196 196 202 202 202 165 165 165 165 165 165 27 27 27 34 34 34 10 10 10 52 52 52 32 32 32 59 59 59 82 82 82 100 100 100 49 49 49 161 161 161 175 175 175 79 79 79 38 38 38 95 95 95 232 232 232 34 34 34 164 164 164 166 166 166 226 226 226 199 199 199 10 10 10 198 198 198 61 61 61 88 88 88 0 0 0 94 94 94 38 38 38 156 156 156 227 227 227 15 15 15 110 110 110 247 247 247 84 84 84 52 52 52 99 99 99 80 80 80 135 135 135 178 178 178 220 220 220 
64 64 64 83 83 83 82 82 82 92 92 92 201 201 201 120 120 120 43 43 43 90 90 90 130 130 130 184 184 184 187 187 187 166 166 166 248 248 248 101 101 101 88 88 88 7 7 7 18 18 18 36 36 36 73 73 73 164 164 164 242 242 242 7 7 7 246 246 246 27 27 27 167 167 167 238 238 238 190 190 190 52 52 52 233 233 233 210 210 210 21 21 21 34 34 34 182 182 182 233 233 233 112 112 112 3 3 3 242 242 242 137 137 137 48 48 48 32 32 32 140 140 140 168 168 168 240 240 240 148 148 148 119 119 119 181 181 181 237 237 237 148 148 148 251 251 251 193 193 193 160 160 160 173 173 173 134 134 134 244 244 244 120 120 120 171 171 171 49 49 49 101 101 101 190 190 190 208 208 208 198 198 198 123 123 123 106 106 106 251 251 251 232 232 232 150 150 150 157 157 157 247 247 247 140 140 140 48 48 48 118 118 118 180 180 180 144 144 144 78 78 78 161 161 161 103 103 103 151 151 151 93 93 93 50 50 50 212 212 212 113 113 113 227 227 227 48 48 48 123 123 123 204 204 204 214 214 214 128 128 128 62 62 62 89 89 89 179 179 179 97 97 97 183 183 183 243 243 243 167 167 167 44 44 44 144 144 144 52 52 52 173 173 173 170 170 170 233 233 233 85 85 85 113 113 113 80 80 80 224 224 224 60 60 60 112 112 112 174 174 174 31 31 31 129 129 129 217 217 217 187 187 187 228 228 228 236 236 236 56 56 56 83 83 83 29 29 29 10 10 10 255 255 255 33 33 33 108 108 108 37 37 37 169 169 169 93 93 93 57 57 57 40 40 40 47 47 47 196 196 196 90 90 90 
88 88 88 16 16 16 54 54 54 130 130 130 55 55 55 39 39 39 181 181 181 174 174 174 230 230 230 12 12 12 200 200 200 248 248 248 73 73 73 177 177 177 230 230 230 172 172 172 39 39 39 107 107 107 19 19 19 236 236 236 235 235 235 130 130 130 52 52 52 1 1 1 128 128 128 108 108 108 217 217 217 130 130 130 17 17 17 89 89 89 139 139 139 43 43 43 163 163 163 51 51 51 54 54 54 19 19 19 177 177 177 5 5 5 71 71 71 174 174 174 37 37 37 109 109 109 43 43 43 138 138 138 193 193 193 200 200 200 56 56 56 195 195 195 28 28 28 65 65 65 203 203 203 239 239 239 51 51 51 182 182 182 157 157 157 91 91 91 132 132 132 77 77 77 99 99 99 63 63 63 177 177 177 102 102 102 83 83 83 223 223 223 127 127 127 148 148 148 38 38 38 205 205 205 235 235 235 22 22 22 121 121 121 127 127 127 196 196 196 92 92 92 221 221 221 242 242 242 187 187 187 178 178 178 251 251 251 168 168 168 154 154 154 170 170 170 156 156 156 82 82 82 142 142 142 253 253 253 29 29 29 79 79 79 73 73 73 19 19 19 19 19 19 165 165 165 104 104 104 2 2 2 153 153 153 184 184 184 82 82 82 43 43 43 241 241 241 18 18 18 56 56 56 218 218 218 37 37 37 33 33 33 185 185 185 180 180 180 83 83 83 21 21 21 93 93 93 54 54 54 78 78 78 80 80 80 122 122 122 232 232 232 202 202 202 91 91 91 139 139 139 215 215 215 136 136 136 49 49 49 169 169 169 191 191 191 184 184 184 159 159 159 234 234 234 174 174 174 41 41 41 189 189 189 
228 228 228 208 208 208 111 111 111 22 22 22 0 0 0 87 87 87 116 116 116 219 219 219 235 235 235 17 17 17 239 239 239 129 129 129 42 42 42 184 184 184 208 208 208 162 162 162 160 160 160 9 9 9 178 178 178 29 29 29 63 63 63 223 223 223 72 72 72 127 127 127 106 106 106 151 151 151 98 98 98 55 55 55 116 116 116 14 14 14 217 217 217 204 204 204 183 183 183 101 101 101 251 251 251 108 108 108 10 10 10 123 123 123 85 85 85 176 176 176 215 215 215 73 73 73 242 242 242 49 49 49 100 100 100 231 231 231 56 56 56 82 82 82 24 24 24 7 7 7 201 201 201 84 84 84 204 204 204 98 98 98 86 86 86 250 250 250 33 33 33 55 55 55 155 155 155 17 17 17 162 162 162 234 234 234 227 227 227 159 159 159 146 146 146 226 226 226 26 26 26 204 204 204 7 7 7 197 197 197 215 215 215 218 218 218 47 47 47 88 88 88 242 242 242 108 108 108 173 173 173 193 193 193 113 113 113 173 173 173 190 190 190 100 100 100 111 111 111 43 43 43 175 175 175 49 49 49 97 97 97 113 113 113 88 88 88 22 22 22 102 102 102 167 167 167 214 214 214 135 135 135 250 250 250 188 188 188 7 7 7 33 33 33 178 178 178 181 181 181 89 89 89 182 182 182 227 227 227 5 5 5 24 24 24 14 14 14 175 175 175 173 173 173 41 41 41 109 109 109 83 83 83 0 0 0 133 133 133 103 103 103 91 91 91 94 94 94 240 240 240 245 245 245 8 8 8 188 188 188 41 41 41 62 62 62 161 161 161 218 218 218 248 248 248 2 2 2 133 133 133 242 242 242 
116 116 116 82 82 82 176 176 176 108 108 108 169 169 169 158 158 158 5 5 5 192 192 192 93 93 93 171 171 171 20 20 20 150 150 150 24 24 24 107 107 107 122 122 122 52 52 52 149 149 149 131 131 131 36 36 36 234 234 234 115 115 115 107 107 107 232 232 232 89 89 89 102 102 102 146 146 146 61 61 61 12 12 12 226 226 226 42 42 42 80 80 80 5 5 5 110 110 110 219 219 219 131 131 131 182 182 182 242 242 242 84 84 84 42 42 42 134 134 134 78 78 78 171 171 171 27 27 27 167 167 167 143 143 143 14 14 14 51 51 51 63 63 63 214 214 214 22 22 22 48 48 48 83 83 83 49 49 49 193 193 193 198 198 198 168 168 168 225 225 225 52 52 52 229 229 229 133 133 133 224 224 224 110 110 110 99 99 99 35 35 35 126 126 126 63 63 63 107 107 107 250 250 250 213 213 213 151 151 151 127 127 127 128 128 128 233 233 233 121 121 121 96 96 96 61 61 61 131 131 131 181 181 181 101 101 101 83 83 83 105 105 105 201 201 201 37 37 37 180 180 180 193 193 193 94 94 94 68 68 68 69 69 69 124 124 124 140 140 140 130 130 130 229 229 229 133 133 133 52 52 52 35 35 35 116 116 116 62 62 62 24 24 24 155 155 155 0 0 0 26 26 26 50 50 50 108 108 108 32 32 32 254 254 254 19 19 19 19 19 19 143 143 143 255 255 255 209 209 209 253 253 253 31 31 31 47 47 47 2 2 2 81 81 81 216 216 216 56 56 56 157 157 157 46 46 46 219 219 219 177 177 177 168 168 168 1 1 1 215 215 215 86 86 86 136 136 136 172 172 172 20 20 20 
20 20 20 221 221 221 170 170 170 128 128 128 45 45 45 127 127 127 133 133 133 177 177 177 66 66 66 144 144 144 45 45 45 24 24 24 47 47 47 2 2 2 117 117 117 216 216 216 11 11 11 64 64 64 198 198 198 137 137 137 214 214 214 141 141 141 193 193 193 212 212 212 198 198 198 230 230 230 131 131 131 11 11 11 217 217 217 167 167 167 94 94 94 234 234 234 41 41 41 25 25 25 78 78 78 91 91 91 209 209 209 242 242 242 168 168 168 92 92 92 144 144 144 222 222 222 141 141 141 109 109 109 245 245 245 63 63 63 37 37 37 228 228 228 32 32 32 222 222 222 226 226 226 43 43 43 161 161 161 151 151 151 147 147 147 55 55 55 11 11 11 219 219 219 82 82 82 150 150 150 162 162 162 190 190 190 81 81 81 57 57 57 220 220 220 248 248 248 26 26 26 165 165 165 175 175 175 244 244 244 218 218 218 41 41 41 101 101 101 57 57 57 21 21 21 65 65 65 82 82 82 250 250 250 244 244 244 147 147 147 3 3 3 108 108 108 241 241 241 78 78 78 74 74 74 6 6 6 248 248 248 98 98 98 79 79 79 156 156 156 203 203 203 31 31 31 100 100 100 6 6 6 167 167 167 135 135 135 175 175 175 124 124 124 36 36 36 188 188 188 48 48 48 71 71 71 149 149 149 196 196 196 219 219 219 70 70 70 132 132 132 65 65 65 9 9 9 135 135 135 49 49 49 195 195 195 239 239 239 73 73 73 185 185 185 43 43 43 50 50 50 177 177 177 203 203 203 206 206 206 47 47 47 28 28 28 100 100 100 97 97 97 52 52 52 194 194 194 254 254 254 219 219 219 
183 183 183 45 45 45 34 34 34 114 114 114 157 157 157 14 14 14 253 253 253 112 112 112 47 47 47 92 92 92 54 54 54 140 140 140 86 86 86 215 215 215 216 216 216 36 36 36 147 147 147 187 187 187 5 5 5 17 17 17 208 208 208 227 227 227 12 12 12 250 250 250 192 192 192 17 17 17 61 61 61 159 159 159 109 109 109 231 231 231 102 102 102 118 118 118 23 23 23 209 209 209 84 84 84 27 27 27 181 181 181 208 208 208 132 132 132 59 59 59 74 74 74 61 61 61 74 74 74 127 127 127 32 32 32 252 252 252 96 96 96 2 2 2 144 144 144 70 70 70 26 26 26 185 185 185 246 246 246 215 215 215 51 51 51 17 17 17 251 251 251 16 16 16 130 130 130 168 168 168 126 126 126 178 178 178 60 60 60 76 76 76 51 51 51 101 101 101 80 80 80 81 81 81 83 83 83 45 45 45 185 185 185 65 65 65 91 91 91 100 100 100 48 48 48 127 127 127 135 135 135 84 84 84 85 85 85 152 152 152 53 53 53 21 21 21 189 189 189 226 226 226 113 113 113 150 150 150 158 158 158 160 160 160 46 46 46 114 114 114 18 18 18 64 64 64 92 92 92 59 59 59 254 254 254 176 176 176 189 189 189 168 168 168 76 76 76 200 200 200 169 169 169 122 122 122 103 103 103 245 245 245 130 130 130 25 25 25 216 216 216 8 8 8 125 125 125 54 54 54 216 216 216 251 251 251 97 97 97 8 8 8 181 181 181 228 228 228 85 85 85 249 249 249 14 14 14 10 10 10 52 52 52 138 138 138 209 209 209 140 140 140 112 112 112 99 99 99 161 161 161 36 36 36 
139 139 139 210 210 210 96 96 96 71 71 71 99 99 99 211 211 211 234 234 234 157 157 157 140 140 140 248 248 248 100 100 100 98 98 98 8 8 8 239 239 239 4 4 4 184 184 184 102 102 102 150 150 150 250 250 250 199 199 199 234 234 234 116 116 116 244 244 244 169 169 169 252 252 252 27 27 27 244 244 244 169 169 169 86 86 86 78 78 78 216 216 216 184 184 184 116 116 116 87 87 87 9 9 9 174 174 174 136 136 136 171 171 171 188 188 188 163 163 163 194 194 194 210 210 210 96 96 96 48 48 48 246 246 246 177 177 177 229 229 229 21 21 21 46 46 46 173 173 173 114 114 114 121 121 121 16 16 16 46 46 46 179 179 179 178 178 178 99 99 99 203 203 203 9 9 9 170 170 170 226 226 226 157 157 157 127 127 127 39 39 39 218 218 218 155 155 155 126 126 126 72 72 72 227 227 227 223 223 223 99 99 99 48 48 48 179 179 179 185 185 185 66 66 66 86 86 86 24 24 24 182 182 182 65 65 65 209 209 209 109 109 109 231 231 231 21 21 21 254 254 254 9 9 9 215 215 215 5 5 5 55 55 55 209 209 209 196 196 196 59 59 59 141 141 141 21 21 21 181 181 181 122 122 122 232 232 232 236 236 236 130 130 130 252 252 252 122 122 122 175 175 175 72 72 72 134 134 134 114 114 114 199 199 199 253 253 253 114 114 114 51 51 51 53 53 53 252 252 252 37 37 37 228 228 228 7 7 7 255 255 255 98 98 98 39 39 39 183 183 183 85 85 85 35 35 35 160 160 160 146 146 146 203 203 203 75 75 75 143 143 143 28 28 28 203 203 203 235 235 235 244 244 244 
206 206 206 129 129 129 199 199 199 235 235 235 88 88 88 66 66 66 4 4 4 179 179 179 184 184 184 150 150 150 61 61 61 37 37 37 81 81 81 202 202 202 167 167 167 16 16 16 208 208 208 6 6 6 106 106 106 209 209 209 139 139 139 10 10 10 48 48 48 20 20 20 196 196 196 192 192 192 99 99 99 245 245 245 109 109 109 176 176 176 86 86 86 112 112 112 95 95 95 210 210 210 177 177 177 187 187 187 224 224 224 125 125 125 193 193 193 236 236 236 137 137 137 92 92 92 29 29 29 172 172 172 212 212 212 206 206 206 227 227 227 187 187 187 141 141 141 150 150 150 202 202 202 252 252 252 164 164 164 94 94 94 77 77 77 138 138 138 25 25 25 5 5 5 247 247 247 97 97 97 163 163 163 49 49 49 22 22 22 40 40 40 67 67 67 228 228 228 161 161 161 159 159 159 113 113 113 169 169 169 111 111 111 27 27 27 43 43 43 193 193 193 113 113 113 186 186 186 194 194 194 53 53 53 61 61 61 117 117 117 253 253 253 76 76 76 56 56 56 152 152 152 100 100 100 41 41 41 7 7 7 41 41 41 166 166 166 219 219 219 38 38 38 181 181 181 165 165 165 249 249 249 101 101 101 19 19 19 220 220 220 189 189 189 215 215 215 87 87 87 32 32 32 121 121 121 37 37 37 222 222 222 250 250 250 78 78 78 75 75 75 87 87 87 220 220 220 181 181 181 215 215 215 77 77 77 245 245 245 232 232 232 252 252 252 137 137 137 16 16 16 157 157 157 48 48 48 253 253 253 168 168 168 229 229 229 121 121 121 19 19 19 71 71 71 3 3 3 161 161 161 152 152 152 
247 247 247 5 5 5 194 194 194 234 234 234 93 93 93 252 252 252 82 82 82 164 164 164 0 0 0 118 118 118 9 9 9 17 17 17 68 68 68 60 60 60 234 234 234 40 40 40 56 56 56 202 202 202 199 199 199 47 47 47 200 200 200 73 73 73 123 123 123 65 65 65 92 92 92 213 213 213 129 129 129 202 202 202 76 76 76 87 87 87 26 26 26 250 250 250 40 40 40 133 133 133 35 35 35 172 172 172 245 245 245 214 214 214 59 59 59 180 180 180 179 179 179 122 122 122 28 28 28 67 67 67 164 164 164 148 148 148 53 53 53 211 211 211 114 114 114 109 109 109 113 113 113 189 189 189 244 244 244 169 169 169 52 52 52 230 230 230 54 54 54 249 249 249 66 66 66 48 48 48 109 109 109 229 229 229 253 253 253 181 181 181 67 67 67 108 108 108 49 49 49 151 151 151 161 161 161 68 68 68 111 111 111 15 15 15 108 108 108 13 13 13 148 148 148 194 194 194 226 226 226 157 157 157 55 55 55 130 130 130 150 150 150 142 142 142 120 120 120 159 159 159 59 59 59 189 189 189 76 76 76 180 180 180 103 103 103 208 208 208 213 213 213 93 93 93 193 193 193 19 19 19 165 165 165 196 196 196 133 133 133 154 154 154 250 250 250 116 116 116 167 167 167 185 185 185 160 160 160 201 201 201 122 122 122 156 156 156 142 142 142 173 173 173 5 5 5 229 229 229 98 98 98 216 216 216 219 219 219 160 160 160 91 91 91 230 230 230 196 196 196 31 31 31 141 141 141 237 237 237 242 242 242 24 24 24 46 46 46 207 207 207 101 101 101 86 86 86 238 238 238 232 232 232 
199 199 199 47 47 47 134 134 134 109 109 109 182 182 182 100 100 100 106 106 106 80 80 80 113 113 113 37 37 37 99 99 99 213 213 213 75 75 75 245 245 245 155 155 155 236 236 236 222 222 222 198 198 198 24 24 24 115 115 115 253 253 253 189 189 189 145 145 145 134 134 134 227 227 227 59 59 59 220 220 220 201 201 201 136 136 136 63 63 63 249 249 249 55 55 55 203 203 203 215 215 215 144 144 144 141 141 141 139 139 139 243 243 243 56 56 56 240 240 240 224 224 224 112 112 112 38 38 38 46 46 46 91 91 91 236 236 236 105 105 105 0 0 0 36 36 36 203 203 203 120 120 120 156 156 156 187 187 187 212 212 212 94 94 94 1 1 1 11 11 11 103 103 103 38 38 38 147 147 147 236 236 236 109 109 109 112 112 112 55 55 55 121 121 121 9 9 9 17 17 17 22 22 22 247 247 247 25 25 25 99 99 99 238 238 238 47 47 47 121 121 121 148 148 148 190 190 190 240 240 240 96 96 96 193 193 193 6 6 6 135 135 135 39 39 39 78 78 78 147 147 147 72 72 72 105 105 105 42 42 42 197 197 197 81 81 81 183 183 183 16 16 16 178 178 178 138 138 138 65 65 65 46 46 46 32 32 32 198 198 198 184 184 184 169 169 169 151 151 151 45 45 45 72 72 72 183 183 183 237 237 237 121 121 121 22 22 22 129 129 129 10 10 10 97 97 97 126 126 126 117 117 117 17 17 17 22 22 22 164 164 164 219 219 219 44 44 44 210 210 210 19 19 19 226 226 226 51 51 51 20 20 20 57 57 57 142 142 142 128 128 128 140 140 140 49 49 49 209 209 209 104 104 104 
66 66 66 113 113 113 69 69 69 209 209 209 161 161 161 233 233 233 31 31 31 162 162 162 180 180 180 97 97 97 238 238 238 134 134 134 39 39 39 8 8 8 127 127 127 172 172 172 77 77 77 145 145 145 209 209 209 185 185 185 96 96 96 71 71 71 187 187 187 97 97 97 177 177 177 227 227 227 100 100 100 202 202 202 57 57 57 33 33 33 97 97 97 160 160 160 179 179 179 10 10 10 232 232 232 213 213 213 161 161 161 201 201 201 235 235 235 82 82 82 187 187 187 216 216 216 210 210 210 74 74 74 253 253 253 77 77 77 204 204 204 166 166 166 97 97 97 168 168 168 153 153 153 85 85 85 63 63 63 237 237 237 108 108 108 22 22 22 56 56 56 174 174 174 129 129 129 231 231 231 90 90 90 26 26 26 146 146 146 159 159 159 158 158 158 245 245 245 240 240 240 238 238 238 55 55 55 157 157 157 46 46 46 28 28 28 28 28 28 2 2 2 43 43 43 111 111 111 54 54 54 153 153 153 255 255 255 33 33 33 31 31 31 183 183 183 189 189 189 115 115 115 247 247 247 135 135 135 230 230 230 35 35 35 199 199 199 186 186 186 156 156 156 89 89 89 90 90 90 29 29 29 140 140 140 29 29 29 235 235 235 205 205 205 60 60 60 93 93 93 177 177 177 200 200 200 185 185 185 134 134 134 58 58 58 140 140 140 214 214 214 240 240 240 60 60 60 108 108 108 228 228 228 87 87 87 155 155 155 199 199 199 236 236 236 245 245 245 158 158 158 193 193 193 169 169 169 125 125 125 4 4 4 76 76 76 244 244 244 52 52 52 199 199 199 44 44 44 144 144 144 160 160 160 
158 158 158 165 165 165 192 192 192 151 151 151 161 161 161 213 213 213 129 129 129 91 91 91 16 16 16 23 23 23 211 211 211 158 158 158 230 230 230 85 85 85 166 166 166 136 136 136 74 74 74 109 109 109 92 92 92 122 122 122 232 232 232 98 98 98 101 101 101 44 44 44 169 169 169 157 157 157 70 70 70 23 23 23 107 107 107 205 205 205 49 49 49 111 111 111 160 160 160 216 216 216 244 244 244 61 61 61 243 243 243 205 205 205 26 26 26 126 126 126 248 248 248 0 0 0 87 87 87 140 140 140 148 148 148 219 219 219 249 249 249 10 10 10 194 194 194 178 178 178 122 122 122 37 37 37 154 154 154 191 191 191 77 77 77 169 169 169 47 47 47 92 92 92 223 223 223 72 72 72 170 170 170 232 232 232 157 157 157 148 148 148 226 226 226 71 71 71 143 143 143 84 84 84 4 4 4 203 203 203 230 230 230 221 221 221 123 123 123 57 57 57 192 192 192 12 12 12 37 37 37 249 249 249 91 91 91 176 176 176 238 238 238 182 182 182 13 13 13 145 145 145 253 253 253 175 175 175 254 254 254 123 123 123 107 107 107 108 108 108 225 225 225 54 54 54 106 106 106 136 136 136 242 242 242 34 34 34 199 199 199 153 153 153 62 62 62 119 119 119 69 69 69 10 10 10 181 181 181 239 239 239 231 231 231 200 200 200 254 254 254 38 38 38 9 9 9 246 246 246 209 209 209 212 212 212 222 222 222 116 116 116 135 135 135 41 41 41 30 30 30 99 99 99 80 80 80 93 93 93 135 135 135 56 56 56 76 76 76 132 132 132 200 200 200 73 73 73 202 202 202 25 25 25 
60 60 60 93 93 93 232 232 232 143 143 143 108 108 108 104 104 104 156 156 156 153 153 153 249 249 249 82 82 82 104 104 104 115 115 115 36 36 36 43 43 43 124 124 124 32 32 32 12 12 12 235 235 235 206 206 206 117 117 117 75 75 75 108 108 108 66 66 66 157 157 157 11 11 11 148 148 148 4 4 4 110 110 110 81 81 81 159 159 159 229 229 229 78 78 78 12 12 12 143 143 143 107 107 107 4 4 4 155 155 155 29 29 29 103 103 103 254 254 254 190 190 190 252 252 252 230 230 230 156 156 156 136 136 136 97 97 97 101 101 101 2 2 2 248 248 248 154 154 154 70 70 70 175 175 175 80 80 80 251 251 251 71 71 71 224 224 224 129 129 129 135 135 135 27 27 27 233 233 233 206 206 206 2 2 2 43 43 43 79 79 79 163 163 163 230 230 230 134 134 134 25 25 25 62 62 62 49 49 49 167 167 167 0 0 0 165 165 165 91 91 91 233 233 233 19 19 19 121 121 121 251 251 251 157 157 157 94 94 94 179 179 179 73 73 73 187 187 187 44 44 44 53 53 53 55 55 55 180 180 180 66 66 66 62 62 62 117 117 117 143 143 143 222 222 222 58 58 58 196 196 196 233 233 233 223 223 223 110 110 110 63 63 63 190 190 190 6 6 6 167 167 167 19 19 19 155 155 155 12 12 12 182 182 182 43 43 43 210 210 210 30 30 30 204 204 204 105 105 105 217 217 217 174 174 174 80 80 80 146 146 146 180 180 180 53 53 53 160 160 160 141 141 141 252 252 252 70 70 70 229 229 229 230 230 230 131 131 131 241 241 241 44 44 44 150 150 150 85 85 85 93 93 93 
88 88 88 232 232 232 29 29 29 132 132 132 74 74 74 40 40 40 244 244 244 239 239 239 87 87 87 200 200 200 11 11 11 155 155 155 81 81 81 129 129 129 141 141 141 68 68 68 148 148 148 52 52 52 178 178 178 214 214 214 227 227 227 134 134 134 112 112 112 74 74 74 78 78 78 242 242 242 169 169 169 252 252 252 28 28 28 238 238 238 118 118 118 53 53 53 159 159 159 235 235 235 204 204 204 80 80 80 249 249 249 30 30 30 68 68 68 33 33 33 201 201 201 37 37 37 118 118 118 75 75 75 218 218 218 121 121 121 184 184 184 8 8 8 42 42 42 232 232 232 171 171 171 2 2 2 197 197 197 103 103 103 15 15 15 68 68 68 196 196 196 22 22 22 30 30 30 64 64 64 130 130 130 128 128 128 53 53 53 118 118 118 88 88 88 182 182 182 85 85 85 33 33 33 40 40 40 124 124 124 152 152 152 53 53 53 90 90 90 70 70 70 192 192 192 214 214 214 15 15 15 92 92 92 254 254 254 48 48 48 158 158 158 40 40 40 133 133 133 230 230 230 71 71 71 153 153 153 128 128 128 242 242 242 17 17 17 130 130 130 124 124 124 75 75 75 139 139 139 253 253 253 74 74 74 134 134 134 24 24 24 235 235 235 130 130 130 16 16 16 22 22 22 98 98 98 4 4 4 249 249 249 213 213 213 190 190 190 171 171 171 220 220 220 172 172 172 191 191 191 218 218 218 71 71 71 226 226 226 22 22 22 59 59 59 238 238 238 50 50 50 106 106 106 108 108 108 69 69 69 124 124 124 220 220 220 119 119 119 114 114 114 20 20 20 81 81 81 250 250 250 48 48 48 
39 39 39 146 146 146 147 147 147 250 250 250 151 151 151 132 132 132 17 17 17 123 123 123 247 247 247 67 67 67 23 23 23 101 101 101 220 220 220 171 171 171 14 14 14 24 24 24 55 55 55 228 228 228 128 128 128 13 13 13 126 126 126 201 201 201 50 50 50 0 0 0 228 228 228 158 158 158 30 30 30 72 72 72 165 165 165 245 245 245 170 170 170 162 162 162 247 247 247 89 89 89 160 160 160 28 28 28 202 202 202 196 196 196 28 28 28 62 62 62 244 244 244 116 116 116 147 147 147 93 93 93 51 51 51 159 159 159 173 173 173 172 172 172 26 26 26 53 53 53 10 10 10 209 209 209 90 90 90 136 136 136 81 81 81 213 213 213 226 226 226 35 35 35 89 89 89 79 79 79 253 253 253 34 34 34 188 188 188 231 231 231 38 38 38 231 231 231 108 108 108 168 168 168 14 14 14 211 211 211 1 1 1 185 185 185 13 13 13 57 57 57 119 119 119 224 224 224 68 68 68 80 80 80 23 23 23 11 11 11 209 209 209 96 96 96 110 110 110 215 215 215 128 128 128 45 45 45 86 86 86 61 61 61 231 231 231 172 172 172 198 198 198 46 46 46 254 254 254 18 18 18 172 172 172 242 242 242 242 242 242 251 251 251 29 29 29 66 66 66 85 85 85 164 164 164 251 251 251 22 22 22 123 123 123 210 210 210 67 67 67 134 134 134 129 129 129 255 255 255 130 130 130 134 134 134 90 90 90 195 195 195 142 142 142 116 116 116 97 97 97 245 245 245 78 78 78 254 254 254 218 218 218 172 172 172 121 121 121 30 30 30 25 25 25 162 162 162 203 203 203 82 82 82 
248 248 248 60 60 60 27 27 27 100 100 100 63 63 63 210 210 210 54 54 54 109 109 109 15 15 15 5 5 5 188 188 188 82 82 82 66 66 66 184 184 184 178 178 178 45 45 45 149 149 149 20 20 20 83 83 83 14 14 14 30 30 30 92 92 92 60 60 60 5 5 5 168 168 168 20 20 20 22 22 22 33 33 33 173 173 173 54 54 54 253 253 253 222 222 222 40 40 40 16 16 16 28 28 28 165 165 165 13 13 13 32 32 32 70 70 70 182 182 182 180 180 180 199 199 199 15 15 15 161 161 161 78 78 78 59 59 59 131 131 131 130 130 130 124 124 124 219 219 219 239 239 239 187 187 187 250 250 250 59 59 59 161 161 161 255 255 255 35 35 35 98 98 98 160 160 160 5 5 5 103 103 103 88 88 88 2 2 2 185 185 185 124 124 124 109 109 109 53 53 53 107 107 107 126 126 126 112 112 112 144 144 144 10 10 10 47 47 47 208 208 208 180 180 180 137 137 137 117 117 117 19 19 19 53 53 53 17 17 17 213 213 213 108 108 108 60 60 60 118 118 118 187 187 187 141 141 141 210 210 210 41 41 41 87 87 87 249 249 249 158 158 158 209 209 209 110 110 110 21 21 21 1 1 1 107 107 107 204 204 204 124 124 124 181 181 181 168 168 168 113 113 113 71 71 71 118 118 118 41 41 41 94 94 94 38 38 38 246 246 246 174 174 174 241 241 241 48 48 48 251 251 251 101 101 101 57 57 57 135 135 135 46 46 46 116 116 116 35 35 35 85 85 85 134 134 134 193 193 193 141 141 141 101 101 101 171 171 171 41 41 41 189 189 189 223 223 223 253 253 253 10 10 10 
66 66 66 132 132 132 90 90 90 84 84 84 154 154 154 29 29 29 75 75 75 74 74 74 171 171 171 5 5 5 98 98 98 229 229 229 134 134 134 126 126 126 237 237 237 215 215 215 104 104 104 77 77 77 157 157 157 246 246 246 212 212 212 19 19 19 168 168 168 66 66 66 16 16 16 106 106 106 167 167 167 113 113 113 144 144 144 209 209 209 13 13 13 216 216 216 46 46 46 226 226 226 170 170 170 231 231 231 178 178 178 3 3 3 4 4 4 18 18 18 161 161 161 142 142 142 179 179 179 66 66 66 136 136 136 222 222 222 142 142 142 11 11 11 174 174 174 202 202 202 28 28 28 155 155 155 26 26 26 181 181 181 192 192 192 49 49 49 91 91 91 110 110 110 115 115 115 135 135 135 112 112 112 162 162 162 127 127 127 191 191 191 139 139 139 236 236 236 245 245 245 7 7 7 111 111 111 116 116 116 5 5 5 48 48 48 146 146 146 232 232 232 140 140 140 35 35 35 101 101 101 237 237 237 35 35 35 163 163 163 233 233 233 149 149 149 126 126 126 142 142 142 108 108 108 199 199 199 62 62 62 201 201 201 93 93 93 154 154 154 245 245 245 37 37 37 48 48 48 220 220 220 232 232 232 125 125 125 27 27 27 200 200 200 224 224 224 133 133 133 70 70 70 165 165 165 37 37 37 91 91 91 86 86 86 91 91 91 144 144 144 170 170 170 67 67 67 38 38 38 231 231 231 158 158 158 148 148 148 8 8 8 97 97 97 167 167 167 29 29 29 144 144 144 226 226 226 238 238 238 37 37 37 178 178 178 15 15 15 248 248 248 63 63 63 249 249 249 50 50 50 90 90 90 
226 226 226 102 102 102 255 255 255 4 4 4 84 84 84 97 97 97 250 250 250 216 216 216 35 35 35 67 67 67 146 146 146 116 116 116 57 57 57 144 144 144 212 212 212 83 83 83 102 102 102 198 198 198 104 104 104 212 212 212 248 248 248 180 180 180 140 140 140 190 190 190 107 107 107 64 64 64 244 244 244 32 32 32 182 182 182 56 56 56 51 51 51 221 221 221 164 164 164 49 49 49 242 242 242 136 136 136 1 1 1 199 199 199 215 215 215 244 244 244 101 101 101 17 17 17 92 92 92 71 71 71 24 24 24 77 77 77 63 63 63 207 207 207 30 30 30 99 99 99 133 133 133 166 166 166 15 15 15 82 82 82 212 212 212 107 107 107 29 29 29 245 245 245 171 171 171 165 165 165 90 90 90 207 207 207 248 248 248 34 34 34 31 31 31 97 97 97 86 86 86 37 37 37 39 39 39 238 238 238 105 105 105 207 207 207 37 37 37 112 112 112 189 189 189 38 38 38 193 193 193 14 14 14 158 158 158 175 175 175 101 101 101 125 125 125 244 244 244 208 208 208 72 72 72 118 118 118 230 230 230 241 241 241 207 207 207 230 230 230 14 14 14 212 212 212 137 137 137 155 155 155 63 63 63 50 50 50 104 104 104 125 125 125 55 55 55 196 196 196 208 208 208 204 204 204 37 37 37 49 49 49 96 96 96 249 249 249 52 52 52 197 197 197 200 200 200 241 241 241 240 240 240 53 53 53 132 132 132 236 236 236 216 216 216 89 89 89 81 81 81 174 174 174 22 22 22 150 150 150 28 28 28 80 80 80 240 240 240 32 32 32 252 252 252 14 14 14 55 55 55 249 249 249 
72 72 72 93 93 93 102 102 102 177 177 177 231 231 231 151 151 151 5 5 5 80 80 80 201 201 201 200 200 200 69 69 69 104 104 104 16 16 16 115 115 115 205 205 205 25 25 25 113 113 113 179 179 179 229 229 229 23 23 23 133 133 133 228 228 228 40 40 40 111 111 111 116 116 116 47 47 47 7 7 7 130 130 130 168 168 168 9 9 9 206 206 206 7 7 7 59 59 59 19 19 19 11 11 11 137 137 137 226 226 226 59 59 59 223 223 223 243 243 243 70 70 70 230 230 230 158 158 158 190 190 190 93 93 93 161 161 161 75 75 75 165 165 165 144 144 144 71 71 71 203 203 203 180 180 180 110 110 110 145 145 145 183 183 183 165 165 165 81 81 81 42 42 42 52 52 52 0 0 0 71 71 71 203 203 203 77 77 77 157 157 157 66 66 66 208 208 208 114 114 114 12 12 12 22 22 22 64 64 64 118 118 118 229 229 229 89 89 89 148 148 148 17 17 17 134 134 134 234 234 234 66 66 66 28 28 28 197 197 197 168 168 168 82 82 82 165 165 165 195 195 195 106 106 106 247 247 247 152 152 152 123 123 123 99 99 99 162 162 162 204 204 204 191 191 191 231 231 231 27 27 27 74 74 74 143 143 143 162 162 162 83 83 83 241 241 241 27 27 27 203 203 203 14 14 14 196 196 196 80 80 80 176 176 176 68 68 68 168 168 168 252 252 252 106 106 106 102 102 102 65 65 65 160 160 160 166 166 166 56 56 56 153 153 153 200 200 200 128 128 128 53 53 53 110 110 110 4 4 4 132 132 132 157 157 157 71 71 71 224 224 224 214 214 214 249 249 249 10 10 10 10 10 10 
226 226 226 179 179 179 233 233 233 137 137 137 97 97 97 4 4 4 152 152 152 125 125 125 248 248 248 64 64 64 93 93 93 61 61 61 9 9 9 102 102 102 67 67 67 213 213 213 41 41 41 240 240 240 112 112 112 227 227 227 193 193 193 245 245 245 81 81 81 216 216 216 79 79 79 45 45 45 222 222 222 243 243 243 224 224 224 171 171 171 60 60 60 112 112 112 109 109 109 156 156 156 109 109 109 129 129 129 109 109 109 176 176 176 74 74 74 243 243 243 97 97 97 113 113 113 234 234 234 88 88 88 85 85 85 118 118 118 7 7 7 96 96 96 0 0 0 179 179 179 218 218 218 239 239 239 96 96 96 181 181 181 147 147 147 187 187 187 16 16 16 46 46 46 33 33 33 13 13 13 168 168 168 173 173 173 127 127 127 77 77 77 51 51 51 53 53 53 233 233 233 161 161 161 163 163 163 180 180 180 5 5 5 193 193 193 68 68 68 16 16 16 81 81 81 145 145 145 178 178 178 70 70 70 196 196 196 61 61 61 143 143 143 128 128 128 121 121 121 64 64 64 102 102 102 27 27 27 94 94 94 20 20 20 111 111 111 161 161 161 251 251 251 165 165 165 70 70 70 201 201 201 92 92 92 82 82 82 18 18 18 110 110 110 48 48 48 183 183 183 152 152 152 231 231 231 82 82 82 7 7 7 53 53 53 210 210 210 218 218 218 181 181 181 247 247 247 164 164 164 134 134 134 79 79 79 45 45 45 71 71 71 157 157 157 227 227 227 220 220 220 207 207 207 229 229 229 22 22 22 15 15 15 59 59 59 78 78 78 26 26 26 39 39 39 194 194 194 30 30 30 4 4 4 
212 212 212 144 144 144 53 53 53 162 162 162 246 246 246 148 148 148 17 17 17 118 118 118 57 57 57 142 142 142 88 88 88 98 98 98 212 212 212 34 34 34 9 9 9 12 12 12 169 169 169 91 91 91 29 29 29 215 215 215 102 102 102 224 224 224 231 231 231 145 145 145 120 120 120 91 91 91 168 168 168 145 145 145 51 51 51 56 56 56 22 22 22 164 164 164 61 61 61 148 148 148 209 209 209 225 225 225 92 92 92 238 238 238 36 36 36 179 179 179 185 185 185 239 239 239 199 199 199 52 52 52 160 160 160 237 237 237 89 89 89 41 41 41 230 230 230 229 229 229 175 175 175 200 200 200 124 124 124 18 18 18 46 46 46 190 190 190 130 130 130 223 223 223 140 140 140 130 130 130 60 60 60 245 245 245 102 102 102 16 16 16 155 155 155 127 127 127 104 104 104 100 100 100 71 71 71 27 27 27 41 41 41 153 153 153 164 164 164 9 9 9 88 88 88 58 58 58 238 238 238 197 197 197 164 164 164 80 80 80 209 209 209 205 205 205 147 147 147 78 78 78 6 6 6 129 129 129 9 9 9 240 240 240 161 161 161 241 241 241 186 186 186 7 7 7 149 149 149 123 123 123 27 27 27 188 188 188 18 18 18 180 180 180 165 165 165 199 199 199 7 7 7 140 140 140 83 83 83 124 124 124 119 119 119 127 127 127 135 135 135 209 209 209 84 84 84 229 229 229 5 5 5 58 58 58 17 17 17 23 23 23 99 99 99 140 140 140 172 172 172 84 84 84 28 28 28 124 124 124 68 68 68 177 177 177 203 203 203 82 82 82 69 69 69 157 157 157 217 217 217 110 110 110 
75 75 75 203 203 203 56 56 56 118 118 118 2 2 2 164 164 164 100 100 100 95 95 95 142 142 142 122 122 122 17 17 17 45 45 45 239 239 239 196 196 196 194 194 194 56 56 56 184 184 184 169 169 169 221 221 221 233 233 233 1 1 1 109 109 109 240 240 240 245 245 245 143 143 143 95 95 95 205 205 205 99 99 99 157 157 157 121 121 121 193 193 193 54 54 54 213 213 213 64 64 64 212 212 212 45 45 45 223 223 223 207 207 207 196 196 196 238 238 238 172 172 172 42 42 42 87 87 87 28 28 28 122 122 122 187 187 187 169 169 169 91 91 91 42 42 42 27 27 27 194 194 194 36 36 36 19 19 19 12 12 12 228 228 228 62 62 62 197 197 197 53 53 53 163 163 163 214 214 214 177 177 177 164 164 164 216 216 216 51 51 51 19 19 19 183 183 183 201 201 201 152 152 152 208 208 208 230 230 230 219 219 219 37 37 37 155 155 155 71 71 71 1 1 1 30 30 30 219 219 219 165 165 165 194 194 194 194 194 194 147 147 147 253 253 253 220 220 220 116 116 116 157 157 157 218 218 218 5 5 5 193 193 193 87 87 87 29 29 29 138 138 138 30 30 30 53 53 53 46 46 46 120 120 120 194 194 194 244 244 244 237 237 237 54 54 54 101 101 101 177 177 177 112 112 112 249 249 249 41 41 41 197 197 197 54 54 54 79 79 79 97 97 97 196 196 196 123 123 123 99 99 99 234 234 234 194 194 194 29 29 29 128 128 128 53 53 53 165 165 165 39 39 39 182 182 182 175 175 175 92 92 92 62 62 62 231 231 231 75 75 75 2 2 2 225 225 225 234 234 234 43 43 43 
2 2 2 139 139 139 158 158 158 98 98 98 111 111 111 95 95 95 127 127 127 240 240 240 133 133 133 44 44 44 112 112 112 25 25 25 63 63 63 211 211 211 42 42 42 41 41 41 93 93 93 223 223 223 232 232 232 147 147 147 56 56 56 134 134 134 177 177 177 80 80 80 24 24 24 48 48 48 93 93 93 103 103 103 68 68 68 100 100 100 223 223 223 182 182 182 209 209 209 159 159 159 187 187 187 156 156 156 228 228 228 133 133 133 186 186 186 57 57 57 227 227 227 152 152 152 113 113 113 118 118 118 149 149 149 127 127 127 42 42 42 51 51 51 25 25 25 231 231 231 32 32 32 142 142 142 15 15 15 197 197 197 251 251 251 130 130 130 185 185 185 233 233 233 229 229 229 0 0 0 125 125 125 68 68 68 128 128 128 41 41 41 252 252 252 227 227 227 153 153 153 193 193 193 199 199 199 120 120 120 118 118 118 51 51 51 160 160 160 252 252 252 43 43 43 213 213 213 29 29 29 234 234 234 174 174 174 155 155 155 155 155 155 166 166 166 16 16 16 114 114 114 79 79 79 88 88 88 90 90 90 223 223 223 45 45 45 239 239 239 87 87 87 3 3 3 174 174 174 208 208 208 15 15 15 129 129 129 132 132 132 192 192 192 42 42 42 48 48 48 97 97 97 177 177 177 27 27 27 35 35 35 173 173 173 15 15 15 16 16 16 62 62 62 165 165 165 225 225 225 243 243 243 141 141 141 110 110 110 56 56 56 40 40 40 190 190 190 31 31 31 107 107 107 250 250 250 66 66 66 81 81 81 78 78 78 16 16 16 121 121 121 214 214 214 210 210 210 135 135 135 133 133 133 
19 19 19 41 41 41 254 254 254 62 62 62 98 98 98 28 28 28 89 89 89 21 21 21 49 49 49 61 61 61 45 45 45 141 141 141 158 158 158 197 197 197 62 62 62 239 239 239 78 78 78 79 79 79 202 202 202 36 36 36 196 196 196 234 234 234 41 41 41 71 71 71 87 87 87 4 4 4 218 218 218 235 235 235 143 143 143 27 27 27 97 97 97 100 100 100 61 61 61 248 248 248 78 78 78 62 62 62 22 22 22 171 171 171 116 116 116 100 100 100 114 114 114 165 165 165 132 132 132 221 221 221 202 202 202 104 104 104 141 141 141 233 233 233 201 201 201 82 82 82 61 61 61 67 67 67 92 92 92 194 194 194 210 210 210 90 90 90 90 90 90 211 211 211 255 255 255 43 43 43 104 104 104 144 144 144 69 69 69 161 161 161 150 150 150 88 88 88 149 149 149 14 14 14 145 145 145 37 37 37 188 188 188 91 91 91 23 23 23 113 113 113 198 198 198 14 14 14 184 184 184 86 86 86 218 218 218 242 242 242 7 7 7 242 242 242 224 224 224 74 74 74 117 117 117 216 216 216 41 41 41 246 246 246 33 33 33 111 111 111 48 48 48 194 194 194 206 206 206 21 21 21 38 38 38 8 8 8 155 155 155 39 39 39 219 219 219 150 150 150 77 77 77 130 130 130 48 48 48 217 217 217 230 230 230 195 195 195 244 244 244 154 154 154 60 60 60 59 59 59 176 176 176 157 157 157 186 186 186 205 205 205 191 191 191 209 209 209 56 56 56 77 77 77 195 195 195 205 205 205 10 10 10 180 180 180 68 68 68 24 24 24 164 164 164 106 106 106 189 189 189 132 132 132 
30 30 30 93 93 93 67 67 67 210 210 210 118 118 118 223 223 223 5 5 5 249 249 249 64 64 64 175 175 175 241 241 241 238 238 238 178 178 178 14 14 14 255 255 255 47 47 47 15 15 15 161 161 161 41 41 41 231 231 231 99 99 99 185 185 185 233 233 233 173 173 173 82 82 82 92 92 92 63 63 63 162 162 162 59 59 59 237 237 237 142 142 142 207 207 207 233 233 233 170 170 170 68 68 68 152 152 152 240 240 240 206 206 206 65 65 65 42 42 42 253 253 253 217 217 217 90 90 90 148 148 148 158 158 158 121 121 121 139 139 139 190 190 190 24 24 24 149 149 149 76 76 76 162 162 162 182 182 182 194 194 194 85 85 85 49 49 49 111 111 111 189 189 189 137 137 137 186 186 186 125 125 125 237 237 237 74 74 74 96 96 96 46 46 46 15 15 15 65 65 65 234 234 234 101 101 101 107 107 107 252 252 252 219 219 219 159 159 159 27 27 27 103 103 103 1 1 1 123 123 123 132 132 132 94 94 94 215 215 215 157 157 157 132 132 132 182 182 182 149 149 149 93 93 93 138 138 138 26 26 26 89 89 89 200 200 200 205 205 205 173 173 173 132 132 132 133 133 133 244 244 244 129 129 129 174 174 174 89 89 89 215 215 215 0 0 0 235 235 235 49 49 49 42 42 42 100 100 100 83 83 83 228 228 228 177 177 177 196 196 196 204 204 204 106 106 106 25 25 25 207 207 207 134 134 134 15 15 15 254 254 254 186 186 186 169 169 169 133 133 133 9 9 9 45 45 45 234 234 234 16 16 16 175 175 175 156 156 156 212 212 212 165 165 165 170 170 170 106 106 106 25 25 25 
56 56 56 180 180 180 6 6 6 221 221 221 132 132 132 50 50 50 89 89 89 169 169 169 195 195 195 200 200 200 194 194 194 194 194 194 38 38 38 35 35 35 227 227 227 190 190 190 236 236 236 133 133 133 125 125 125 61 61 61 210 210 210 128 128 128 169 169 169 147 147 147 154 154 154 60 60 60 121 121 121 90 90 90 85 85 85 106 106 106 154 154 154 182 182 182 176 176 176 247 247 247 174 174 174 228 228 228 250 250 250 2 2 2 82 82 82 183 183 183 246 246 246 115 115 115 141 141 141 95 95 95 134 134 134 96 96 96 95 95 95 100 100 100 88 88 88 199 199 199 46 46 46 176 176 176 184 184 184 135 135 135 39 39 39 191 191 191 135 135 135 0 0 0 248 248 248 180 180 180 80 80 80 253 253 253 252 252 252 2 2 2 210 210 210 93 93 93 10 10 10 223 223 223 136 136 136 43 43 43 0 0 0 180 180 180 198 198 198 96 96 96 218 218 218 120 120 120 27 27 27 33 33 33 37 37 37 82 82 82 13 13 13 109 109 109 90 90 90 239 239 239 189 189 189 213 213 213 4 4 4 152 152 152 59 59 59 33 33 33 129 129 129 146 146 146 158 158 158 142 142 142 150 150 150 160 160 160 89 89 89 9 9 9 44 44 44 220 220 220 113 113 113 153 153 153 99 99 99 132 132 132 95 95 95 87 87 87 176 176 176 117 117 117 140 140 140 9 9 9 109 109 109 0 0 0 206 206 206 76 76 76 160 160 160 199 199 199 227 227 227 162 162 162 36 36 36 235 235 235 170 170 170 80 80 80 188 188 188 157 157 157 78 78 78 28 28 28 22 22 22 198 198 198 
112 112 112 51 51 51 23 23 23 94 94 94 235 235 235 124 124 124 133 133 133 114 114 114 153 153 153 218 218 218 127 127 127 131 131 131 164 164 164 174 174 174 21 21 21 171 171 171 173 173 173 208 208 208 61 61 61 129 129 129 228 228 228 49 49 49 217 217 217 67 67 67 85 85 85 107 107 107 4 4 4 41 41 41 154 154 154 119 119 119 157 157 157 215 215 215 159 159 159 187 187 187 68 68 68 111 111 111 90 90 90 239 239 239 254 254 254 240 240 240 13 13 13 209 209 209 100 100 100 83 83 83 107 107 107 252 252 252 142 142 142 163 163 163 58 58 58 181 181 181 78 78 78 168 168 168 140 140 140 225 225 225 30 30 30 240 240 240 53 53 53 38 38 38 80 80 80 6 6 6 8 8 8 224 224 224 146 146 146 101 101 101 1 1 1 225 225 225 212 212 212 16 16 16 176 176 176 135 135 135 41 41 41 28 28 28 168 168 168 27 27 27 89 89 89 46 46 46 243 243 243 55 55 55 123 123 123 29 29 29 254 254 254 132 132 132 125 125 125 42 42 42 19 19 19 87 87 87 154 154 154 39 39 39 187 187 187 162 162 162 206 206 206 221 221 221 254 254 254 136 136 136 24 24 24 90 90 90 54 54 54 68 68 68 92 92 92 237 237 237 26 26 26 197 197 197 212 212 212 126 126 126 37 37 37 116 116 116 2 2 2 217 217 217 127 127 127 234 234 234 138 138 138 159 159 159 79 79 79 7 7 7 205 205 205 238 238 238 138 138 138 248 248 248 204 204 204 245 245 245 224 224 224 19 19 19 89 89 89 234 234 234 204 204 204 33 33 33 244 244 244 175 175 175 
158 158 158 199 199 199 79 79 79 19 19 19 43 43 43 30 30 30 132 132 132 95 95 95 136 136 136 79 79 79 185 185 185 241 241 241 215 215 215 253 253 253 127 127 127 18 18 18 102 102 102 226 226 226 73 73 73 213 213 213 235 235 235 176 176 176 168 168 168 160 160 160 247 247 247 202 202 202 96 96 96 148 148 148 78 78 78 235 235 235 27 27 27 138 138 138 199 199 199 212 212 212 12 12 12 211 211 211 6 6 6 228 228 228 58 58 58 203 203 203 84 84 84 14 14 14 138 138 138 79 79 79 198 198 198 225 225 225 112 112 112 39 39 39 73 73 73 33 33 33 115 115 115 185 185 185 231 231 231 27 27 27 171 171 171 61 61 61 64 64 64 90 90 90 188 188 188 51 51 51 236 236 236 3 3 3 71 71 71 126 126 126 159 159 159 253 253 253 57 57 57 186 186 186 87 87 87 45 45 45 4 4 4 100 100 100 88 88 88 14 14 14 158 158 158 166 166 166 71 71 71 99 99 99 223 223 223 244 244 244 101 101 101 75 75 75 184 184 184 155 155 155 118 118 118 137 137 137 207 207 207 10 10 10 77 77 77 93 93 93 131 131 131 123 123 123 27 27 27 66 66 66 70 70 70 155 155 155 215 215 215 67 67 67 0 0 0 135 135 135 52 52 52 247 247 247 95 95 95 244 244 244 172 172 172 160 160 160 49 49 49 168 168 168 205 205 205 80 80 80 154 154 154 171 171 171 209 209 209 156 156 156 148 148 148 169 169 169 53 53 53 159 159 159 226 226 226 229 229 229 34 34 34 191 191 191 96 96 96 17 17 17 5 5 5 85 85 85 87 87 87 205 205 205 
108 108 108 16 16 16 177 177 177 135 135 135 144 144 144 199 199 199 164 164 164 227 227 227 237 237 237 213 213 213 69 69 69 114 114 114 133 133 133 21 21 21 132 132 132 133 133 133 69 69 69 32 32 32 160 160 160 59 59 59 147 147 147 181 181 181 12 12 12 47 47 47 182 182 182 59 59 59 101 101 101 247 247 247 83 83 83 98 98 98 142 142 142 239 239 239 96 96 96 129 129 129 144 144 144 187 187 187 121 121 121 191 191 191 177 177 177 45 45 45 194 194 194 63 63 63 84 84 84 153 153 153 6 6 6 242 242 242 27 27 27 233 233 233 233 233 233 63 63 63 240 240 240 50 50 50 76 76 76 112 112 112 22 22 22 190 190 190 226 226 226 29 29 29 98 98 98 119 119 119 32 32 32 122 122 122 147 147 147 221 221 221 18 18 18 60 60 60 50 50 50 150 150 150 158 158 158 205 205 205 80 80 80 46 46 46 64 64 64 183 183 183 78 78 78 192 192 192 68 68 68 176 176 176 12 12 12 153 153 153 101 101 101 151 151 151 238 238 238 188 188 188 77 77 77 213 213 213 63 63 63 225 225 225 179 179 179 150 150 150 81 81 81 4 4 4 188 188 188 12 12 12 47 47 47 195 195 195 187 187 187 218 218 218 177 177 177 69 69 69 88 88 88 248 248 248 93 93 93 98 98 98 123 123 123 248 248 248 142 142 142 154 154 154 58 58 58 198 198 198 136 136 136 212 212 212 188 188 188 224 224 224 143 143 143 204 204 204 17 17 17 24 24 24 135 135 135 176 176 176 205 205 205 169 169 169 109 109 109 75 75 75 73 73 73 100 100 100 63 63 63 172 172 172 
10 10 10 97 97 97 196 196 196 60 60 60 46 46 46 124 124 124 23 23 23 181 181 181 35 35 35 93 93 93 74 74 74 162 162 162 164 164 164 192 192 192 158 158 158 152 152 152 44 44 44 51 51 51 171 171 171 223 223 223 24 24 24 248 248 248 106 106 106 6 6 6 9 9 9 104 104 104 6 6 6 248 248 248 14 14 14 121 121 121 238 238 238 86 86 86 228 228 228 141 141 141 66 66 66 239 239 239 139 139 139 55 55 55 195 195 195 63 63 63 110 110 110 153 153 153 41 41 41 250 250 250 121 121 121 46 46 46 144 144 144 185 185 185 197 197 197 202 202 202 100 100 100 139 139 139 221 221 221 125 125 125 83 83 83 254 254 254 141 141 141 244 244 244 25 25 25 216 216 216 139 139 139 27 27 27 147 147 147 146 146 146 138 138 138 243 243 243 44 44 44 178 178 178 191 191 191 41 41 41 99 99 99 117 117 117 93 93 93 57 57 57 227 227 227 188 188 188 126 126 126 5 5 5 142 142 142 87 87 87 36 36 36 148 148 148 51 51 51 34 34 34 118 118 118 231 231 231 168 168 168 101 101 101 30 30 30 171 171 171 84 84 84 150 150 150 230 230 230 134 134 134 104 104 104 131 131 131 232 232 232 136 136 136 68 68 68 24 24 24 82 82 82 125 125 125 87 87 87 237 237 237 91 91 91 171 171 171 67 67 67 214 214 214 26 26 26 232 232 232 42 42 42 233 233 233 139 139 139 152 152 152 67 67 67 52 52 52 155 155 155 102 102 102 217 217 217 153 153 153 220 220 220 19 19 19 2 2 2 155 155 155 53 53 53 106 106 106 189 189 189 54 54 54 
224 224 224 212 212 212 78 78 78 109 109 109 130 130 130 47 47 47 49 49 49 41 41 41 144 144 144 17 17 17 244 244 244 45 45 45 88 88 88 116 116 116 108 108 108 219 219 219 179 179 179 105 105 105 179 179 179 220 220 220 218 218 218 54 54 54 110 110 110 6 6 6 204 204 204 199 199 199 167 167 167 112 112 112 141 141 141 143 143 143 225 225 225 125 125 125 132 132 132 2 2 2 122 122 122 87 87 87 141 141 141 153 153 153 174 174 174 85 85 85 144 144 144 178 178 178 52 52 52 83 83 83 97 97 97 16 16 16 6 6 6 52 52 52 103 103 103 239 239 239 102 102 102 2 2 2 101 101 101 199 199 199 114 114 114 242 242 242 255 255 255 42 42 42 144 144 144 52 52 52 25 25 25 224 224 224 129 129 129 61 61 61 253 253 253 245 245 245 216 216 216 74 74 74 190 190 190 145 145 145 63 63 63 163 163 163 59 59 59 70 70 70 56 56 56 115 115 115 213 213 213 123 123 123 246 246 246 50 50 50 222 222 222 103 103 103 20 20 20 8 8 8 4 4 4 118 118 118 34 34 34 190 190 190 142 142 142 226 226 226 58 58 58 149 149 149 176 176 176 163 163 163 123 123 123 120 120 120 210 210 210 121 121 121 71 71 71 225 225 225 34 34 34 207 207 207 109 109 109 209 209 209 149 149 149 132 132 132 148 148 148 240 240 240 79 79 79 161 161 161 216 216 216 52 52 52 13 13 13 241 241 241 54 54 54 136 136 136 123 123 123 22 22 22 36 36 36 154 154 154 228 228 228 173 173 173 104 104 104 77 77 77 37 37 37 129 129 129 209 209 209 170 170 170 
1 1 1 249 249 249 101 101 101 151 151 151 72 72 72 218 218 218 73 73 73 169 169 169 139 139 139 84 84 84 239 239 239 99 99 99 227 227 227 231 231 231 170 170 170 166 166 166 82 82 82 238 238 238 238 238 238 10 10 10 240 240 240 133 133 133 108 108 108 253 253 253 109 109 109 73 73 73 182 182 182 247 247 247 223 223 223 91 91 91 170 170 170 239 239 239 48 48 48 81 81 81 175 175 175 74 74 74 152 152 152 155 155 155 39 39 39 103 103 103 227 227 227 26 26 26 89 89 89 104 104 104 138 138 138 240 240 240 246 246 246 229 229 229 42 42 42 242 242 242 28 28 28 118 118 118 210 210 210 172 172 172 251 251 251 87 87 87 176 176 176 59 59 59 209 209 209 104 104 104 181 181 181 9 9 9 220 220 220 136 136 136 1 1 1 2 2 2 158 158 158 172 172 172 198 198 198 195 195 195 59 59 59 33 33 33 57 57 57 228 228 228 155 155 155 63 63 63 199 199 199 182 182 182 22 22 22 87 87 87 219 219 219 15 15 15 94 94 94 62 62 62 39 39 39 156 156 156 165 165 165 139 139 139 14 14 14 145 145 145 254 254 254 201 201 201 217 217 217 32 32 32 209 209 209 214 214 214 200 200 200 73 73 73 184 184 184 128 128 128 44 44 44 32 32 32 55 55 55 0 0 0 4 4 4 187 187 187 86 86 86 35 35 35 117 117 117 90 90 90 163 163 163 138 138 138 241 241 241 254 254 254 247 247 247 251 251 251 193 193 193 237 237 237 204 204 204 36 36 36 145 145 145 144 144 144 161 161 161 36 36 36 194 194 194 110 110 110 166 166 166 237 237 237 
142 142 142 97 97 97 60 60 60 23 23 23 248 248 248 123 123 123 229 229 229 125 125 125 130 130 130 250 250 250 39 39 39 194 194 194 111 111 111 45 45 45 51 51 51 159 159 159 197 197 197 231 231 231 113 113 113 247 247 247 47 47 47 74 74 74 197 197 197 182 182 182 241 241 241 230 230 230 161 161 161 65 65 65 180 180 180 12 12 12 119 119 119 100 100 100 233 233 233 86 86 86 221 221 221 209 209 209 230 230 230 51 51 51 201 201 201 131 131 131 221 221 221 199 199 199 103 103 103 242 242 242 73 73 73 212 212 212 208 208 208 3 3 3 7 7 7 18 18 18 244 244 244 160 160 160 170 170 170 41 41 41 106 106 106 158 158 158 129 129 129 149 149 149 87 87 87 158 158 158 59 59 59 178 178 178 239 239 239 244 244 244 152 152 152 220 220 220 233 233 233 247 247 247 32 32 32 240 240 240 33 33 33 71 71 71 15 15 15 234 234 234 188 188 188 126 126 126 177 177 177 148 148 148 197 197 197 236 236 236 3 3 3 223 223 223 101 101 101 183 183 183 250 250 250 119 119 119 159 159 159 205 205 205 51 51 51 40 40 40 23 23 23 26 26 26 214 214 214 79 79 79 134 134 134 13 13 13 195 195 195 126 126 126 43 43 43 62 62 62 42 42 42 64 64 64 143 143 143 158 158 158 71 71 71 158 158 158 114 114 114 204 204 204 89 89 89 177 177 177 243 243 243 10 10 10 6 6 6 179 179 179 68 68 68 106 106 106 190 190 190 133 133 133 170 170 170 240 240 240 40 40 40 72 72 72 143 143 143 67 67 67 190 190 190 177 177 177 161 161 161 242 242 242 
198 198 198 69 69 69 255 255 255 233 233 233 224 224 224 146 146 146 39 39 39 99 99 99 44 44 44 180 180 180 111 111 111 129 129 129 92 92 92 142 142 142 99 99 99 201 201 201 192 192 192 95 95 95 239 239 239 52 52 52 6 6 6 150 150 150 109 109 109 19 19 19 7 7 7 211 211 211 137 137 137 140 140 140 87 87 87 33 33 33 130 130 130 90 90 90 86 86 86 170 170 170 95 95 95 243 243 243 32 32 32 2 2 2 142 142 142 180 180 180 91 91 91 222 222 222 169 169 169 201 201 201 42 42 42 87 87 87 51 51 51 156 156 156 147 147 147 62 62 62 25 25 25 248 248 248 102 102 102 204 204 204 27 27 27 176 176 176 228 228 228 25 25 25 39 39 39 235 235 235 234 234 234 58 58 58 19 19 19 7 7 7 238 238 238 78 78 78 238 238 238 131 131 131 204 204 204 190 190 190 192 192 192 184 184 184 110 110 110 1 1 1 37 37 37 86 86 86 98 98 98 19 19 19 44 44 44 3 3 3 153 153 153 131 131 131 147 147 147 48 48 48 20 20 20 204 204 204 34 34 34 107 107 107 112 112 112 241 241 241 16 16 16 17 17 17 162 162 162 161 161 161 244 244 244 15 15 15 254 254 254 70 70 70 214 214 214 188 188 188 145 145 145 15 15 15 179 179 179 109 109 109 31 31 31 115 115 115 61 61 61 86 86 86 97 97 97 153 153 153 245 245 245 227 227 227 229 229 229 20 20 20 203 203 203 201 201 201 144 144 144 235 235 235 112 112 112 71 71 71 135 135 135 197 197 197 167 167 167 188 188 188 107 107 107 53 53 53 238 238 238 217 217 217 
150 150 150 158 158 158 195 195 195 4 4 4 227 227 227 211 211 211 176 176 176 236 236 236 229 229 229 47 47 47 2 2 2 63 63 63 178 178 178 246 246 246 14 14 14 11 11 11 247 247 247 210 210 210 26 26 26 251 251 251 192 192 192 3 3 3 187 187 187 88 88 88 74 74 74 217 217 217 114 114 114 25 25 25 66 66 66 223 223 223 16 16 16 109 109 109 178 178 178 82 82 82 134 134 134 79 79 79 123 123 123 197 197 197 177 177 177 117 117 117 58 58 58 97 97 97 198 198 198 194 194 194 17 17 17 76 76 76 146 146 146 211 211 211 52 52 52 57 57 57 151 151 151 103 103 103 248 248 248 106 106 106 76 76 76 71 71 71 148 148 148 81 81 81 176 176 176 206 206 206 54 54 54 46 46 46 244 244 244 3 3 3 182 182 182 151 151 151 130 130 130 33 33 33 58 58 58 52 52 52 191 191 191 45 45 45 59 59 59 101 101 101 27 27 27 64 64 64 195 195 195 4 4 4 162 162 162 74 74 74 196 196 196 119 119 119 77 77 77 83 83 83 41 41 41 90 90 90 131 131 131 160 160 160 228 228 228 146 146 146 62 62 62 72 72 72 89 89 89 226 226 226 231 231 231 212 212 212 78 78 78 199 199 199 51 51 51 187 187 187 193 193 193 66 66 66 101 101 101 200 200 200 187 187 187 61 61 61 131 131 131 72 72 72 222 222 222 114 114 114 153 153 153 250 250 250 169 169 169 203 203 203 40 40 40 19 19 19 41 41 41 191 191 191 16 16 16 41 41 41 64 64 64 62 62 62 246 246 246 192 192 192 75 75 75 154 154 154 59 59 59 225 225 225 
67 67 67 244 244 244 108 108 108 248 248 248 174 174 174 235 235 235 68 68 68 141 141 141 9 9 9 122 122 122 151 151 151 249 249 249 178 178 178 193 193 193 111 111 111 23 23 23 137 137 137 143 143 143 139 139 139 66 66 66 200 200 200 202 202 202 162 162 162 24 24 24 187 187 187 253 253 253 196 196 196 244 244 244 68 68 68 179 179 179 4 4 4 83 83 83 252 252 252 135 135 135 241 241 241 189 189 189 120 120 120 80 80 80 65 65 65 132 132 132 231 231 231 91 91 91 218 218 218 35 35 35 229 229 229 29 29 29 25 25 25 201 201 201 209 209 209 118 118 118 26 26 26 142 142 142 213 213 213 93 93 93 87 87 87 173 173 173 194 194 194 52 52 52 117 117 117 73 73 73 58 58 58 115 115 115 96 96 96 174 174 174 88 88 88 168 168 168 69 69 69 140 140 140 26 26 26 213 213 213 42 42 42 84 84 84 203 203 203 253 253 253 243 243 243 155 155 155 207 207 207 209 209 209 15 15 15 162 162 162 138 138 138 169 169 169 24 24 24 111 111 111 38 38 38 128 128 128 149 149 149 181 181 181 60 60 60 84 84 84 31 31 31 160 160 160 80 80 80 244 244 244 247 247 247 32 32 32 124 124 124 166 166 166 79 79 79 98 98 98 38 38 38 64 64 64 249 249 249 155 155 155 243 243 243 8 8 8 125 125 125 185 185 185 199 199 199 255 255 255 60 60 60 27 27 27 121 121 121 116 116 116 178 178 178 118 118 118 103 103 103 60 60 60 19 19 19 164 164 164 17 17 17 122 122 122 132 132 132 4 4 4 104 104 104 84 84 84 79 79 79 231 231 231 
243 243 243 217 217 217 19 19 19 205 205 205 49 49 49 95 95 95 164 164 164 26 26 26 93 93 93 192 192 192 57 57 57 162 162 162 68 68 68 81 81 81 81 81 81 125 125 125 211 211 211 185 185 185 148 148 148 202 202 202 209 209 209 187 187 187 166 166 166 23 23 23 209 209 209 48 48 48 209 209 209 28 28 28 216 216 216 23 23 23 64 64 64 20 20 20 157 157 157 29 29 29 180 180 180 17 17 17 123 123 123 127 127 127 30 30 30 86 86 86 46 46 46 181 181 181 138 138 138 59 59 59 41 41 41 232 232 232 202 202 202 77 77 77 39 39 39 211 211 211 74 74 74 130 130 130 182 182 182 56 56 56 230 230 230 198 198 198 246 246 246 133 133 133 83 83 83 107 107 107 163 163 163 251 251 251 138 138 138 186 186 186 184 184 184 62 62 62 113 113 113 95 95 95 93 93 93 187 187 187 76 76 76 87 87 87 150 150 150 232 232 232 58 58 58 173 173 173 226 226 226 184 184 184 199 199 199 205 205 205 56 56 56 85 85 85 42 42 42 1 1 1 200 200 200 169 169 169 22 22 22 69 69 69 124 124 124 67 67 67 205 205 205 251 251 251 43 43 43 195 195 195 209 209 209 229 229 229 26 26 26 9 9 9 140 140 140 204 204 204 165 165 165 73 73 73 21 21 21 188 188 188 240 240 240 209 209 209 126 126 126 8 8 8 60 60 60 165 165 165 41 41 41 110 110 110 75 75 75 68 68 68 29 29 29 96 96 96 113 113 113 214 214 214 236 236 236 6 6 6 187 187 187 235 235 235 205 205 205 233 233 233 67 67 67 117 117 117 149 149 149 8 8 8 
122 122 122 23 23 23 209 209 209 9 9 9 113 113 113 6 6 6 175 175 175 132 132 132 130 130 130 176 176 176 30 30 30 233 233 233 10 10 10 58 58 58 153 153 153 112 112 112 179 179 179 186 186 186 176 176 176 0 0 0 252 252 252 180 180 180 219 219 219 44 44 44 197 197 197 110 110 110 20 20 20 135 135 135 207 207 207 231 231 231 239 239 239 222 222 222 102 102 102 80 80 80 24 24 24 79 79 79 98 98 98 255 255 255 173 173 173 91 91 91 108 108 108 39 39 39 33 33 33 27 27 27 173 173 173 11 11 11 37 37 37 225 225 225 208 208 208 131 131 131 136 136 136 127 127 127 67 67 67 14 14 14 179 179 179 86 86 86 201 201 201 226 226 226 163 163 163 120 120 120 175 175 175 165 165 165 16 16 16 153 153 153 27 27 27 106 106 106 19 19 19 94 94 94 128 128 128 245 245 245 5 5 5 143 143 143 220 220 220 12 12 12 77 77 77 115 115 115 159 159 159 30 30 30 110 110 110 254 254 254 93 93 93 140 140 140 130 130 130 149 149 149 80 80 80 98 98 98 52 52 52 4 4 4 10 10 10 89 89 89 203 203 203 71 71 71 96 96 96 233 233 233 138 138 138 163 163 163 218 218 218 118 118 118 27 27 27 75 75 75 129 129 129 25 25 25 83 83 83 168 168 168 162 162 162 185 185 185 135 135 135 85 85 85 203 203 203 255 255 255 240 240 240 140 140 140 234 234 234 48 48 48 128 128 128 87 87 87 158 158 158 119 119 119 27 27 27 143 143 143 117 117 117 81 81 81 114 114 114 43 43 43 250 250 250 207 207 207 83 83 83 187 187 187 
12 12 12 60 60 60 120 120 120 255 255 255 68 68 68 248 248 248 190 190 190 130 130 130 151 151 151 177 177 177 133 133 133 42 42 42 165 165 165 122 122 122 188 188 188 122 122 122 40 40 40 59 59 59 66 66 66 158 158 158 176 176 176 222 222 222 201 201 201 142 142 142 210 210 210 129 129 129 174 174 174 240 240 240 25 25 25 189 189 189 18 18 18 18 18 18 73 73 73 208 208 208 159 159 159 225 225 225 108 108 108 116 116 116 177 177 177 55 55 55 165 165 165 31 31 31 233 233 233 104 104 104 219 219 219 125 125 125 235 235 235 233 233 233 254 254 254 234 234 234 104 104 104 75 75 75 97 97 97 130 130 130 118 118 118 75 75 75 98 98 98 185 185 185 212 212 212 28 28 28 132 132 132 150 150 150 83 83 83 15 15 15 77 77 77 81 81 81 93 93 93 207 207 207 163 163 163 17 17 17 64 64 64 69 69 69 246 246 246 255 255 255 112 112 112 100 100 100 245 245 245 141 141 141 217 217 217 40 40 40 88 88 88 102 102 102 221 221 221 247 247 247 212 212 212 247 247 247 112 112 112 254 254 254 50 50 50 128 128 128 34 34 34 245 245 245 5 5 5 213 213 213 88 88 88 128 128 128 178 178 178 144 144 144 72 72 72 197 197 197 46 46 46 124 124 124 220 220 220 5 5 5 31 31 31 154 154 154 195 195 195 235 235 235 217 217 217 133 133 133 1 1 1 172 172 172 114 114 114 128 128 128 215 215 215 188 188 188 113 113 113 128 128 128 43 43 43 28 28 28 174 174 174 193 193 193 213 213 213 69 69 69 160 160 160 226 226 226 4 4 4 39 39 39 
197 197 197 145 145 145 150 150 150 72 72 72 146 146 146 255 255 255 180 180 180 120 120 120 165 165 165 120 120 120 113 113 113 73 73 73 111 111 111 144 144 144 34 34 34 153 153 153 21 21 21 17 17 17 24 24 24 137 137 137 152 152 152 201 201 201 238 238 238 120 120 120 80 80 80 69 69 69 234 234 234 99 99 99 164 164 164 21 21 21 179 179 179 103 103 103 0 0 0 43 43 43 66 66 66 103 103 103 100 100 100 114 114 114 40 40 40 221 221 221 79 79 79 128 128 128 237 237 237 2 2 2 218 218 218 221 221 221 78 78 78 25 25 25 53 53 53 247 247 247 165 165 165 36 36 36 220 220 220 158 158 158 190 190 190 22 22 22 242 242 242 50 50 50 217 217 217 62 62 62 161 161 161 61 61 61 34 34 34 132 132 132 77 77 77 65 65 65 94 94 94 116 116 116 58 58 58 44 44 44 204 204 204 55 55 55 159 159 159 178 178 178 12 12 12 130 130 130 231 231 231 101 101 101 251 251 251 43 43 43 128 128 128 172 172 172 54 54 54 221 221 221 68 68 68 151 151 151 170 170 170 160 160 160 147 147 147 208 208 208 51 51 51 112 112 112 223 223 223 106 106 106 198 198 198 15 15 15 255 255 255 174 174 174 63 63 63 113 113 113 196 196 196 4 4 4 159 159 159 10 10 10 189 189 189 55 55 55 183 183 183 31 31 31 87 87 87 133 133 133 20 20 20 177 177 177 115 115 115 229 229 229 22 22 22 216 216 216 147 147 147 82 82 82 79 79 79 31 31 31 167 167 167 129 129 129 67 67 67 167 167 167 198 198 198 81 81 81 124 124 124 112 112 112 
109 109 109 178 178 178 17 17 17 253 253 253 47 47 47 244 244 244 212 212 212 18 18 18 152 152 152 10 10 10 43 43 43 220 220 220 129 129 129 190 190 190 142 142 142 190 190 190 210 210 210 19 19 19 24 24 24 248 248 248 136 136 136 123 123 123 193 193 193 86 86 86 117 117 117 147 147 147 165 165 165 206 206 206 168 168 168 179 179 179 74 74 74 153 153 153 196 196 196 104 104 104 23 23 23 11 11 11 139 139 139 92 92 92 221 221 221 133 133 133 10 10 10 245 245 245 65 65 65 231 231 231 23 23 23 58 58 58 4 4 4 155 155 155 113 113 113 93 93 93 119 119 119 130 130 130 182 182 182 80 80 80 181 181 181 105 105 105 20 20 20 151 151 151 248 248 248 124 124 124 10 10 10 33 33 33 219 219 219 79 79 79 154 154 154 118 118 118 111 111 111 25 25 25 143 143 143 198 198 198 179 179 179 250 250 250 133 133 133 105 105 105 2 2 2 209 209 209 82 82 82 10 10 10 19 19 19 143 143 143 7 7 7 175 175 175 239 239 239 11 11 11 3 3 3 118 118 118 252 252 252 83 83 83 105 105 105 200 200 200 192 192 192 131 131 131 221 221 221 188 188 188 183 183 183 77 77 77 34 34 34 37 37 37 11 11 11 207 207 207 81 81 81 118 118 118 51 51 51 191 191 191 191 191 191 139 139 139 144 144 144 85 85 85 56 56 56 40 40 40 188 188 188 253 253 253 91 91 91 137 137 137 141 141 141 83 83 83 159 159 159 76 76 76 108 108 108 1 1 1 105 105 105 132 132 132 206 206 206 49 49 49 167 167 167 181 181 181 118 118 118 246 246 246 
106 106 106 240 240 240 140 140 140 118 118 118 15 15 15 164 164 164 236 236 236 70 70 70 225 225 225 214 214 214 149 149 149 186 186 186 2 2 2 183 183 183 165 165 165 127 127 127 49 49 49 97 97 97 122 122 122 32 32 32 213 213 213 201 201 201 3 3 3 46 46 46 212 212 212 98 98 98 230 230 230 48 48 48 117 117 117 171 171 171 173 173 173 43 43 43 36 36 36 84 84 84 196 196 196 50 50 50 69 69 69 62 62 62 141 141 141 195 195 195 44 44 44 22 22 22 89 89 89 2 2 2 107 107 107 20 20 20 0 0 0 192 192 192 165 165 165 252 252 252 96 96 96 56 56 56 226 226 226 220 220 220 58 58 58 89 89 89 6 6 6 43 43 43 79 79 79 135 135 135 78 78 78 206 206 206 93 93 93 232 232 232 12 12 12 199 199 199 151 151 151 44 44 44 191 191 191 244 244 244 208 208 208 212 212 212 96 96 96 36 36 36 41 41 41 255 255 255 61 61 61 76 76 76 18 18 18 112 112 112 160 160 160 43 43 43 132 132 132 162 162 162 23 23 23 190 190 190 153 153 153 80 80 80 87 87 87 139 139 139 28 28 28 104 104 104 225 225 225 161 161 161 249 249 249 164 164 164 215 215 215 107 107 107 239 239 239 81 81 81 19 19 19 158 158 158 191 191 191 219 219 219 41 41 41 210 210 210 155 155 155 160 160 160 106 106 106 159 159 159 188 188 188 149 149 149 159 159 159 236 236 236 148 148 148 140 140 140 73 73 73 141 141 141 166 166 166 50 50 50 72 72 72 55 55 55 164 164 164 224 224 224 192 192 192 88 88 88 104 104 104 131 131 131 
119 119 119 200 200 200 65 65 65 235 235 235 195 195 195 206 206 206 134 134 134 23 23 23 126 126 126 246 246 246 133 133 133 234 234 234 203 203 203 16 16 16 38 38 38 100 100 100 102 102 102 146 146 146 222 222 222 146 146 146 198 198 198 107 107 107 14 14 14 183 183 183 64 64 64 45 45 45 7 7 7 209 209 209 130 130 130 122 122 122 194 194 194 103 103 103 171 171 171 33 33 33 175 175 175 90 90 90 246 246 246 46 46 46 186 186 186 22 22 22 73 73 73 188 188 188 176 176 176 168 168 168 32 32 32 222 222 222 88 88 88 153 153 153 198 198 198 22 22 22 196 196 196 144 144 144 0 0 0 248 248 248 236 236 236 42 42 42 224 224 224 100 100 100 88 88 88 95 95 95 141 141 141 84 84 84 171 171 171 50 50 50 187 187 187 152 152 152 181 181 181 246 246 246 27 27 27 10 10 10 175 175 175 50 50 50 220 220 220 109 109 109 47 47 47 128 128 128 98 98 98 231 231 231 113 113 113 55 55 55 249 249 249 119 119 119 192 192 192 180 180 180 102 102 102 147 147 147 246 246 246 145 145 145 28 28 28 180 180 180 203 203 203 196 196 196 187 187 187 64 64 64 92 92 92 125 125 125 98 98 98 175 175 175 136 136 136 40 40 40 52 52 52 59 59 59 84 84 84 201 201 201 54 54 54 142 142 142 180 180 180 51 51 51 139 139 139 160 160 160 80 80 80 156 156 156 235 235 235 78 78 78 25 25 25 52 52 52 76 76 76 30 30 30 68 68 68 35 35 35 78 78 78 152 152 152 221 221 221 159 159 159 20 20 20 94 94 94 149 149 149 75 75 75 
58 58 58 22 22 22 249 249 249 126 126 126 110 110 110 4 4 4 9 9 9 76 76 76 10 10 10 153 153 153 183 183 183 238 238 238 125 125 125 148 148 148 23 23 23 88 88 88 216 216 216 60 60 60 69 69 69 184 184 184 60 60 60 24 24 24 53 53 53 34 34 34 82 82 82 145 145 145 95 95 95 153 153 153 214 214 214 145 145 145 48 48 48 70 70 70 240 240 240 47 47 47 46 46 46 171 171 171 42 42 42 124 124 124 25 25 25 81 81 81 64 64 64 81 81 81 105 105 105 112 112 112 151 151 151 14 14 14 62 62 62 178 178 178 27 27 27 119 119 119 112 112 112 59 59 59 107 107 107 139 139 139 200 200 200 172 172 172 245 245 245 137 137 137 166 166 166 7 7 7 94 94 94 139 139 139 58 58 58 4 4 4 233 233 233 166 166 166 39 39 39 40 40 40 45 45 45 78 78 78 231 231 231 229 229 229 90 90 90 70 70 70 251 251 251 197 197 197 53 53 53 254 254 254 46 46 46 116 116 116 173 173 173 0 0 0 220 220 220 93 93 93 0 0 0 187 187 187 230 230 230 161 161 161 174 174 174 251 251 251 92 92 92 209 209 209 152 152 152 50 50 50 37 37 37 93 93 93 65 65 65 158 158 158 62 62 62 229 229 229 89 89 89 240 240 240 188 188 188 88 88 88 239 239 239 62 62 62 242 242 242 18 18 18 189 189 189 209 209 209 154 154 154 18 18 18 43 43 43 106 106 106 249 249 249 94 94 94 120 120 120 230 230 230 238 238 238 16 16 16 191 191 191 132 132 132 124 124 124 164 164 164 184 184 184 36 36 36 30 30 30 47 47 47 
80 80 80 83 83 83 36 36 36 13 13 13 92 92 92 105 105 105 197 197 197 238 238 238 77 77 77 50 50 50 155 155 155 115 115 115 23 23 23 253 253 253 128 128 128 251 251 251 255 255 255 251 251 251 229 229 229 97 97 97 44 44 44 168 168 168 250 250 250 148 148 148 242 242 242 157 157 157 185 185 185 194 194 194 140 140 140 229 229 229 176 176 176 82 82 82 52 52 52 156 156 156 125 125 125 96 96 96 180 180 180 181 181 181 169 169 169 39 39 39 234 234 234 225 225 225 59 59 59 106 106 106 25 25 25 214 214 214 40 40 40 139 139 139 207 207 207 97 97 97 186 186 186 30 30 30 14 14 14 71 71 71 68 68 68 208 208 208 9 9 9 148 148 148 70 70 70 184 184 184 117 117 117 55 55 55 106 106 106 184 184 184 140 140 140 150 150 150 214 214 214 76 76 76 206 206 206 207 207 207 19 19 19 250 250 250 146 146 146 85 85 85 141 141 141 14 14 14 92 92 92 248 248 248 82 82 82 215 215 215 43 43 43 96 96 96 26 26 26 250 250 250 147 147 147 98 98 98 213 213 213 184 184 184 101 101 101 111 111 111 89 89 89 226 226 226 16 16 16 64 64 64 226 226 226 145 145 145 146 146 146 116 116 116 247 247 247 35 35 35 35 35 35 85 85 85 59 59 59 225 225 225 105 105 105 124 124 124 115 115 115 105 105 105 209 209 209 18 18 18 197 197 197 218 218 218 69 69 69 105 105 105 149 149 149 125 125 125 43 43 43 12 12 12 80 80 80 11 11 11 102 102 102 214 214 214 106 106 106 118 118 118 114 114 114 170 170 170 112 112 112 95 95 95 
7 7 7 125 125 125 135 135 135 211 211 211 27 27 27 178 178 178 28 28 28 239 239 239 142 142 142 216 216 216 36 36 36 76 76 76 143 143 143 47 47 47 187 187 187 246 246 246 189 189 189 57 57 57 178 178 178 104 104 104 207 207 207 24 24 24 193 193 193 218 218 218 165 165 165 233 233 233 112 112 112 90 90 90 86 86 86 138 138 138 58 58 58 168 168 168 155 155 155 14 14 14 222 222 222 42 42 42 217 217 217 211 211 211 98 98 98 35 35 35 233 233 233 218 218 218 33 33 33 15 15 15 228 228 228 50 50 50 237 237 237 151 151 151 2 2 2 115 115 115 1 1 1 105 105 105 188 188 188 195 195 195 21 21 21 239 239 239 193 193 193 124 124 124 220 220 220 120 120 120 118 118 118 115 115 115 72 72 72 204 204 204 119 119 119 127 127 127 47 47 47 118 118 118 183 183 183 139 139 139 247 247 247 118 118 118 63 63 63 1 1 1 241 241 241 248 248 248 34 34 34 220 220 220 129 129 129 98 98 98 42 42 42 226 226 226 59 59 59 71 71 71 170 170 170 2 2 2 62 62 62 239 239 239 72 72 72 250 250 250 196 196 196 59 59 59 22 22 22 183 183 183 245 245 245 24 24 24 215 215 215 63 63 63 83 83 83 199 199 199 201 201 201 249 249 249 4 4 4 84 84 84 68 68 68 68 68 68 147 147 147 183 183 183 165 165 165 204 204 204 62 62 62 239 239 239 63 63 63 125 125 125 142 142 142 190 190 190 135 135 135 206 206 206 172 172 172 98 98 98 211 211 211 204 204 204 227 227 227 166 166 166 254 254 254 71 71 71 134 134 134 255 255 255 
171 171 171 53 53 53 94 94 94 3 3 3 9 9 9 195 195 195 70 70 70 193 193 193 130 130 130 3 3 3 230 230 230 204 204 204 230 230 230 115 115 115 172 172 172 112 112 112 165 165 165 251 251 251 234 234 234 221 221 221 194 194 194 107 107 107 50 50 50 161 161 161 67 67 67 231 231 231 11 11 11 39 39 39 15 15 15 6 6 6 206 206 206 4 4 4 172 172 172 243 243 243 106 106 106 133 133 133 149 149 149 181 181 181 105 105 105 58 58 58 153 153 153 252 252 252 114 114 114 87 87 87 30 30 30 70 70 70 244 244 244 138 138 138 195 195 195 253 253 253 242 242 242 126 126 126 87 87 87 10 10 10 201 201 201 21 21 21 58 58 58 8 8 8 197 197 197 66 66 66 132 132 132 181 181 181 121 121 121 148 148 148 137 137 137 2 2 2 57 57 57 73 73 73 172 172 172 116 116 116 163 163 163 231 231 231 247 247 247 43 43 43 62 62 62 82 82 82 4 4 4 90 90 90 157 157 157 206 206 206 130 130 130 227 227 227 253 253 253 234 234 234 108 108 108 90 90 90 55 55 55 218 218 218 32 32 32 200 200 200 99 99 99 108 108 108 226 226 226 48 48 48 19 19 19 104 104 104 171 171 171 190 190 190 144 144 144 142 142 142 16 16 16 203 203 203 132 132 132 46 46 46 160 160 160 169 169 169 217 217 217 218 218 218 241 241 241 104 104 104 72 72 72 145 145 145 83 83 83 132 132 132 207 207 207 182 182 182 135 135 135 179 179 179 241 241 241 184 184 184 51 51 51 2 2 2 4 4 4 206 206 206 117 117 117 22 22 22 31 31 31 217 217 217 
31 31 31 164 164 164 191 191 191 2 2 2 178 178 178 227 227 227 140 140 140 52 52 52 221 221 221 45 45 45 136 136 136 71 71 71 240 240 240 3 3 3 92 92 92 251 251 251 149 149 149 90 90 90 56 56 56 56 56 56 170 170 170 232 232 232 90 90 90 24 24 24 133 133 133 174 174 174 169 169 169 246 246 246 95 95 95 239 239 239 148 148 148 118 118 118 182 182 182 36 36 36 120 120 120 101 101 101 121 121 121 141 141 141 6 6 6 252 252 252 145 145 145 222 222 222 124 124 124 220 220 220 91 91 91 30 30 30 251 251 251 88 88 88 206 206 206 16 16 16 182 182 182 189 189 189 67 67 67 90 90 90 201 201 201 37 37 37 1 1 1 86 86 86 233 233 233 215 215 215 160 160 160 235 235 235 29 29 29 159 159 159 141 141 141 221 221 221 109 109 109 53 53 53 191 191 191 99 99 99 183 183 183 206 206 206 160 160 160 101 101 101 245 245 245 63 63 63 226 226 226 10 10 10 217 217 217 231 231 231 96 96 96 142 142 142 60 60 60 133 133 133 79 79 79 119 119 119 123 123 123 205 205 205 76 76 76 134 134 134 198 198 198 154 154 154 141 141 141 73 73 73 48 48 48 250 250 250 102 102 102 219 219 219 182 182 182 12 12 12 40 40 40 129 129 129 157 157 157 115 115 115 234 234 234 130 130 130 233 233 233 52 52 52 229 229 229 82 82 82 9 9 9 137 137 137 3 3 3 169 169 169 14 14 14 134 134 134 175 175 175 209 209 209 83 83 83 22 22 22 108 108 108 253 253 253 255 255 255 121 121 121 39 39 39 95 95 95 55 55 55 59 59 59 
67 67 67 217 217 217 225 225 225 44 44 44 214 214 214 85 85 85 28 28 28 158 158 158 69 69 69 162 162 162 40 40 40 144 144 144 108 108 108 98 98 98 108 108 108 201 201 201 36 36 36 245 245 245 211 211 211 105 105 105 147 147 147 169 169 169 227 227 227 47 47 47 179 179 179 52 52 52 154 154 154 227 227 227 242 242 242 151 151 151 245 245 245 139 139 139 40 40 40 42 42 42 253 253 253 146 146 146 170 170 170 133 133 133 196 196 196 117 117 117 85 85 85 64 64 64 131 131 131 14 14 14 116 116 116 249 249 249 44 44 44 70 70 70 57 57 57 59 59 59 148 148 148 52 52 52 64 64 64 174 174 174 109 109 109 92 92 92 50 50 50 241 241 241 72 72 72 76 76 76 133 133 133 134 134 134 114 114 114 176 176 176 36 36 36 108 108 108 149 149 149 171 171 171 158 158 158 72 72 72 21 21 21 145 145 145 225 225 225 173 173 173 220 220 220 53 53 53 208 208 208 72 72 72 122 122 122 167 167 167 47 47 47 226 226 226 242 242 242 79 79 79 180 180 180 111 111 111 118 118 118 127 127 127 33 33 33 230 230 230 138 138 138 140 140 140 223 223 223 214 214 214 67 67 67 186 186 186 99 99 99 145 145 145 86 86 86 201 201 201 10 10 10 212 212 212 102 102 102 131 131 131 152 152 152 14 14 14 228 228 228 229 229 229 223 223 223 238 238 238 221 221 221 110 110 110 36 36 36 46 46 46 164 164 164 212 212 212 22 22 22 39 39 39 238 238 238 172 172 172 225 225 225 148 148 148 14 14 14 187 187 187 219 219 219 9 9 9 193 193 193 37 37 37 
10 10 10 203 203 203 67 67 67 41 41 41 251 251 251 181 181 181 134 134 134 166 166 166 227 227 227 48 48 48 8 8 8 218 218 218 130 130 130 252 252 252 131 131 131 163 163 163 50 50 50 246 246 246 237 237 237 109 109 109 107 107 107 241 241 241 150 150 150 184 184 184 246 246 246 25 25 25 178 178 178 16 16 16 146 146 146 235 235 235 218 218 218 180 180 180 14 14 14 225 225 225 208 208 208 197 197 197 132 132 132 146 146 146 56 56 56 88 88 88 120 120 120 129 129 129 92 92 92 232 232 232 31 31 31 100 100 100 226 226 226 20 20 20 130 130 130 110 110 110 174 174 174 245 245 245 89 89 89 12 12 12 207 207 207 121 121 121 37 37 37 216 216 216 140 140 140 215 215 215 246 246 246 21 21 21 17 17 17 145 145 145 57 57 57 49 49 49 114 114 114 115 115 115 173 173 173 64 64 64 127 127 127 143 143 143 247 247 247 204 204 204 148 148 148 50 50 50 33 33 33 11 11 11 68 68 68 225 225 225 179 179 179 123 123 123 191 191 191 166 166 166 14 14 14 44 44 44 250 250 250 178 178 178 54 54 54 133 133 133 227 227 227 125 125 125 131 131 131 21 21 21 11 11 11 29 29 29 213 213 213 95 95 95 202 202 202 208 208 208 68 68 68 55 55 55 29 29 29 238 238 238 211 211 211 147 147 147 139 139 139 39 39 39 43 43 43 252 252 252 54 54 54 202 202 202 140 140 140 169 169 169 15 15 15 181 181 181 198 198 198 222 222 222 21 21 21 64 64 64 170 170 170 36 36 36 164 164 164 79 79 79 137 137 137 56 56 56 174 174 174 54 54 54 
34 34 34 60 60 60 111 111 111 94 94 94 35 35 35 55 55 55 144 144 144 25 25 25 88 88 88 14 14 14 61 61 61 147 147 147 132 132 132 93 93 93 112 112 112 122 122 122 165 165 165 192 192 192 116 116 116 34 34 34 231 231 231 61 61 61 43 43 43 182 182 182 135 135 135 7 7 7 19 19 19 252 252 252 19 19 19 198 198 198 17 17 17 221 221 221 212 212 212 69 69 69 6 6 6 156 156 156 24 24 24 9 9 9 202 202 202 77 77 77 152 152 152 171 171 171 231 231 231 119 119 119 107 107 107 212 212 212 228 228 228 232 232 232 148 148 148 193 193 193 106 106 106 91 91 91 221 221 221 99 99 99 152 152 152 77 77 77 146 146 146 201 201 201 89 89 89 124 124 124 93 93 93 237 237 237 136 136 136 76 76 76 115 115 115 49 49 49 56 56 56 78 78 78 169 169 169 231 231 231 231 231 231 248 248 248 52 52 52 185 185 185 191 191 191 105 105 105 228 228 228 34 34 34 95 95 95 223 223 223 154 154 154 189 189 189 9 9 9 194 194 194 26 26 26 210 210 210 16 16 16 59 59 59 218 218 218 75 75 75 35 35 35 124 124 124 52 52 52 165 165 165 173 173 173 44 44 44 151 151 151 75 75 75 235 235 235 84 84 84 128 128 128 33 33 33 154 154 154 169 169 169 41 41 41 77 77 77 104 104 104 118 118 118 197 197 197 180 180 180 183 183 183 48 48 48 95 95 95 18 18 18 185 185 185 101 101 101 229 229 229 131 131 131 185 185 185 240 240 240 27 27 27 5 5 5 233 233 233 41 41 41 19 19 19 72 72 72 98 98 98 255 255 255 
71 71 71 134 134 134 169 169 169 132 132 132 80 80 80 46 46 46 199 199 199 121 121 121 233 233 233 100 100 100 43 43 43 219 219 219 160 160 160 159 159 159 47 47 47 228 228 228 6 6 6 214 214 214 6 6 6 245 245 245 85 85 85 19 19 19 32 32 32 116 116 116 95 95 95 208 208 208 240 240 240 128 128 128 218 218 218 59 59 59 72 72 72 31 31 31 28 28 28 32 32 32 28 28 28 182 182 182 108 108 108 228 228 228 78 78 78 124 124 124 205 205 205 189 189 189 162 162 162 130 130 130 65 65 65 35 35 35 48 48 48 96 96 96 177 177 177 215 215 215 180 180 180 157 157 157 70 70 70 94 94 94 65 65 65 48 48 48 76 76 76 214 214 214 13 13 13 116 116 116 38 38 38 42 42 42 224 224 224 99 99 99 236 236 236 149 149 149 156 156 156 90 90 90 204 204 204 142 142 142 54 54 54 111 111 111 171 171 171 28 28 28 220 220 220 38 38 38 93 93 93 251 251 251 48 48 48 0 0 0 47 47 47 171 171 171 175 175 175 148 148 148 160 160 160 164 164 164 67 67 67 96 96 96 144 144 144 108 108 108 220 220 220 119 119 119 74 74 74 80 80 80 66 66 66 235 235 235 226 226 226 22 22 22 240 240 240 169 169 169 192 192 192 191 191 191 130 130 130 132 132 132 172 172 172 207 207 207 87 87 87 217 217 217 157 157 157 158 158 158 211 211 211 176 176 176 28 28 28 244 244 244 164 164 164 207 207 207 152 152 152 69 69 69 92 92 92 200 200 200 34 34 34 190 190 190 38 38 38 190 190 190 198 198 198 43 43 43 42 42 42 230 230 230 
215 215 215 61 61 61 3 3 3 86 86 86 128 128 128 173 173 173 252 252 252 123 123 123 193 193 193 167 167 167 9 9 9 255 255 255 5 5 5 158 158 158 210 210 210 57 57 57 148 148 148 67 67 67 36 36 36 232 232 232 65 65 65 181 181 181 46 46 46 234 234 234 112 112 112 34 34 34 227 227 227 96 96 96 229 229 229 58 58 58 20 20 20 255 255 255 149 149 149 199 199 199 35 35 35 131 131 131 216 216 216 33 33 33 124 124 124 171 171 171 215 215 215 170 170 170 247 247 247 2 2 2 252 252 252 167 167 167 55 55 55 13 13 13 234 234 234 80 80 80 37 37 37 200 200 200 244 244 244 133 133 133 51 51 51 60 60 60 28 28 28 223 223 223 178 178 178 93 93 93 64 64 64 44 44 44 188 188 188 80 80 80 148 148 148 15 15 15 171 171 171 157 157 157 198 198 198 81 81 81 186 186 186 90 90 90 15 15 15 224 224 224 130 130 130 99 99 99 55 55 55 227 227 227 78 78 78 53 53 53 112 112 112 0 0 0 172 172 172 151 151 151 9 9 9 153 153 153 62 62 62 35 35 35 206 206 206 110 110 110 240 240 240 86 86 86 46 46 46 52 52 52 18 18 18 77 77 77 26 26 26 56 56 56 118 118 118 148 148 148 245 245 245 139 139 139 105 105 105 179 179 179 130 130 130 9 9 9 251 251 251 243 243 243 149 149 149 251 251 251 91 91 91 89 89 89 197 197 197 114 114 114 56 56 56 177 177 177 195 195 195 119 119 119 9 9 9 125 125 125 133 133 133 58 58 58 217 217 217 207 207 207 118 118 118 215 215 215 188 188 188 232 232 232 
21 21 21 167 167 167 30 30 30 15 15 15 142 142 142 56 56 56 172 172 172 217 217 217 253 253 253 108 108 108 102 102 102 81 81 81 21 21 21 239 239 239 149 149 149 240 240 240 67 67 67 87 87 87 2 2 2 30 30 30 117 117 117 42 42 42 5 5 5 61 61 61 244 244 244 213 213 213 44 44 44 226 226 226 174 174 174 79 79 79 204 204 204 205 205 205 14 14 14 72 72 72 137 137 137 22 22 22 161 161 161 100 100 100 110 110 110 252 252 252 74 74 74 81 81 81 175 175 175 196 196 196 26 26 26 126 126 126 58 58 58 39 39 39 72 72 72 253 253 253 55 55 55 147 147 147 118 118 118 99 99 99 81 81 81 146 146 146 135 135 135 112 112 112 131 131 131 124 124 124 136 136 136 226 226 226 50 50 50 29 29 29 109 109 109 159 159 159 95 95 95 212 212 212 23 23 23 227 227 227 37 37 37 185 185 185 79 79 79 89 89 89 210 210 210 248 248 248 216 216 216 9 9 9 253 253 253 152 152 152 230 230 230 227 227 227 61 61 61 57 57 57 215 215 215 189 189 189 253 253 253 129 129 129 49 49 49 217 217 217 244 244 244 121 121 121 208 208 208 112 112 112 24 24 24 33 33 33 75 75 75 199 199 199 242 242 242 135 135 135 150 150 150 164 164 164 45 45 45 63 63 63 70 70 70 219 219 219 198 198 198 204 204 204 118 118 118 217 217 217 245 245 245 154 154 154 155 155 155 157 157 157 167 167 167 188 188 188 156 156 156 105 105 105 204 204 204 246 246 246 18 18 18 47 47 47 48 48 48 193 193 193 6 6 6 233 233 233 192 192 192 200 200 200 
26 26 26 110 110 110 132 132 132 51 51 51 30 30 30 26 26 26 55 55 55 10 10 10 91 91 91 222 222 222 245 245 245 103 103 103 101 101 101 143 143 143 16 16 16 129 129 129 160 160 160 202 202 202 200 200 200 233 233 233 203 203 203 160 160 160 59 59 59 146 146 146 34 34 34 139 139 139 59 59 59 234 234 234 143 143 143 195 195 195 150 150 150 229 229 229 174 174 174 53 53 53 108 108 108 101 101 101 188 188 188 138 138 138 110 110 110 133 133 133 62 62 62 159 159 159 145 145 145 177 177 177 25 25 25 90 90 90 64 64 64 174 174 174 209 209 209 43 43 43 20 20 20 125 125 125 98 98 98 5 5 5 52 52 52 69 69 69 104 104 104 38 38 38 17 17 17 73 73 73 57 57 57 253 253 253 27 27 27 123 123 123 197 197 197 128 128 128 115 115 115 112 112 112 97 97 97 164 164 164 147 147 147 51 51 51 213 213 213 152 152 152 181 181 181 16 16 16 153 153 153 81 81 81 254 254 254 154 154 154 81 81 81 112 112 112 172 172 172 66 66 66 69 69 69 62 62 62 219 219 219 13 13 13 233 233 233 96 96 96 25 25 25 247 247 247 224 224 224 254 254 254 67 67 67 152 152 152 63 63 63 111 111 111 166 166 166 20 20 20 174 174 174 108 108 108 97 97 97 15 15 15 135 135 135 198 198 198 20 20 20 223 223 223 210 210 210 61 61 61 168 168 168 27 27 27 109 109 109 126 126 126 79 79 79 235 235 235 211 211 211 141 141 141 138 138 138 170 170 170 59 59 59 51 51 51 96 96 96 250 250 250 133 133 133 174 174 174 150 150 150 31 31 31 
204 204 204 34 34 34 36 36 36 66 66 66 94 94 94 183 183 183 78 78 78 4 4 4 240 240 240 15 15 15 220 220 220 115 115 115 236 236 236 94 94 94 233 233 233 141 141 141 155 155 155 52 52 52 20 20 20 39 39 39 218 218 218 189 189 189 219 219 219 232 232 232 140 140 140 126 126 126 245 245 245 208 208 208 228 228 228 187 187 187 204 204 204 182 182 182 240 240 240 208 208 208 179 179 179 203 203 203 65 65 65 27 27 27 85 85 85 100 100 100 11 11 11 9 9 9 150 150 150 11 11 11 46 46 46 180 180 180 71 71 71 165 165 165 183 183 183 194 194 194 143 143 143 135 135 135 200 200 200 98 98 98 174 174 174 16 16 16 206 206 206 190 190 190 79 79 79 67 67 67 65 65 65 118 118 118 106 106 106 96 96 96 104 104 104 120 120 120 131 131 131 213 213 213 190 190 190 171 171 171 3 3 3 86 86 86 220 220 220 79 79 79 109 109 109 30 30 30 104 104 104 135 135 135 180 180 180 17 17 17 164 164 164 43 43 43 67 67 67 78 78 78 25 25 25 181 181 181 29 29 29 72 72 72 141 141 141 168 168 168 130 130 130 150 150 150 153 153 153 124 124 124 152 152 152 123 123 123 44 44 44 85 85 85 56 56 56 19 19 19 53 53 53 75 75 75 133 133 133 77 77 77 78 78 78 20 20 20 4 4 4 93 93 93 183 183 183 226 226 226 153 153 153 83 83 83 21 21 21 76 76 76 24 24 24 164 164 164 13 13 13 196 196 196 85 85 85 93 93 93 16 16 16 88 88 88 59 59 59 201 201 201 90 90 90 68 68 68 70 70 70 117 117 117 
45 45 45 9 9 9 161 161 161 226 226 226 155 155 155 9 9 9 138 138 138 172 172 172 94 94 94 114 114 114 213 213 213 216 216 216 171 171 171 252 252 252 132 132 132 12 12 12 50 50 50 28 28 28 249 249 249 96 96 96 220 220 220 50 50 50 85 85 85 205 205 205 81 81 81 239 239 239 32 32 32 53 53 53 120 120 120 185 185 185 248 248 248 68 68 68 83 83 83 190 190 190 165 165 165 92 92 92 158 158 158 19 19 19 225 225 225 248 248 248 228 228 228 182 182 182 238 238 238 238 238 238 201 201 201 6 6 6 90 90 90 61 61 61 27 27 27 146 146 146 38 38 38 200 200 200 102 102 102 140 140 140 243 243 243 14 14 14 156 156 156 93 93 93 54 54 54 59 59 59 146 146 146 234 234 234 212 212 212 235 235 235 137 137 137 235 235 235 194 194 194 198 198 198 85 85 85 60 60 60 2 2 2 189 189 189 77 77 77 25 25 25 223 223 223 199 199 199 112 112 112 187 187 187 146 146 146 150 150 150 239 239 239 157 157 157 103 103 103 67 67 67 197 197 197 253 253 253 94 94 94 73 73 73 145 145 145 38 38 38 219 219 219 14 14 14 237 237 237 102 102 102 205 205 205 111 111 111 225 225 225 146 146 146 102 102 102 153 153 153 232 232 232 59 59 59 51 51 51 195 195 195 59 59 59 235 235 235 120 120 120 6 6 6 133 133 133 157 157 157 11 11 11 139 139 139 68 68 68 20 20 20 240 240 240 108 108 108 50 50 50 53 53 53 44 44 44 233 233 233 81 81 81 244 244 244 52 52 52 229 229 229 40 40 40 205 205 205 118 118 118 38 38 38 
215 215 215 134 134 134 94 94 94 189 189 189 242 242 242 100 100 100 132 132 132 104 104 104 158 158 158 29 29 29 182 182 182 96 96 96 127 127 127 164 164 164 132 132 132 139 139 139 1 1 1 141 141 141 19 19 19 83 83 83 210 210 210 118 118 118 21 21 21 86 86 86 110 110 110 86 86 86 111 111 111 202 202 202 110 110 110 179 179 179 142 142 142 241 241 241 222 222 222 65 65 65 123 123 123 80 80 80 7 7 7 235 235 235 250 250 250 192 192 192 60 60 60 36 36 36 37 37 37 30 30 30 254 254 254 123 123 123 178 178 178 54 54 54 40 40 40 120 120 120 29 29 29 107 107 107 52 52 52 0 0 0 101 101 101 126 126 126 47 47 47 247 247 247 179 179 179 85 85 85 85 85 85 103 103 103 77 77 77 203 203 203 93 93 93 69 69 69 222 222 222 253 253 253 176 176 176 21 21 21 235 235 235 170 170 170 63 63 63 201 201 201 111 111 111 126 126 126 160 160 160 71 71 71 180 180 180 31 31 31 150 150 150 193 193 193 13 13 13 19 19 19 89 89 89 239 239 239 38 38 38 9 9 9 138 138 138 93 93 93 216 216 216 104 104 104 88 88 88 180 180 180 179 179 179 30 30 30 164 164 164 177 177 177 88 88 88 136 136 136 66 66 66 175 175 175 64 64 64 31 31 31 159 159 159 62 62 62 0 0 0 45 45 45 233 233 233 241 241 241 128 128 128 62 62 62 0 0 0 127 127 127 125 125 125 75 75 75 155 155 155 90 90 90 68 68 68 19 19 19 109 109 109 55 55 55 33 33 33 169 169 169 220 220 220 146 146 146 79 79 79 150 150 150 
43 43 43 134 134 134 134 134 134 50 50 50 11 11 11 186 186 186 139 139 139 235 235 235 201 201 201 147 147 147 249 249 249 145 145 145 193 193 193 160 160 160 1 1 1 138 138 138 165 165 165 249 249 249 84 84 84 126 126 126 207 207 207 5 5 5 248 248 248 231 231 231 120 120 120 229 229 229 151 151 151 145 145 145 172 172 172 232 232 232 87 87 87 107 107 107 136 136 136 120 120 120 161 161 161 110 110 110 59 59 59 254 254 254 81 81 81 219 219 219 192 192 192 216 216 216 40 40 40 175 175 175 126 126 126 124 124 124 113 113 113 16 16 16 6 6 6 135 135 135 59 59 59 104 104 104 50 50 50 111 111 111 68 68 68 253 253 253 68 68 68 50 50 50 135 135 135 39 39 39 229 229 229 0 0 0 88 88 88 60 60 60 45 45 45 91 91 91 247 247 247 137 137 137 10 10 10 58 58 58 141 141 141 73 73 73 208 208 208 75 75 75 76 76 76 209 209 209 249 249 249 184 184 184 187 187 187 246 246 246 229 229 229 86 86 86 208 208 208 233 233 233 161 161 161 254 254 254 3 3 3 182 182 182 115 115 115 224 224 224 185 185 185 245 245 245 18 18 18 139 139 139 182 182 182 3 3 3 250 250 250 130 130 130 39 39 39 121 121 121 126 126 126 246 246 246 177 177 177 69 69 69 164 164 164 30 30 30 192 192 192 104 104 104 47 47 47 249 249 249 100 100 100 232 232 232 234 234 234 224 224 224 18 18 18 61 61 61 112 112 112 111 111 111 220 220 220 9 9 9 15 15 15 15 15 15 27 27 27 220 220 220 209 209 209 103 103 103 245 245 245 18 18 18 
57 57 57 181 181 181 190 190 190 147 147 147 99 99 99 33 33 33 30 30 30 161 161 161 150 150 150 217 217 217 160 160 160 249 249 249 197 197 197 31 31 31 81 81 81 32 32 32 172 172 172 37 37 37 3 3 3 137 137 137 241 241 241 141 141 141 9 9 9 141 141 141 146 146 146 26 26 26 95 95 95 254 254 254 55 55 55 234 234 234 25 25 25 228 228 228 211 211 211 9 9 9 115 115 115 17 17 17 105 105 105 223 223 223 107 107 107 233 233 233 196 196 196 4 4 4 192 192 192 29 29 29 101 101 101 35 35 35 119 119 119 112 112 112 162 162 162 13 13 13 249 249 249 88 88 88 89 89 89 19 19 19 126 126 126 242 242 242 111 111 111 242 242 242 49 49 49 151 151 151 108 108 108 18 18 18 216 216 216 223 223 223 137 137 137 180 180 180 67 67 67 213 213 213 61 61 61 49 49 49 248 248 248 102 102 102 12 12 12 64 64 64 80 80 80 119 119 119 199 199 199 196 196 196 183 183 183 107 107 107 88 88 88 54 54 54 0 0 0 199 199 199 64 64 64 186 186 186 41 41 41 240 240 240 11 11 11 181 181 181 93 93 93 196 196 196 2 2 2 234 234 234 51 51 51 61 61 61 201 201 201 181 181 181 5 5 5 45 45 45 118 118 118 57 57 57 214 214 214 119 119 119 53 53 53 30 30 30 76 76 76 37 37 37 186 186 186 45 45 45 86 86 86 235 235 235 65 65 65 164 164 164 57 57 57 200 200 200 198 198 198 153 153 153 156 156 156 30 30 30 181 181 181 9 9 9 253 253 253 2 2 2 24 24 24 78 78 78 190 190 190 9 9 9 
239 239 239 3 3 3 213 213 213 247 247 247 58 58 58 68 68 68 87 87 87 225 225 225 75 75 75 192 192 192 122 122 122 89 89 89 233 233 233 62 62 62 110 110 110 5 5 5 51 51 51 137 137 137 168 168 168 83 83 83 42 42 42 251 251 251 110 110 110 94 94 94 194 194 194 91 91 91 37 37 37 154 154 154 100 100 100 87 87 87 220 220 220 197 197 197 143 143 143 110 110 110 155 155 155 44 44 44 203 203 203 252 252 252 5 5 5 248 248 248 179 179 179 227 227 227 187 187 187 251 251 251 214 214 214 194 194 194 252 252 252 202 202 202 226 226 226 247 247 247 181 181 181 202 202 202 102 102 102 219 219 219 56 56 56 44 44 44 131 131 131 238 238 238 44 44 44 165 165 165 205 205 205 140 140 140 113 113 113 175 175 175 183 183 183 76 76 76 166 166 166 60 60 60 246 246 246 16 16 16 105 105 105 237 237 237 251 251 251 88 88 88 119 119 119 240 240 240 209 209 209 120 120 120 230 230 230 213 213 213 70 70 70 0 0 0 133 133 133 128 128 128 155 155 155 205 205 205 200 200 200 210 210 210 42 42 42 64 64 64 220 220 220 148 148 148 235 235 235 230 230 230 170 170 170 164 164 164 4 4 4 237 237 237 45 45 45 195 195 195 89 89 89 61 61 61 121 121 121 163 163 163 101 101 101 17 17 17 202 202 202 228 228 228 119 119 119 45 45 45 178 178 178 228 228 228 78 78 78 193 193 193 237 237 237 187 187 187 42 42 42 138 138 138 11 11 11 66 66 66 53 53 53 29 29 29 207 207 207 92 92 92 162 162 162 210 210 210 157 157 157 229 229 229 
166 166 166 220 220 220 115 115 115 79 79 79 36 36 36 168 168 168 149 149 149 241 241 241 61 61 61 154 154 154 20 20 20 211 211 211 253 253 253 84 84 84 232 232 232 24 24 24 234 234 234 172 172 172 224 224 224 217 217 217 204 204 204 237 237 237 91 91 91 25 25 25 99 99 99 47 47 47 166 166 166 225 225 225 86 86 86 40 40 40 98 98 98 62 62 62 252 252 252 210 210 210 165 165 165 164 164 164 186 186 186 14 14 14 176 176 176 11 11 11 91 91 91 210 210 210 112 112 112 95 95 95 56 56 56 70 70 70 28 28 28 3 3 3 94 94 94 34 34 34 190 190 190 7 7 7 138 138 138 6 6 6 91 91 91 198 198 198 186 186 186 193 193 193 180 180 180 110 110 110 82 82 82 204 204 204 61 61 61 83 83 83 151 151 151 251 251 251 49 49 49 51 51 51 136 136 136 119 119 119 76 76 76 5 5 5 5 5 5 79 79 79 68 68 68 45 45 45 119 119 119 182 182 182 220 220 220 51 51 51 206 206 206 251 251 251 179 179 179 1 1 1 95 95 95 217 217 217 219 219 219 83 83 83 113 113 113 203 203 203 186 186 186 216 216 216 56 56 56 219 219 219 31 31 31 65 65 65 69 69 69 148 148 148 158 158 158 171 171 171 142 142 142 97 97 97 172 172 172 82 82 82 127 127 127 205 205 205 124 124 124 215 215 215 23 23 23 154 154 154 135 135 135 88 88 88 4 4 4 4 4 4 49 49 49 1 1 1 224 224 224 82 82 82 82 82 82 142 142 142 198 198 198 199 199 199 83 83 83 144 144 144 166 166 166 235 235 235 234 234 234 48 48 48 
139 139 139 171 171 171 31 31 31 143 143 143 96 96 96 36 36 36 135 135 135 57 57 57 154 154 154 86 86 86 98 98 98 38 38 38 84 84 84 193 193 193 40 40 40 7 7 7 67 67 67 233 233 233 30 30 30 116 116 116 4 4 4 67 67 67 103 103 103 40 40 40 92 92 92 186 186 186 214 214 214 64 64 64 62 62 62 184 184 184 80 80 80 245 245 245 225 225 225 125 125 125 207 207 207 35 35 35 205 205 205 22 22 22 150 150 150 178 178 178 76 76 76 67 67 67 29 29 29 88 88 88 179 179 179 182 182 182 130 130 130 171 171 171 196 196 196 103 103 103 92 92 92 200 200 200 142 142 142 50 50 50 199 199 199 92 92 92 35 35 35 130 130 130 157 157 157 83 83 83 189 189 189 190 190 190 179 179 179 39 39 39 42 42 42 245 245 245 170 170 170 200 200 200 30 30 30 240 240 240 127 127 127 40 40 40 193 193 193 185 185 185 116 116 116 33 33 33 85 85 85 52 52 52 13 13 13 58 58 58 69 69 69 19 19 19 87 87 87 190 190 190 184 184 184 151 151 151 169 169 169 16 16 16 123 123 123 99 99 99 160 160 160 110 110 110 252 252 252 188 188 188 43 43 43 152 152 152 85 85 85 192 192 192 4 4 4 39 39 39 189 189 189 2 2 2 114 114 114 225 225 225 141 141 141 56 56 56 4 4 4 164 164 164 138 138 138 139 139 139 133 133 133 146 146 146 157 157 157 172 172 172 5 5 5 188 188 188 182 182 182 181 181 181 69 69 69 72 72 72 55 55 55 13 13 13 179 179 179 252 252 252 190 190 190 190 190 190 180 180 180 211 211 211 
160 160 160 175 175 175 2 2 2 238 238 238 108 108 108 76 76 76 158 158 158 178 178 178 226 226 226 128 128 128 104 104 104 98 98 98 138 138 138 104 104 104 125 125 125 103 103 103 30 30 30 108 108 108 216 216 216 71 71 71 193 193 193 73 73 73 121 121 121 183 183 183 24 24 24 171 171 171 158 158 158 149 149 149 228 228 228 164 164 164 56 56 56 44 44 44 238 238 238 206 206 206 232 232 232 205 205 205 25 25 25 141 141 141 79 79 79 189 189 189 216 216 216 36 36 36 12 12 12 26 26 26 69 69 69 96 96 96 49 49 49 73 73 73 128 128 128 112 112 112 166 166 166 179 179 179 64 64 64 238 238 238 130 130 130 120 120 120 108 108 108 43 43 43 112 112 112 231 231 231 95 95 95 150 150 150 91 91 91 53 53 53 107 107 107 166 166 166 85 85 85 209 209 209 239 239 239 139 139 139 81 81 81 105 105 105 173 173 173 110 110 110 95 95 95 48 48 48 83 83 83 226 226 226 106 106 106 80 80 80 15 15 15 206 206 206 217 217 217 207 207 207 151 151 151 237 237 237 16 16 16 115 115 115 223 223 223 0 0 0 247 247 247 105 105 105 91 91 91 167 167 167 141 141 141 59 59 59 105 105 105 117 117 117 181 181 181 50 50 50 195 195 195 179 179 179 115 115 115 135 135 135 48 48 48 41 41 41 244 244 244 115 115 115 9 9 9 127 127 127 222 222 222 103 103 103 207 207 207 90 90 90 130 130 130 123 123 123 67 67 67 11 11 11 35 35 35 104 104 104 216 216 216 180 180 180 193 193 193 189 189 189 146 146 146 213 213 213 66 66 66 125 125 125 
30 30 30 52 52 52 222 222 222 241 241 241 191 191 191 0 0 0 230 230 230 106 106 106 99 99 99 87 87 87 214 214 214 2 2 2 128 128 128 1 1 1 29 29 29 101 101 101 113 113 113 204 204 204 86 86 86 79 79 79 76 76 76 243 243 243 98 98 98 240 240 240 160 160 160 147 147 147 213 213 213 40 40 40 52 52 52 235 235 235 164 164 164 31 31 31 104 104 104 60 60 60 142 142 142 240 240 240 143 143 143 194 194 194 60 60 60 137 137 137 121 121 121 162 162 162 26 26 26 125 125 125 246 246 246 98 98 98 96 96 96 43 43 43 148 148 148 212 212 212 43 43 43 51 51 51 57 57 57 30 30 30 167 167 167 26 26 26 147 147 147 138 138 138 120 120 120 99 99 99 211 211 211 158 158 158 70 70 70 175 175 175 188 188 188 113 113 113 170 170 170 67 67 67 157 157 157 184 184 184 190 190 190 1 1 1 141 141 141 9 9 9 156 156 156 249 249 249 61 61 61 14 14 14 210 210 210 10 10 10 126 126 126 84 84 84 4 4 4 238 238 238 33 33 33 230 230 230 245 245 245 231 231 231 49 49 49 13 13 13 80 80 80 192 192 192 165 165 165 244 244 244 144 144 144 111 111 111 119 119 119 45 45 45 25 25 25 88 88 88 48 48 48 200 200 200 233 233 233 185 185 185 81 81 81 92 92 92 123 123 123 187 187 187 227 227 227 253 253 253 116 116 116 182 182 182 248 248 248 6 6 6 98 98 98 21 21 21 24 24 24 157 157 157 237 237 237 43 43 43 218 218 218 17 17 17 112 112 112 238 238 238 124 124 124 153 153 153 91 91 91 146 146 146 
112 112 112 204 204 204 208 208 208 182 182 182 158 158 158 80 80 80 123 123 123 70 70 70 229 229 229 48 48 48 161 161 161 254 254 254 40 40 40 36 36 36 216 216 216 129 129 129 90 90 90 84 84 84 157 157 157 158 158 158 25 25 25 67 67 67 152 152 152 242 242 242 116 116 116 171 171 171 76 76 76 70 70 70 47 47 47 131 131 131 227 227 227 198 198 198 0 0 0 110 110 110 23 23 23 33 33 33 235 235 235 55 55 55 243 243 243 198 198 198 85 85 85 7 7 7 150 150 150 216 216 216 105 105 105 121 121 121 189 189 189 223 223 223 93 93 93 75 75 75 215 215 215 89 89 89 168 168 168 163 163 163 141 141 141 243 243 243 179 179 179 190 190 190 69 69 69 116 116 116 235 235 235 210 210 210 187 187 187 9 9 9 51 51 51 251 251 251 175 175 175 216 216 216 251 251 251 68 68 68 103 103 103 197 197 197 170 170 170 2 2 2 189 189 189 56 56 56 182 182 182 224 224 224 184 184 184 13 13 13 14 14 14 218 218 218 160 160 160 119 119 119 50 50 50 245 245 245 159 159 159 188 188 188 61 61 61 200 200 200 169 169 169 96 96 96 208 208 208 22 22 22 247 247 247 115 115 115 20 20 20 6 6 6 51 51 51 13 13 13 68 68 68 199 199 199 230 230 230 122 122 122 14 14 14 159 159 159 200 200 200 85 85 85 94 94 94 195 195 195 133 133 133 173 173 173 106 106 106 19 19 19 179 179 179 105 105 105 180 180 180 173 173 173 15 15 15 187 187 187 66 66 66 219 219 219 208 208 208 84 84 84 121 121 121 40 40 40 48 48 48 129 129 129 
88 88 88 62 62 62 233 233 233 251 251 251 27 27 27 176 176 176 8 8 8 203 203 203 146 146 146 231 231 231 21 21 21 235 235 235 213 213 213 232 232 232 146 146 146 149 149 149 163 163 163 95 95 95 211 211 211 206 206 206 167 167 167 136 136 136 238 238 238 14 14 14 120 120 120 49 49 49 45 45 45 53 53 53 227 227 227 6 6 6 32 32 32 156 156 156 118 118 118 136 136 136 17 17 17 18 18 18 29 29 29 143 143 143 227 227 227 222 222 222 171 171 171 247 247 247 175 175 175 50 50 50 145 145 145 195 195 195 42 42 42 121 121 121 144 144 144 164 164 164 197 197 197 108 108 108 55 55 55 74 74 74 144 144 144 51 51 51 112 112 112 10 10 10 120 120 120 116 116 116 173 173 173 6 6 6 245 245 245 51 51 51 37 37 37 237 237 237 6 6 6 57 57 57 165 165 165 146 146 146 34 34 34 90 90 90 160 160 160 227 227 227 190 190 190 162 162 162 74 74 74 49 49 49 74 74 74 233 233 233 58 58 58 5 5 5 211 211 211 133 133 133 236 236 236 216 216 216 141 141 141 249 249 249 232 232 232 99 99 99 145 145 145 91 91 91 68 68 68 3 3 3 77 77 77 189 189 189 136 136 136 9 9 9 145 145 145 251 251 251 223 223 223 246 246 246 194 194 194 40 40 40 44 44 44 18 18 18 64 64 64 29 29 29 10 10 10 123 123 123 196 196 196 224 224 224 86 86 86 133 133 133 188 188 188 66 66 66 229 229 229 100 100 100 97 97 97 141 141 141 169 169 169 39 39 39 135 135 135 153 153 153 137 137 137 32 32 32 151 151 151 142 142 142 
16 16 16 190 190 190 8 8 8 204 204 204 59 59 59 76 76 76 51 51 51 157 157 157 62 62 62 134 134 134 163 163 163 111 111 111 143 143 143 40 40 40 193 193 193 168 168 168 153 153 153 187 187 187 230 230 230 8 8 8 38 38 38 161 161 161 171 171 171 254 254 254 187 187 187 53 53 53 142 142 142 96 96 96 35 35 35 147 147 147 191 191 191 146 146 146 106 106 106 176 176 176 10 10 10 11 11 11 67 67 67 22 22 22 170 170 170 219 219 219 32 32 32 5 5 5 235 235 235 47 47 47 192 192 192 173 173 173 64 64 64 112 112 112 67 67 67 54 54 54 223 223 223 45 45 45 223 223 223 0 0 0 102 102 102 59 59 59 227 227 227 125 125 125 200 200 200 108 108 108 196 196 196 18 18 18 160 160 160 5 5 5 20 20 20 154 154 154 233 233 233 53 53 53 159 159 159 50 50 50 99 99 99 56 56 56 72 72 72 108 108 108 131 131 131 91 91 91 254 254 254 221 221 221 199 199 199 147 147 147 159 159 159 173 173 173 2 2 2 156 156 156 140 140 140 66 66 66 27 27 27 147 147 147 7 7 7 129 129 129 235 235 235 55 55 55 240 240 240 134 134 134 182 182 182 69 69 69 12 12 12 204 204 204 15 15 15 163 163 163 52 52 52 91 91 91 109 109 109 89 89 89 226 226 226 38 38 38 242 242 242 112 112 112 234 234 234 231 231 231 137 137 137 9 9 9 94 94 94 244 244 244 66 66 66 255 255 255 60 60 60 13 13 13 59 59 59 174 174 174 28 28 28 54 54 54 25 25 25 137 137 137 65 65 65 206 206 206 5 5 5 30 30 30 
244 244 244 243 243 243 24 24 24 130 130 130 60 60 60 206 206 206 46 46 46 31 31 31 152 152 152 69 69 69 212 212 212 235 235 235 203 203 203 230 230 230 187 187 187 248 248 248 136 136 136 13 13 13 223 223 223 33 33 33 66 66 66 103 103 103 41 41 41 156 156 156 20 20 20 13 13 13 163 163 163 31 31 31 74 74 74 11 11 11 77 77 77 22 22 22 250 250 250 234 234 234 76 76 76 187 187 187 95 95 95 209 209 209 135 135 135 46 46 46 95 95 95 170 170 170 14 14 14 212 212 212 97 97 97 191 191 191 66 66 66 124 124 124 80 80 80 51 51 51 225 225 225 200 200 200 108 108 108 128 128 128 169 169 169 166 166 166 113 113 113 63 63 63 170 170 170 125 125 125 116 116 116 42 42 42 222 222 222 187 187 187 47 47 47 22 22 22 214 214 214 114 114 114 12 12 12 26 26 26 197 197 197 70 70 70 156 156 156 64 64 64 228 228 228 229 229 229 95 95 95 184 184 184 197 197 197 34 34 34 245 245 245 140 140 140 204 204 204 1 1 1 197 197 197 174 174 174 58 58 58 51 51 51 80 80 80 19 19 19 52 52 52 80 80 80 108 108 108 142 142 142 135 135 135 210 210 210 252 252 252 195 195 195 118 118 118 123 123 123 255 255 255 131 131 131 133 133 133 227 227 227 224 224 224 217 217 217 39 39 39 216 216 216 254 254 254 122 122 122 228 228 228 134 134 134 144 144 144 65 65 65 163 163 163 21 21 21 121 121 121 118 118 118 60 60 60 130 130 130 226 226 226 174 174 174 80 80 80 14 14 14 172 172 172 174 174 174 0 0 0 2 2 2 
89 89 89 29 29 29 142 142 142 88 88 88 180 180 180 98 98 98 181 181 181 85 85 85 160 160 160 172 172 172 177 177 177 168 168 168 87 87 87 153 153 153 239 239 239 85 85 85 99 99 99 208 208 208 140 140 140 15 15 15 245 245 245 186 186 186 200 200 200 77 77 77 105 105 105 29 29 29 170 170 170 198 198 198 54 54 54 151 151 151 11 11 11 223 223 223 143 143 143 236 236 236 226 226 226 57 57 57 117 117 117 187 187 187 69 69 69 210 210 210 99 99 99 80 80 80 178 178 178 253 253 253 55 55 55 154 154 154 2 2 2 225 225 225 85 85 85 155 155 155 75 75 75 167 167 167 99 99 99 65 65 65 66 66 66 95 95 95 234 234 234 244 244 244 6 6 6 41 41 41 61 61 61 64 64 64 123 123 123 195 195 195 62 62 62 23 23 23 97 97 97 115 115 115 105 105 105 33 33 33 178 178 178 109 109 109 167 167 167 148 148 148 151 151 151 100 100 100 24 24 24 9 9 9 253 253 253 57 57 57 192 192 192 203 203 203 119 119 119 221 221 221 86 86 86 69 69 69 198 198 198 61 61 61 254 254 254 107 107 107 28 28 28 42 42 42 130 130 130 228 228 228 131 131 131 231 231 231 237 237 237 169 169 169 226 226 226 200 200 200 34 34 34 6 6 6 41 41 41 88 88 88 136 136 136 98 98 98 218 218 218 32 32 32 146 146 146 252 252 252 40 40 40 231 231 231 1 1 1 233 233 233 252 252 252 119 119 119 232 232 232 30 30 30 9 9 9 25 25 25 211 211 211 237 237 237 133 133 133 21 21 21 39 39 39 89 89 89 159 159 159 110 110 110 
156 156 156 44 44 44 116 116 116 147 147 147 232 232 232 247 247 247 21 21 21 125 125 125 23 23 23 12 12 12 155 155 155 162 162 162 51 51 51 182 182 182 151 151 151 10 10 10 201 201 201 28 28 28 253 253 253 217 217 217 45 45 45 66 66 66 216 216 216 130 130 130 185 185 185 135 135 135 171 171 171 120 120 120 106 106 106 190 190 190 93 93 93 96 96 96 30 30 30 104 104 104 228 228 228 97 97 97 21 21 21 247 247 247 166 166 166 216 216 216 202 202 202 25 25 25 66 66 66 83 83 83 149 149 149 89 89 89 210 210 210 152 152 152 225 225 225 117 117 117 196 196 196 132 132 132 211 211 211 242 242 242 13 13 13 15 15 15 37 37 37 132 132 132 203 203 203 130 130 130 125 125 125 35 35 35 70 70 70 111 111 111 16 16 16 37 37 37 97 97 97 121 121 121 176 176 176 220 220 220 60 60 60 56 56 56 38 38 38 237 237 237 220 220 220 14 14 14 210 210 210 127 127 127 166 166 166 254 254 254 120 120 120 215 215 215 67 67 67 20 20 20 51 51 51 65 65 65 142 142 142 202 202 202 222 222 222 233 233 233 210 210 210 95 95 95 198 198 198 79 79 79 246 246 246 201 201 201 60 60 60 38 38 38 189 189 189 88 88 88 166 166 166 14 14 14 122 122 122 10 10 10 0 0 0 23 23 23 69 69 69 29 29 29 58 58 58 129 129 129 57 57 57 18 18 18 150 150 150 125 125 125 224 224 224 16 16 16 17 17 17 47 47 47 140 140 140 132 132 132 28 28 28 146 146 146 239 239 239 248 248 248 245 245 245 153 153 153 31 31 31 151 151 151 
2 2 2 245 245 245 220 220 220 247 247 247 251 251 251 70 70 70 60 60 60 97 97 97 126 126 126 237 237 237 165 165 165 36 36 36 137 137 137 152 152 152 220 220 220 55 55 55 87 87 87 60 60 60 232 232 232 121 121 121 252 252 252 49 49 49 120 120 120 208 208 208 42 42 42 174 174 174 251 251 251 213 213 213 252 252 252 130 130 130 195 195 195 73 73 73 151 151 151 125 125 125 54 54 54 253 253 253 217 217 217 147 147 147 153 153 153 36 36 36 228 228 228 162 162 162 49 49 49 47 47 47 91 91 91 211 211 211 240 240 240 172 172 172 94 94 94 117 117 117 31 31 31 229 229 229 208 208 208 77 77 77 84 84 84 170 170 170 13 13 13 206 206 206 103 103 103 217 217 217 36 36 36 25 25 25 189 189 189 75 75 75 190 190 190 211 211 211 186 186 186 235 235 235 45 45 45 184 184 184 246 246 246 72 72 72 57 57 57 189 189 189 39 39 39 162 162 162 248 248 248 0 0 0 78 78 78 252 252 252 23 23 23 113 113 113 110 110 110 188 188 188 197 197 197 81 81 81 242 242 242 204 204 204 64 64 64 89 89 89 104 104 104 168 168 168 214 214 214 36 36 36 100 100 100 247 247 247 191 191 191 4 4 4 121 121 121 11 11 11 180 180 180 141 141 141 134 134 134 72 72 72 140 140 140 252 252 252 250 250 250 59 59 59 93 93 93 126 126 126 27 27 27 176 176 176 46 46 46 86 86 86 169 169 169 73 73 73 247 247 247 187 187 187 193 193 193 165 165 165 253 253 253 221 221 221 73 73 73 229 229 229 204 204 204 79 79 79 167 167 167 80 80 80 
93 93 93 200 200 200 51 51 51 112 112 112 72 72 72 125 125 125 138 138 138 253 253 253 140 140 140 187 187 187 118 118 118 160 160 160 117 117 117 154 154 154 98 98 98 217 217 217 205 205 205 131 131 131 177 177 177 31 31 31 216 216 216 239 239 239 95 95 95 7 7 7 83 83 83 125 125 125 36 36 36 196 196 196 107 107 107 156 156 156 144 144 144 191 191 191 92 92 92 179 179 179 199 199 199 169 169 169 132 132 132 135 135 135 250 250 250 218 218 218 192 192 192 12 12 12 248 248 248 76 76 76 95 95 95 136 136 136 136 136 136 8 8 8 133 133 133 164 164 164 171 171 171 56 56 56 206 206 206 207 207 207 145 145 145 204 204 204 37 37 37 73 73 73 191 191 191 11 11 11 34 34 34 4 4 4 118 118 118 125 125 125 209 209 209 108 108 108 183 183 183 35 35 35 87 87 87 49 49 49 72 72 72 62 62 62 246 246 246 51 51 51 146 146 146 49 49 49 168 168 168 65 65 65 147 147 147 202 202 202 220 220 220 223 223 223 168 168 168 249 249 249 37 37 37 55 55 55 153 153 153 245 245 245 248 248 248 138 138 138 69 69 69 119 119 119 69 69 69 102 102 102 183 183 183 120 120 120 218 218 218 120 120 120 30 30 30 197 197 197 18 18 18 85 85 85 84 84 84 180 180 180 156 156 156 115 115 115 182 182 182 146 146 146 170 170 170 50 50 50 138 138 138 167 167 167 15 15 15 212 212 212 226 226 226 97 97 97 62 62 62 225 225 225 47 47 47 103 103 103 92 92 92 209 209 209 27 27 27 59 59 59 221 221 221 212 212 212 111 111 111 214 214 214 
12 12 12 229 229 229 72 72 72 242 242 242 167 167 167 244 244 244 86 86 86 172 172 172 67 67 67 27 27 27 135 135 135 199 199 199 134 134 134 62 62 62 192 192 192 69 69 69 223 223 223 129 129 129 89 89 89 213 213 213 246 246 246 153 153 153 229 229 229 95 95 95 34 34 34 120 120 120 238 238 238 200 200 200 112 112 112 227 227 227 73 73 73 171 171 171 13 13 13 46 46 46 85 85 85 13 13 13 85 85 85 3 3 3 37 37 37 213 213 213 238 238 238 198 198 198 250 250 250 224 224 224 97 97 97 98 98 98 203 203 203 234 234 234 195 195 195 133 133 133 31 31 31 141 141 141 127 127 127 34 34 34 222 222 222 141 141 141 152 152 152 225 225 225 164 164 164 181 181 181 217 217 217 99 99 99 147 147 147 166 166 166 141 141 141 98 98 98 106 106 106 27 27 27 163 163 163 101 101 101 130 130 130 218 218 218 87 87 87 158 158 158 253 253 253 71 71 71 220 220 220 233 233 233 98 98 98 254 254 254 56 56 56 46 46 46 240 240 240 83 83 83 96 96 96 225 225 225 53 53 53 49 49 49 185 185 185 6 6 6 137 137 137 36 36 36 65 65 65 56 56 56 16 16 16 73 73 73 246 246 246 44 44 44 102 102 102 203 203 203 206 206 206 47 47 47 214 214 214 217 217 217 167 167 167 39 39 39 108 108 108 192 192 192 163 163 163 196 196 196 217 217 217 69 69 69 33 33 33 180 180 180 192 192 192 97 97 97 16 16 16 234 234 234 180 180 180 178 178 178 7 7 7 176 176 176 167 167 167 12 12 12 5 5 5 39 39 39 170 170 170 106 106 106 
169 169 169 252 252 252 191 191 191 138 138 138 164 164 164 73 73 73 176 176 176 108 108 108 210 210 210 172 172 172 27 27 27 9 9 9 194 194 194 205 205 205 174 174 174 144 144 144 139 139 139 133 133 133 12 12 12 16 16 16 213 213 213 120 120 120 56 56 56 247 247 247 100 100 100 150 150 150 9 9 9 116 116 116 243 243 243 156 156 156 117 117 117 47 47 47 42 42 42 226 226 226 83 83 83 25 25 25 82 82 82 226 226 226 243 243 243 53 53 53 238 238 238 54 54 54 78 78 78 232 232 232 43 43 43 48 48 48 155 155 155 233 233 233 117 117 117 92 92 92 194 194 194 3 3 3 211 211 211 167 167 167 27 27 27 129 129 129 201 201 201 179 179 179 127 127 127 180 180 180 97 97 97 9 9 9 44 44 44 182 182 182 36 36 36 32 32 32 130 130 130 224 224 224 100 100 100 9 9 9 11 11 11 92 92 92 95 95 95 73 73 73 82 82 82 26 26 26 34 34 34 1 1 1 244 244 244 103 103 103 181 181 181 135 135 135 101 101 101 184 184 184 147 147 147 27 27 27 255 255 255 144 144 144 68 68 68 235 235 235 216 216 216 167 167 167 105 105 105 233 233 233 124 124 124 111 111 111 5 5 5 81 81 81 165 165 165 35 35 35 120 120 120 184 184 184 66 66 66 95 95 95 118 118 118 210 210 210 207 207 207 201 201 201 151 151 151 141 141 141 135 135 135 10 10 10 165 165 165 73 73 73 229 229 229 33 33 33 29 29 29 31 31 31 11 11 11 132 132 132 116 116 116 75 75 75 69 69 69 21 21 21 37 37 37 173 173 173 164 164 164 135 135 135 
189 189 189 58 58 58 84 84 84 7 7 7 103 103 103 98 98 98 14 14 14 245 245 245 70 70 70 138 138 138 176 176 176 209 209 209 9 9 9 94 94 94 80 80 80 7 7 7 120 120 120 245 245 245 223 223 223 80 80 80 128 128 128 132 132 132 109 109 109 250 250 250 98 98 98 224 224 224 170 170 170 51 51 51 180 180 180 180 180 180 212 212 212 117 117 117 253 253 253 29 29 29 255 255 255 152 152 152 153 153 153 75 75 75 41 41 41 39 39 39 213 213 213 153 153 153 119 119 119 124 124 124 244 244 244 109 109 109 82 82 82 38 38 38 164 164 164 157 157 157 213 213 213 172 172 172 171 171 171 46 46 46 131 131 131 181 181 181 188 188 188 50 50 50 196 196 196 134 134 134 39 39 39 36 36 36 82 82 82 124 124 124 171 171 171 162 162 162 205 205 205 124 124 124 198 198 198 147 147 147 221 221 221 71 71 71 33 33 33 56 56 56 145 145 145 228 228 228 148 148 148 161 161 161 139 139 139 83 83 83 28 28 28 252 252 252 182 182 182 196 196 196 99 99 99 43 43 43 206 206 206 149 149 149 167 167 167 96 96 96 122 122 122 156 156 156 218 218 218 194 194 194 53 53 53 224 224 224 34 34 34 143 143 143 91 91 91 65 65 65 32 32 32 7 7 7 228 228 228 154 154 154 159 159 159 227 227 227 25 25 25 87 87 87 249 249 249 59 59 59 163 163 163 154 154 154 112 112 112 52 52 52 5 5 5 156 156 156 127 127 127 192 192 192 249 249 249 234 234 234 113 113 113 97 97 97 238 238 238 227 227 227 33 33 33 150 150 150 36 36 36 118 118 118 
10 10 10 54 54 54 69 69 69 28 28 28 8 8 8 43 43 43 98 98 98 180 180 180 95 95 95 72 72 72 21 21 21 56 56 56 55 55 55 6 6 6 78 78 78 159 159 159 76 76 76 82 82 82 63 63 63 232 232 232 83 83 83 89 89 89 118 118 118 127 127 127 170 170 170 137 137 137 19 19 19 232 232 232 109 109 109 130 130 130 180 180 180 124 124 124 182 182 182 128 128 128 26 26 26 41 41 41 250 250 250 237 237 237 70 70 70 90 90 90 119 119 119 201 201 201 228 228 228 181 181 181 101 101 101 114 114 114 92 92 92 221 221 221 193 193 193 45 45 45 195 195 195 227 227 227 181 181 181 136 136 136 78 78 78 162 162 162 28 28 28 182 182 182 230 230 230 245 245 245 107 107 107 195 195 195 4 4 4 190 190 190 219 219 219 173 173 173 56 56 56 78 78 78 24 24 24 102 102 102 70 70 70 43 43 43 202 202 202 12 12 12 148 148 148 57 57 57 174 174 174 56 56 56 155 155 155 213 213 213 253 253 253 203 203 203 39 39 39 190 190 190 181 181 181 219 219 219 47 47 47 116 116 116 74 74 74 91 91 91 61 61 61 243 243 243 73 73 73 185 185 185 247 247 247 18 18 18 31 31 31 171 171 171 151 151 151 104 104 104 153 153 153 54 54 54 165 165 165 123 123 123 59 59 59 155 155 155 133 133 133 90 90 90 112 112 112 89 89 89 207 207 207 135 135 135 168 168 168 137 137 137 54 54 54 83 83 83 211 211 211 185 185 185 136 136 136 217 217 217 105 105 105 240 240 240 113 113 113 128 128 128 17 17 17 145 145 145 73 73 73 122 122 122 
167 167 167 18 18 18 104 104 104 87 87 87 164 164 164 104 104 104 194 194 194 146 146 146 229 229 229 216 216 216 188 188 188 130 130 130 89 89 89 159 159 159 79 79 79 185 185 185 174 174 174 72 72 72 46 46 46 70 70 70 166 166 166 162 162 162 87 87 87 1 1 1 89 89 89 146 146 146 7 7 7 103 103 103 123 123 123 58 58 58 59 59 59 120 120 120 180 180 180 11 11 11 157 157 157 123 123 123 189 189 189 173 173 173 44 44 44 5 5 5 190 190 190 13 13 13 191 191 191 158 158 158 80 80 80 180 180 180 209 209 209 155 155 155 208 208 208 221 221 221 42 42 42 242 242 242 143 143 143 15 15 15 118 118 118 64 64 64 63 63 63 33 33 33 221 221 221 220 220 220 31 31 31 220 220 220 179 179 179 83 83 83 12 12 12 254 254 254 10 10 10 102 102 102 47 47 47 150 150 150 65 65 65 206 206 206 201 201 201 118 118 118 125 125 125 111 111 111 53 53 53 8 8 8 10 10 10 33 33 33 83 83 83 149 149 149 33 33 33 55 55 55 229 229 229 148 148 148 62 62 62 210 210 210 162 162 162 45 45 45 85 85 85 84 84 84 17 17 17 131 131 131 3 3 3 232 232 232 18 18 18 113 113 113 70 70 70 137 137 137 121 121 121 166 166 166 105 105 105 40 40 40 53 53 53 29 29 29 56 56 56 184 184 184 135 135 135 217 217 217 98 98 98 137 137 137 56 56 56 133 133 133 243 243 243 18 18 18 105 105 105 98 98 98 49 49 49 122 122 122 204 204 204 120 120 120 12 12 12 237 237 237 251 251 251 107 107 107 170 170 170 17 17 17 
37 37 37 235 235 235 39 39 39 114 114 114 241 241 241 175 175 175 242 242 242 229 229 229 183 183 183 130 130 130 137 137 137 139 139 139 92 92 92 39 39 39 166 166 166 226 226 226 126 126 126 11 11 11 189 189 189 163 163 163 119 119 119 40 40 40 25 25 25 138 138 138 164 164 164 172 172 172 156 156 156 123 123 123 43 43 43 97 97 97 90 90 90 66 66 66 64 64 64 233 233 233 27 27 27 235 235 235 5 5 5 17 17 17 29 29 29 91 91 91 59 59 59 23 23 23 107 107 107 8 8 8 26 26 26 49 49 49 35 35 35 16 16 16 145 145 145 122 122 122 251 251 251 48 48 48 160 160 160 41 41 41 168 168 168 71 71 71 67 67 67 222 222 222 133 133 133 216 216 216 139 139 139 103 103 103 68 68 68 205 205 205 215 215 215 136 136 136 109 109 109 226 226 226 54 54 54 168 168 168 128 128 128 197 197 197 125 125 125 175 175 175 48 48 48 82 82 82 245 245 245 182 182 182 25 25 25 197 197 197 91 91 91 29 29 29 39 39 39 108 108 108 120 120 120 140 140 140 96 96 96 193 193 193 215 215 215 9 9 9 114 114 114 99 99 99 250 250 250 199 199 199 193 193 193 239 239 239 88 88 88 224 224 224 114 114 114 24 24 24 172 172 172 126 126 126 109 109 109 7 7 7 238 238 238 11 11 11 23 23 23 153 153 153 145 145 145 38 38 38 84 84 84 60 60 60 170 170 170 103 103 103 117 117 117 94 94 94 250 250 250 139 139 139 29 29 29 137 137 137 118 118 118 105 105 105 237 237 237 104 104 104 118 118 118 11 11 11 26 26 26 143 143 143 
251 251 251 79 79 79 203 203 203 47 47 47 253 253 253 56 56 56 213 213 213 35 35 35 25 25 25 26 26 26 27 27 27 93 93 93 14 14 14 236 236 236 214 214 214 161 161 161 9 9 9 27 27 27 244 244 244 200 200 200 40 40 40 203 203 203 27 27 27 36 36 36 231 231 231 87 87 87 50 50 50 37 37 37 82 82 82 81 81 81 57 57 57 48 48 48 44 44 44 237 237 237 130 130 130 159 159 159 186 186 186 43 43 43 194 194 194 176 176 176 93 93 93 134 134 134 3 3 3 170 170 170 28 28 28 43 43 43 99 99 99 118 118 118 131 131 131 246 246 246 140 140 140 118 118 118 74 74 74 115 115 115 185 185 185 20 20 20 206 206 206 241 241 241 66 66 66 62 62 62 207 207 207 210 210 210 142 142 142 156 156 156 253 253 253 201 201 201 191 191 191 116 116 116 96 96 96 134 134 134 250 250 250 83 83 83 237 237 237 136 136 136 106 106 106 74 74 74 203 203 203 131 131 131 11 11 11 205 205 205 215 215 215 217 217 217 189 189 189 1 1 1 60 60 60 36 36 36 61 61 61 81 81 81 97 97 97 141 141 141 180 180 180 89 89 89 163 163 163 155 155 155 129 129 129 73 73 73 9 9 9 67 67 67 223 223 223 25 25 25 14 14 14 140 140 140 105 105 105 249 249 249 95 95 95 246 246 246 3 3 3 24 24 24 90 90 90 150 150 150 160 160 160 165 165 165 14 14 14 40 40 40 193 193 193 115 115 115 190 190 190 168 168 168 134 134 134 243 243 243 195 195 195 228 228 228 117 117 117 218 218 218 31 31 31 36 36 36 7 7 7 5 5 5 
160 160 160 76 76 76 233 233 233 246 246 246 103 103 103 186 186 186 185 185 185 75 75 75 118 118 118 33 33 33 95 95 95 189 189 189 190 190 190 179 179 179 230 230 230 161 161 161 83 83 83 79 79 79 211 211 211 94 94 94 175 175 175 105 105 105 215 215 215 116 116 116 125 125 125 89 89 89 2 2 2 129 129 129 186 186 186 168 168 168 73 73 73 99 99 99 234 234 234 233 233 233 155 155 155 93 93 93 166 166 166 63 63 63 52 52 52 80 80 80 181 181 181 8 8 8 78 78 78 8 8 8 181 181 181 74 74 74 181 181 181 156 156 156 104 104 104 0 0 0 221 221 221 12 12 12 168 168 168 36 36 36 228 228 228 175 175 175 44 44 44 5 5 5 102 102 102 108 108 108 96 96 96 212 212 212 123 123 123 155 155 155 179 179 179 214 214 214 86 86 86 192 192 192 177 177 177 105 105 105 206 206 206 48 48 48 46 46 46 44 44 44 191 191 191 126 126 126 81 81 81 9 9 9 208 208 208 135 135 135 243 243 243 126 126 126 172 172 172 23 23 23 61 61 61 47 47 47 112 112 112 189 189 189 253 253 253 226 226 226 136 136 136 158 158 158 185 185 185 120 120 120 92 92 92 138 138 138 57 57 57 210 210 210 57 57 57 210 210 210 135 135 135 225 225 225 250 250 250 127 127 127 148 148 148 78 78 78 54 54 54 33 33 33 193 193 193 213 213 213 120 120 120 107 107 107 22 22 22 150 150 150 211 211 211 7 7 7 235 235 235 182 182 182 32 32 32 42 42 42 196 196 196 169 169 169 50 50 50 61 61 61 26 26 26 255 255 255 37 37 37 250 250 250 
96 96 96 206 206 206 212 212 212 85 85 85 223 223 223 241 241 241 199 199 199 133 133 133 193 193 193 125 125 125 205 205 205 211 211 211 67 67 67 86 86 86 55 55 55 35 35 35 198 198 198 36 36 36 10 10 10 186 186 186 45 45 45 138 138 138 212 212 212 254 254 254 8 8 8 160 160 160 88 88 88 53 53 53 95 95 95 82 82 82 166 166 166 132 132 132 252 252 252 217 217 217 188 188 188 163 163 163 219 219 219 184 184 184 87 87 87 210 210 210 191 191 191 168 168 168 146 146 146 132 132 132 109 109 109 176 176 176 188 188 188 133 133 133 33 33 33 217 217 217 186 186 186 214 214 214 135 135 135 117 117 117 254 254 254 228 228 228 214 214 214 40 40 40 208 208 208 36 36 36 68 68 68 16 16 16 99 99 99 87 87 87 47 47 47 70 70 70 158 158 158 238 238 238 152 152 152 62 62 62 141 141 141 139 139 139 83 83 83 236 236 236 176 176 176 84 84 84 56 56 56 99 99 99 53 53 53 142 142 142 102 102 102 165 165 165 172 172 172 17 17 17 162 162 162 101 101 101 4 4 4 132 132 132 33 33 33 111 111 111 220 220 220 100 100 100 23 23 23 48 48 48 212 212 212 200 200 200 20 20 20 46 46 46 18 18 18 176 176 176 156 156 156 7 7 7 228 228 228 110 110 110 202 202 202 120 120 120 162 162 162 51 51 51 210 210 210 40 40 40 156 156 156 11 11 11 240 240 240 133 133 133 34 34 34 99 99 99 23 23 23 101 101 101 25 25 25 146 146 146 56 56 56 204 204 204 241 241 241 72 72 72 245 245 245 135 135 135 245 245 245 176 176 176 
231 231 231 210 210 210 171 171 171 158 158 158 20 20 20 101 101 101 7 7 7 201 201 201 213 213 213 229 229 229 148 148 148 195 195 195 100 100 100 1 1 1 164 164 164 160 160 160 11 11 11 30 30 30 205 205 205 171 171 171 80 80 80 81 81 81 125 125 125 119 119 119 221 221 221 156 156 156 46 46 46 111 111 111 187 187 187 137 137 137 199 199 199 162 162 162 91 91 91 81 81 81 11 11 11 143 143 143 116 116 116 19 19 19 78 78 78 255 255 255 166 166 166 84 84 84 109 109 109 217 217 217 204 204 204 115 115 115 138 138 138 54 54 54 226 226 226 33 33 33 79 79 79 120 120 120 219 219 219 100 100 100 134 134 134 148 148 148 2 2 2 121 121 121 165 165 165 114 114 114 116 116 116 217 217 217 69 69 69 252 252 252 106 106 106 138 138 138 23 23 23 79 79 79 206 206 206 38 38 38 26 26 26 88 88 88 101 101 101 228 228 228 5 5 5 47 47 47 197 197 197 112 112 112 42 42 42 86 86 86 119 119 119 8 8 8 251 251 251 134 134 134 131 131 131 194 194 194 200 200 200 87 87 87 16 16 16 201 201 201 70 70 70 232 232 232 74 74 74 107 107 107 187 187 187 249 249 249 13 13 13 106 106 106 207 207 207 126 126 126 181 181 181 233 233 233 173 173 173 140 140 140 16 16 16 122 122 122 193 193 193 11 11 11 89 89 89 53 53 53 93 93 93 249 249 249 147 147 147 147 147 147 82 82 82 50 50 50 1 1 1 210 210 210 151 151 151 56 56 56 253 253 253 116 116 116 165 165 165 110 110 110 37 37 37 133 133 133 74 74 74 116 116 116 
54 54 54 98 98 98 128 128 128 139 139 139 230 230 230 122 122 122 157 157 157 138 138 138 189 189 189 231 231 231 38 38 38 7 7 7 29 29 29 231 231 231 92 92 92 29 29 29 111 111 111 169 169 169 112 112 112 109 109 109 69 69 69 185 185 185 116 116 116 91 91 91 207 207 207 217 217 217 59 59 59 39 39 39 161 161 161 137 137 137 179 179 179 210 210 210 49 49 49 59 59 59 35 35 35 45 45 45 227 227 227 106 106 106 202 202 202 50 50 50 195 195 195 214 214 214 166 166 166 145 145 145 233 233 233 136 136 136 140 140 140 86 86 86 172 172 172 50 50 50 2 2 2 171 171 171 237 237 237 180 180 180 16 16 16 75 75 75 15 15 15 7 7 7 180 180 180 178 178 178 202 202 202 236 236 236 114 114 114 158 158 158 209 209 209 19 19 19 133 133 133 10 10 10 102 102 102 14 14 14 130 130 130 66 66 66 39 39 39 66 66 66 199 199 199 2 2 2 168 168 168 245 245 245 38 38 38 169 169 169 57 57 57 184 184 184 192 192 192 164 164 164 104 104 104 30 30 30 10 10 10 38 38 38 162 162 162 202 202 202 187 187 187 64 64 64 90 90 90 197 197 197 153 153 153 113 113 113 92 92 92 2 2 2 120 120 120 21 21 21 225 225 225 141 141 141 72 72 72 26 26 26 232 232 232 73 73 73 181 181 181 219 219 219 214 214 214 55 55 55 151 151 151 97 97 97 57 57 57 52 52 52 97 97 97 101 101 101 14 14 14 119 119 119 175 175 175 22 22 22 42 42 42 213 213 213 221 221 221 150 150 150 255 255 255 10 10 10 19 19 19 134 134 134 
51 51 51 203 203 203 173 173 173 196 196 196 4 4 4 63 63 63 149 149 149 76 76 76 10 10 10 144 144 144 225 225 225 35 35 35 29 29 29 178 178 178 74 74 74 74 74 74 85 85 85 33 33 33 176 176 176 196 196 196 152 152 152 190 190 190 197 197 197 187 187 187 149 149 149 59 59 59 188 188 188 40 40 40 250 250 250 239 239 239 191 191 191 173 173 173 30 30 30 60 60 60 85 85 85 74 74 74 207 207 207 25 25 25 39 39 39 99 99 99 207 207 207 43 43 43 115 115 115 26 26 26 157 157 157 227 227 227 5 5 5 71 71 71 145 145 145 121 121 121 116 116 116 187 187 187 128 128 128 39 39 39 121 121 121 251 251 251 50 50 50 111 111 111 90 90 90 157 157 157 217 217 217 3 3 3 139 139 139 106 106 106 208 208 208 120 120 120 108 108 108 233 233 233 174 174 174 86 86 86 150 150 150 49 49 49 199 199 199 136 136 136 27 27 27 226 226 226 10 10 10 104 104 104 96 96 96 107 107 107 133 133 133 70 70 70 70 70 70 19 19 19 230 230 230 82 82 82 35 35 35 249 249 249 51 51 51 132 132 132 9 9 9 38 38 38 155 155 155 239 239 239 85 85 85 125 125 125 243 243 243 219 219 219 134 134 134 113 113 113 68 68 68 248 248 248 120 120 120 231 231 231 85 85 85 5 5 5 123 123 123 130 130 130 56 56 56 197 197 197 188 188 188 38 38 38 167 167 167 236 236 236 187 187 187 220 220 220 13 13 13 157 157 157 176 176 176 210 210 210 177 177 177 134 134 134 131 131 131 26 26 26 227 227 227 94 94 94 72 72 72 92 92 92 
14 14 14 127 127 127 49 49 49 73 73 73 31 31 31 251 251 251 95 95 95 124 124 124 66 66 66 50 50 50 173 173 173 251 251 251 95 95 95 84 84 84 242 242 242 171 171 171 112 112 112 193 193 193 204 204 204 184 184 184 45 45 45 25 25 25 42 42 42 0 0 0 53 53 53 208 208 208 183 183 183 131 131 131 112 112 112 24 24 24 190 190 190 91 91 91 6 6 6 203 203 203 131 131 131 181 181 181 112 112 112 181 181 181 114 114 114 145 145 145 20 20 20 184 184 184 35 35 35 39 39 39 200 200 200 26 26 26 151 151 151 61 61 61 208 208 208 0 0 0 182 182 182 27 27 27 239 239 239 15 15 15 102 102 102 221 221 221 88 88 88 118 118 118 253 253 253 190 190 190 140 140 140 136 136 136 36 36 36 160 160 160 50 50 50 191 191 191 77 77 77 197 197 197 57 57 57 66 66 66 203 203 203 121 121 121 11 11 11 227 227 227 226 226 226 164 164 164 77 77 77 214 214 214 36 36 36 83 83 83 52 52 52 221 221 221 18 18 18 3 3 3 70 70 70 184 184 184 30 30 30 2 2 2 64 64 64 114 114 114 185 185 185 202 202 202 57 57 57 156 156 156 176 176 176 87 87 87 195 195 195 213 213 213 167 167 167 217 217 217 105 105 105 202 202 202 45 45 45 222 222 222 99 99 99 211 211 211 205 205 205 205 205 205 36 36 36 177 177 177 38 38 38 82 82 82 208 208 208 33 33 33 67 67 67 92 92 92 190 190 190 104 104 104 127 127 127 215 215 215 105 105 105 182 182 182 52 52 52 13 13 13 84 84 84 67 67 67 27 27 27 82 82 82 
26 26 26 40 40 40 212 212 212 209 209 209 24 24 24 184 184 184 179 179 179 195 195 195 18 18 18 20 20 20 221 221 221 169 169 169 129 129 129 200 200 200 77 77 77 163 163 163 179 179 179 8 8 8 88 88 88 200 200 200 160 160 160 252 252 252 154 154 154 215 215 215 231 231 231 202 202 202 120 120 120 201 201 201 36 36 36 124 124 124 194 194 194 180 180 180 252 252 252 210 210 210 108 108 108 27 27 27 112 112 112 170 170 170 38 38 38 196 196 196 220 220 220 44 44 44 112 112 112 124 124 124 125 125 125 94 94 94 137 137 137 162 162 162 40 40 40 227 227 227 134 134 134 111 111 111 239 239 239 112 112 112 58 58 58 190 190 190 67 67 67 69 69 69 246 246 246 142 142 142 153 153 153 36 36 36 53 53 53 214 214 214 153 153 153 80 80 80 187 187 187 19 19 19 188 188 188 239 239 239 17 17 17 88 88 88 84 84 84 165 165 165 30 30 30 85 85 85 51 51 51 166 166 166 35 35 35 224 224 224 23 23 23 136 136 136 248 248 248 69 69 69 97 97 97 102 102 102 87 87 87 56 56 56 220 220 220 39 39 39 233 233 233 210 210 210 103 103 103 193 193 193 147 147 147 125 125 125 222 222 222 120 120 120 242 242 242 57 57 57 54 54 54 207 207 207 231 231 231 185 185 185 123 123 123 175 175 175 220 220 220 84 84 84 98 98 98 10 10 10 170 170 170 4 4 4 89 89 89 43 43 43 54 54 54 169 169 169 171 171 171 88 88 88 96 96 96 161 161 161 53 53 53 181 181 181 245 245 245 230 230 230 234 234 234 191 191 191 84 84 84 200 200 200 
