P3
16 16
255
73 73 73 237 237 237 15 15 15 11 11 11 240 240 240 12 12 12 113 113 113 2 2 2 185 185 185 107 107 107 253 253 253 213 213 213 135 135 135 83 83 83 161 161 161 152 152 152 
49 49 49 188 188 188 39 39 39 219 219 219 203 203 203 169 169 169 6 6 6 8 8 8 100 100 100 11 11 11 237 237 237 90 90 90 58 58 58 92 92 92 203 203 203 126 126 126 
38 38 38 191 191 191 71 71 71 135 135 135 10 10 10 240 240 240 155 155 155 95 95 95 221 221 221 213 213 213 2 2 2 173 173 173 179 179 179 104 104 104 162 162 162 83 83 83 
85 85 85 26 26 26 194 194 194 116 116 116 143 143 143 104 104 104 97 97 97 217 217 217 209 209 209 98 98 98 204 204 204 227 227 227 43 43 43 198 198 198 212 212 212 235 235 235 
28 28 28 119 119 119 4 4 4 237 237 237 94 94 94 170 170 170 66 66 66 144 144 144 79 79 79 203 203 203 81 81 81 245 245 245 24 24 24 198 198 198 151 151 151 255 255 255 
88 88 88 147 147 147 237 237 237 99 99 99 102 102 102 172 172 172 145 145 145 237 237 237 185 185 185 187 187 187 243 243 243 223 223 223 69 69 69 189 189 189 191 191 191 244 244 244 
220 220 220 48 48 48 222 222 222 67 67 67 80 80 80 167 167 167 67 67 67 2 2 2 21 21 21 106 106 106 185 185 185 155 155 155 108 108 108 88 88 88 138 138 138 0 0 0 
234 234 234 114 114 114 207 207 207 73 73 73 214 214 214 111 111 111 142 142 142 80 80 80 19 19 19 73 73 73 49 49 49 120 120 120 223 223 223 83 83 83 78 78 78 51 51 51 
136 136 136 70 70 70 62 62 62 90 90 90 3 3 3 227 227 227 222 222 222 228 228 228 210 210 210 132 132 132 124 124 124 31 31 31 44 44 44 158 158 158 3 3 3 247 247 247 
71 71 71 28 28 28 188 188 188 224 224 224 178 178 178 29 29 29 83 83 83 204 204 204 178 178 178 43 43 43 239 239 239 206 206 206 60 60 60 140 140 140 169 169 169 46 46 46 
5 5 5 181 181 181 196 196 196 5 5 5 104 104 104 40 40 40 224 224 224 44 44 44 24 24 24 254 254 254 105 105 105 18 18 18 238 238 238 107 107 107 53 53 53 178 178 178 
181 181 181 139 139 139 125 125 125 198 198 198 77 77 77 252 252 252 144 144 144 77 77 77 54 54 54 50 50 50 29 29 29 153 153 153 213 213 213 138 138 138 1 1 1 211 211 211 
249 249 249 219 219 219 231 231 231 243 243 243 55 55 55 35 35 35 152 152 152 229 229 229 156 156 156 223 223 223 163 163 163 20 20 20 149 149 149 16 16 16 236 236 236 23 23 23 
180 180 180 142 142 142 170 170 170 141 141 141 137 137 137 126 126 126 191 191 191 58 58 58 255 255 255 43 43 43 154 154 154 177 177 177 159 159 159 144 144 144 172 172 172 187 187 187 
128 128 128 64 64 64 112 112 112 44 44 44 192 192 192 100 100 100 19 19 19 8 8 8 141 141 141 118 118 118 56 56 56 167 167 167 44 44 44 233 233 233 143 143 143 155 155 155 
118 118 118 229 229 229 240 240 240 95 95 95 194 194 194 119 119 119 109 109 109 211 211 211 41 41 41 61 61 61 212 212 212 103 103 103 169 169 169 51 51 51 254 254 254 92 92 92 
